; generated by Slic3r 1.35.5-prusa3d-win64 on 2017-06-22 at 18:40:46

; 

; external perimeters extrusion width = 0.45mm
; perimeters extrusion width = 0.45mm
; infill extrusion width = 0.45mm
; solid infill extrusion width = 0.45mm
; top infill extrusion width = 0.40mm
; first layer extrusion width = 0.42mm

M107
M115 U3.0.11 ; tell printer latest fw version
M83  ; extruder relative mode
M104 S215 ; set extruder temp
M140 S55 ; set bed temp
M190 S55 ; wait for bed temp
M109 S215 ; wait for extruder temp
G28 W ; home all without mesh bed level
G80 ; mesh bed leveling
G1 Y-3.0 F1000.0 ; go outside pritn area
G1 X60.0 E9.0  F1000.0 ; intro line
G1 X100.0 E12.5  F1000.0 ; intro line
; Filament gcode

G21 ; set units to millimeters
G90 ; use absolute coordinates
M83 ; use relative distances for extrusion
G1 E-0.80000 F2100.00000
G1 Z0.200 F7200.000
G1 X112.437 Y81.491 F7200.000
G1 E0.80000 F2100.00000
M204 S1000
G1 F2100
G1 X112.930 Y80.683 E0.02968
G1 X113.335 Y80.306 E0.01733
G1 X113.810 Y80.016 E0.01745
G1 X114.334 Y79.828 E0.01745
G1 X114.885 Y79.748 E0.01745
G1 X135.004 Y79.746 E0.63084
G1 X136.005 Y79.936 E0.03195
G1 X136.866 Y80.474 E0.03183
G1 X137.473 Y81.288 E0.03183
G1 X137.745 Y82.270 E0.03195
G1 X137.753 Y102.586 E0.63700
G1 X137.563 Y103.509 E0.02955
G1 X137.070 Y104.317 E0.02968
G1 X136.515 Y104.800 E0.02307
G1 X135.856 Y105.118 E0.02294
G1 X127.250 Y107.650 E0.28127
G1 X126.529 Y107.754 E0.02282
G1 X123.443 Y107.754 E0.09678
G1 X122.862 Y107.679 E0.01835
G1 X114.156 Y105.122 E0.28450
G1 X113.643 Y104.897 E0.01758
G1 X113.182 Y104.569 E0.01771
G1 X112.791 Y104.145 E0.01809
G1 X112.497 Y103.649 E0.01809
G1 X112.312 Y103.102 E0.01809
G1 X112.246 Y102.529 E0.01809
G1 X112.247 Y82.414 E0.63069
G1 X112.425 Y81.550 E0.02767
G1 F5760
G1 X112.930 Y80.683 E-0.34745
G1 F5760
G1 X113.335 Y80.306 E-0.19138
G1 F5760
G1 X113.810 Y80.016 E-0.19280
G1 F5760
G1 X113.887 Y79.989 E-0.02837
G1 E-0.04000 F2100.00000
G1 X113.989 Y80.349 F7200.000
G1 E0.80000 F2100.00000
G1 F2100
G1 X114.911 Y80.125 E0.02977
G1 X135.004 Y80.123 E0.62999
G1 X135.871 Y80.288 E0.02767
G1 X136.617 Y80.758 E0.02767
G1 X137.141 Y81.468 E0.02767
G1 X137.371 Y82.324 E0.02778
G1 X137.376 Y102.565 E0.63464
G1 X137.209 Y103.378 E0.02602
G1 X136.773 Y104.084 E0.02602
G1 X136.297 Y104.492 E0.01965
G1 X135.728 Y104.763 E0.01977
G1 X127.149 Y107.287 E0.28040
G1 X126.521 Y107.377 E0.01989
G1 X123.458 Y107.377 E0.09604
G1 X122.953 Y107.313 E0.01597
G1 X114.278 Y104.765 E0.28347
G1 X113.822 Y104.565 E0.01562
G1 X113.415 Y104.271 E0.01574
G1 X113.083 Y103.905 E0.01550
G1 X112.834 Y103.479 E0.01550
G1 X112.678 Y103.009 E0.01550
G1 X112.623 Y102.518 E0.01550
G1 X112.624 Y82.435 E0.62969
G1 X112.791 Y81.622 E0.02602
G1 X113.227 Y80.916 E0.02602
G1 X113.940 Y80.385 E0.02789
G1 F5760
G1 X114.911 Y80.125 E-0.34813
G1 F5760
G1 X116.101 Y80.124 E-0.41187
G1 E-0.04000 F2100.00000
G1 X123.569 Y104.087 F7200.000
G1 E0.80000 F2100.00000
G1 F840
G1 X126.431 Y104.087 E0.08971
G1 X126.198 Y104.413 E0.01256
G1 X123.802 Y104.413 E0.07512
G1 X123.604 Y104.136 E0.01067
G1 X123.608 Y104.790 F7200.000
G1 F840
G1 X122.837 Y103.710 E0.04161
G1 X127.163 Y103.710 E0.13566
G1 X126.392 Y104.790 E0.04161
G1 X123.668 Y104.790 E0.08540
G1 X123.613 Y104.390 F7200.000
G1 F5760
G1 X122.837 Y103.710 E-0.47207
G1 F5760
G1 X123.668 Y103.710 E-0.28793
G1 E-0.04000 F2100.00000
G1 X118.036 Y85.536 F7200.000
G1 E0.80000 F2100.00000
G1 F1680
G1 X131.964 Y85.536 E0.43671
G1 X131.964 Y99.464 E0.43671
G1 X118.036 Y99.464 E0.43671
G1 X118.036 Y85.596 E0.43483
G1 X118.413 Y85.913 F7200.000
G1 F1680
G1 X131.587 Y85.913 E0.41307
G1 X131.587 Y99.087 E0.41307
G1 X118.413 Y99.087 E0.41307
G1 X118.413 Y85.973 E0.41119
G1 X118.790 Y86.290 F7200.000
G1 F1260
G1 X131.210 Y86.290 E0.38942
G1 X131.210 Y98.710 E0.38942
G1 X118.790 Y98.710 E0.38942
G1 X118.790 Y86.350 E0.38754
G1 X118.686 Y85.904 F7200.000
G1 F5760
G1 X120.984 Y86.339 E-0.76000
G1 E-0.04000 F2100.00000
G1 X115.964 Y83.464 F7200.000
G1 E0.80000 F2100.00000
G1 F1680
G1 X134.036 Y83.464 E0.56663
G1 X134.036 Y101.536 E0.56663
G1 X115.964 Y101.536 E0.56663
G1 X115.964 Y83.524 E0.56474
G1 X115.587 Y83.087 F7200.000
G1 F1680
G1 X134.413 Y83.087 E0.59027
G1 X134.413 Y101.913 E0.59027
G1 X115.587 Y101.913 E0.59027
G1 X115.587 Y83.147 E0.58839
G1 X115.210 Y82.710 F7200.000
G1 F1260
G1 X134.790 Y82.710 E0.61392
G1 X134.790 Y102.290 E0.61392
G1 X115.210 Y102.290 E0.61392
G1 X115.210 Y82.770 E0.61204
G1 X115.596 Y82.814 F7200.000
G1 F5760
G1 X117.404 Y82.763 E-0.76000
G1 E-0.04000 F2100.00000
G1 X131.802 Y85.423 F7200.000
G1 E0.80000 F2100.00000
G1 F1680
G1 X130.126 Y83.747 E0.07438
G1 X129.593 Y83.747 E0.01676
G1 X131.099 Y85.253 E0.06685
G1 X130.565 Y85.253 E0.01676
G1 X129.059 Y83.747 E0.06685
G1 X128.525 Y83.747 E0.01676
G1 X130.031 Y85.253 E0.06685
G1 X129.497 Y85.253 E0.01676
G1 X127.991 Y83.747 E0.06685
G1 X127.457 Y83.747 E0.01676
G1 X128.963 Y85.253 E0.06685
G1 X128.430 Y85.253 E0.01676
G1 X126.923 Y83.747 E0.06685
G1 X126.390 Y83.747 E0.01676
G1 X127.896 Y85.253 E0.06685
G1 X127.362 Y85.253 E0.01676
G1 X125.856 Y83.747 E0.06685
G1 X125.322 Y83.747 E0.01676
G1 X126.828 Y85.253 E0.06685
G1 X126.294 Y85.253 E0.01676
G1 X124.788 Y83.747 E0.06685
G1 X124.254 Y83.747 E0.01676
G1 X125.760 Y85.253 E0.06685
G1 X125.227 Y85.253 E0.01676
G1 X123.720 Y83.747 E0.06685
G1 X123.187 Y83.747 E0.01676
G1 X124.693 Y85.253 E0.06685
G1 X124.159 Y85.253 E0.01676
G1 X122.653 Y83.747 E0.06685
G1 X122.119 Y83.747 E0.01676
G1 X123.625 Y85.253 E0.06685
G1 X123.091 Y85.253 E0.01676
G1 X121.585 Y83.747 E0.06685
G1 X121.051 Y83.747 E0.01676
G1 X122.557 Y85.253 E0.06685
G1 X122.024 Y85.253 E0.01676
G1 X120.517 Y83.747 E0.06685
G1 X119.984 Y83.747 E0.01676
G1 X121.490 Y85.253 E0.06685
G1 X120.956 Y85.253 E0.01676
G1 X119.450 Y83.747 E0.06685
G1 X118.916 Y83.747 E0.01676
G1 X120.422 Y85.253 E0.06685
G1 X119.888 Y85.253 E0.01676
G1 X118.382 Y83.747 E0.06685
G1 X117.848 Y83.747 E0.01676
G1 X119.354 Y85.253 E0.06685
G1 X118.821 Y85.253 E0.01676
G1 X117.315 Y83.747 E0.06685
G1 X116.781 Y83.747 E0.01676
G1 X118.287 Y85.253 E0.06685
G1 X117.753 Y85.253 E0.01675
G1 X116.247 Y83.747 E0.06685
G1 X116.247 Y84.281 E0.01676
G1 X117.753 Y85.787 E0.06685
G1 X117.753 Y86.321 E0.01676
G1 X116.247 Y84.815 E0.06685
G1 X116.247 Y85.348 E0.01676
G1 X117.753 Y86.855 E0.06685
G1 X117.753 Y87.388 E0.01676
G1 X116.247 Y85.882 E0.06685
G1 X116.247 Y86.416 E0.01676
G1 X117.753 Y87.922 E0.06685
G1 X117.753 Y88.456 E0.01676
G1 X116.247 Y86.950 E0.06685
G1 X116.247 Y87.484 E0.01676
G1 X117.753 Y88.990 E0.06685
G1 X117.753 Y89.524 E0.01676
G1 X116.247 Y88.018 E0.06685
G1 X116.247 Y88.551 E0.01676
G1 X117.753 Y90.058 E0.06685
G1 X117.753 Y90.591 E0.01676
G1 X116.247 Y89.085 E0.06685
G1 X116.247 Y89.619 E0.01676
G1 X117.753 Y91.125 E0.06685
G1 X117.753 Y91.659 E0.01676
G1 X116.247 Y90.153 E0.06685
G1 X116.247 Y90.687 E0.01676
G1 X117.753 Y92.193 E0.06685
G1 X117.753 Y92.727 E0.01676
G1 X116.247 Y91.221 E0.06685
G1 X116.247 Y91.754 E0.01676
G1 X117.753 Y93.261 E0.06685
G1 X117.753 Y93.794 E0.01676
G1 X116.247 Y92.288 E0.06685
G1 X116.247 Y92.822 E0.01676
G1 X117.753 Y94.328 E0.06685
G1 X117.753 Y94.862 E0.01676
G1 X116.247 Y93.356 E0.06685
G1 X116.247 Y93.890 E0.01676
G1 X117.753 Y95.396 E0.06685
G1 X117.753 Y95.930 E0.01676
G1 X116.247 Y94.424 E0.06685
G1 X116.247 Y94.957 E0.01676
G1 X117.753 Y96.463 E0.06685
G1 X117.753 Y96.997 E0.01676
G1 X116.247 Y95.491 E0.06685
G1 X116.247 Y96.025 E0.01676
G1 X117.753 Y97.531 E0.06685
G1 X117.753 Y98.065 E0.01676
G1 X116.247 Y96.559 E0.06685
G1 X116.247 Y97.093 E0.01676
G1 X117.753 Y98.599 E0.06685
G1 X117.753 Y99.133 E0.01676
G1 X116.247 Y97.626 E0.06685
G1 X116.247 Y98.160 E0.01676
G1 X119.340 Y101.253 E0.13728
G1 X118.806 Y101.253 E0.01676
G1 X116.247 Y98.694 E0.11359
G1 X116.247 Y99.228 E0.01676
G1 X118.272 Y101.253 E0.08989
G1 X117.738 Y101.253 E0.01676
G1 X116.247 Y99.762 E0.06619
G1 X116.247 Y100.296 E0.01676
G1 X117.204 Y101.253 E0.04250
G1 X116.671 Y101.253 E0.01676
G1 X116.077 Y100.660 E0.02634
G1 F5760
G1 X116.671 Y101.253 E-0.29061
G1 F5760
G1 X117.204 Y101.253 E-0.18489
G1 F5760
G1 X116.624 Y100.672 E-0.28449
G1 E-0.04000 F2100.00000
G1 X118.198 Y99.577 F7200.000
G1 E0.80000 F2100.00000
G1 F1680
G1 X119.874 Y101.253 E0.07438
G1 X120.407 Y101.253 E0.01676
G1 X118.901 Y99.747 E0.06685
G1 X119.435 Y99.747 E0.01676
G1 X120.941 Y101.253 E0.06685
G1 X121.475 Y101.253 E0.01676
G1 X119.969 Y99.747 E0.06685
G1 X120.503 Y99.747 E0.01676
G1 X122.009 Y101.253 E0.06685
G1 X122.543 Y101.253 E0.01676
G1 X121.037 Y99.747 E0.06685
G1 X121.570 Y99.747 E0.01676
G1 X123.076 Y101.253 E0.06685
G1 X123.610 Y101.253 E0.01676
G1 X122.104 Y99.747 E0.06685
G1 X122.638 Y99.747 E0.01676
G1 X124.144 Y101.253 E0.06685
G1 X124.678 Y101.253 E0.01676
G1 X123.172 Y99.747 E0.06685
G1 X123.706 Y99.747 E0.01676
G1 X125.212 Y101.253 E0.06685
G1 X125.746 Y101.253 E0.01676
G1 X124.239 Y99.747 E0.06685
G1 X124.773 Y99.747 E0.01676
G1 X126.279 Y101.253 E0.06685
G1 X126.813 Y101.253 E0.01676
G1 X125.307 Y99.747 E0.06685
G1 X125.841 Y99.747 E0.01676
G1 X127.347 Y101.253 E0.06685
G1 X127.881 Y101.253 E0.01676
G1 X126.375 Y99.747 E0.06685
G1 X126.909 Y99.747 E0.01676
G1 X128.415 Y101.253 E0.06685
G1 X128.949 Y101.253 E0.01676
G1 X127.442 Y99.747 E0.06685
G1 X127.976 Y99.747 E0.01676
G1 X129.482 Y101.253 E0.06685
G1 X130.016 Y101.253 E0.01676
G1 X128.510 Y99.747 E0.06685
G1 X129.044 Y99.747 E0.01676
G1 X130.550 Y101.253 E0.06685
G1 X131.084 Y101.253 E0.01676
G1 X129.578 Y99.747 E0.06685
G1 X130.112 Y99.747 E0.01676
G1 X131.618 Y101.253 E0.06685
G1 X132.152 Y101.253 E0.01676
G1 X130.645 Y99.747 E0.06685
G1 X131.179 Y99.747 E0.01676
G1 X132.685 Y101.253 E0.06685
G1 X133.219 Y101.253 E0.01676
G1 X131.713 Y99.747 E0.06685
G1 X132.247 Y99.747 E0.01676
G1 X133.753 Y101.253 E0.06685
G1 X133.753 Y100.719 E0.01675
G1 X132.247 Y99.213 E0.06685
G1 X132.247 Y98.679 E0.01676
G1 X133.753 Y100.185 E0.06685
G1 X133.753 Y99.652 E0.01676
G1 X132.247 Y98.146 E0.06685
G1 X132.247 Y97.612 E0.01676
G1 X133.753 Y99.118 E0.06685
G1 X133.753 Y98.584 E0.01676
G1 X132.247 Y97.078 E0.06685
G1 X132.247 Y96.544 E0.01676
G1 X133.753 Y98.050 E0.06685
G1 X133.753 Y97.516 E0.01676
G1 X132.247 Y96.010 E0.06685
G1 X132.247 Y95.476 E0.01676
G1 X133.753 Y96.983 E0.06685
G1 X133.753 Y96.449 E0.01676
G1 X132.247 Y94.943 E0.06685
G1 X132.247 Y94.409 E0.01676
G1 X133.753 Y95.915 E0.06685
G1 X133.753 Y95.381 E0.01676
G1 X132.247 Y93.875 E0.06685
G1 X132.247 Y93.341 E0.01676
G1 X133.753 Y94.847 E0.06685
G1 X133.753 Y94.313 E0.01676
G1 X132.247 Y92.807 E0.06685
G1 X132.247 Y92.273 E0.01676
G1 X133.753 Y93.780 E0.06685
G1 X133.753 Y93.246 E0.01676
G1 X132.247 Y91.740 E0.06685
G1 X132.247 Y91.206 E0.01676
G1 X133.753 Y92.712 E0.06685
G1 X133.753 Y92.178 E0.01676
G1 X132.247 Y90.672 E0.06685
G1 X132.247 Y90.138 E0.01676
G1 X133.753 Y91.644 E0.06685
G1 X133.753 Y91.110 E0.01676
G1 X132.247 Y89.604 E0.06685
G1 X132.247 Y89.070 E0.01676
G1 X133.753 Y90.577 E0.06685
G1 X133.753 Y90.043 E0.01676
G1 X132.247 Y88.537 E0.06685
G1 X132.247 Y88.003 E0.01676
G1 X133.753 Y89.509 E0.06685
G1 X133.753 Y88.975 E0.01676
G1 X132.247 Y87.469 E0.06685
G1 X132.247 Y86.935 E0.01676
G1 X133.753 Y88.441 E0.06685
G1 X133.753 Y87.907 E0.01676
G1 X132.247 Y86.401 E0.06685
G1 X132.247 Y85.868 E0.01676
G1 X133.753 Y87.374 E0.06685
G1 X133.753 Y86.840 E0.01676
G1 X130.660 Y83.747 E0.13729
G1 X131.194 Y83.747 E0.01676
G1 X133.753 Y86.306 E0.11359
G1 X133.753 Y85.772 E0.01676
G1 X131.728 Y83.747 E0.08989
G1 X132.262 Y83.747 E0.01676
G1 X133.753 Y85.238 E0.06620
G1 X133.753 Y84.705 E0.01676
G1 X132.795 Y83.747 E0.04250
G1 X133.329 Y83.747 E0.01676
G1 X133.923 Y84.340 E0.02634
M106 S255
G1 F5760
G1 X133.329 Y83.747 E-0.29067
G1 F5760
G1 X132.795 Y83.747 E-0.18489
G1 F5760
G1 X133.376 Y84.328 E-0.28444
G1 E-0.04000 F2100.00000
G1 Z0.400 F7200.000
M104 S205 ; set temperature
G1 X126.343 Y104.132 F7200.000
G1 E0.80000 F2100.00000
M204 S800
G1 F900
G1 X126.175 Y104.368 E0.00981
G1 X123.825 Y104.368 E0.07953
G1 X123.657 Y104.132 E0.00981
G1 X126.283 Y104.132 E0.08890
M204 S1000
G1 X127.134 Y103.725 F7200.000
M204 S800
G1 F900
G1 X126.384 Y104.775 E0.04368
G1 X123.616 Y104.775 E0.09371
G1 X122.866 Y103.725 E0.04368
G1 X127.074 Y103.725 E0.14245
M204 S1000
G1 X126.836 Y103.992 F7200.000
G1 F5760
G1 X126.384 Y104.775 E-0.43517
G1 F5760
G1 X125.446 Y104.775 E-0.32483
G1 E-0.04000 F2100.00000
G1 X117.961 Y85.461 F7200.000
G1 E0.80000 F2100.00000
M204 S800
G1 F1737
G1 X132.039 Y85.461 E0.47653
G1 X132.039 Y99.539 E0.47653
G1 X117.961 Y99.539 E0.47653
G1 X117.961 Y85.521 E0.47450
M204 S1000
G1 X118.368 Y85.868 F7200.000
M204 S800
G1 F1737
G1 X131.632 Y85.868 E0.44898
G1 X131.632 Y99.132 E0.44898
G1 X118.368 Y99.132 E0.44898
G1 X118.368 Y85.928 E0.44694
M204 S1000
G1 X118.775 Y86.275 F7200.000
M204 S800
G1 F1302.75
G1 X131.225 Y86.275 E0.42142
G1 X131.225 Y98.725 E0.42142
G1 X118.775 Y98.725 E0.42142
G1 X118.775 Y86.335 E0.41939
M204 S1000
G1 X118.671 Y85.889 F7200.000
G1 F5760
G1 X120.969 Y86.324 E-0.76000
G1 E-0.04000 F2100.00000
G1 X116.039 Y83.539 F7200.000
G1 E0.80000 F2100.00000
M204 S800
G1 F1737
G1 X133.961 Y83.539 E0.60663
G1 X133.961 Y101.461 E0.60663
G1 X116.039 Y101.461 E0.60663
G1 X116.039 Y83.599 E0.60460
M204 S1000
G1 X115.632 Y83.132 F7200.000
M204 S800
G1 F1737
G1 X134.368 Y83.132 E0.63419
G1 X134.368 Y101.868 E0.63419
G1 X115.632 Y101.868 E0.63419
G1 X115.632 Y83.192 E0.63216
M204 S1000
G1 X115.225 Y82.725 F7200.000
M204 S800
G1 F1302.75
G1 X134.775 Y82.725 E0.66174
G1 X134.775 Y102.275 E0.66174
G1 X115.225 Y102.275 E0.66174
G1 X115.225 Y82.785 E0.65971
M204 S1000
G1 X115.611 Y82.829 F7200.000
G1 F5760
G1 X117.419 Y82.778 E-0.76000
G1 E-0.04000 F2100.00000
G1 X116.992 Y83.661 F7200.000
G1 E0.80000 F2100.00000
M204 S2000
G1 F1737
G1 X116.344 Y84.309 E0.03128
G1 X116.344 Y84.890 E0.01984
G1 X117.390 Y83.844 E0.05049
G1 X117.971 Y83.844 E0.01984
G1 X116.344 Y85.471 E0.07855
G1 X116.344 Y86.052 E0.01984
G1 X118.552 Y83.844 E0.10661
G1 X119.132 Y83.844 E0.01984
G1 X116.161 Y86.816 E0.14352
M204 S1000
G1 F5760
G1 X117.713 Y85.264 E-0.76000
G1 E-0.04000 F2100.00000
G1 X117.839 Y85.719 F7200.000
G1 E0.80000 F2100.00000
M204 S2000
G1 F1737
G1 X116.344 Y87.213 E0.07218
G1 X116.344 Y87.794 E0.01984
G1 X117.656 Y86.483 E0.06333
G1 X117.656 Y87.064 E0.01984
G1 X116.344 Y88.375 E0.06333
G1 X116.344 Y88.956 E0.01984
G1 X117.656 Y87.645 E0.06333
G1 X117.656 Y88.226 E0.01984
G1 X116.344 Y89.537 E0.06333
G1 X116.344 Y90.118 E0.01984
G1 X117.656 Y88.807 E0.06333
G1 X117.656 Y89.388 E0.01984
G1 X116.344 Y90.699 E0.06333
G1 X116.344 Y91.280 E0.01984
G1 X117.656 Y89.969 E0.06333
G1 X117.656 Y90.550 E0.01984
G1 X116.344 Y91.861 E0.06333
G1 X116.344 Y92.442 E0.01984
G1 X117.656 Y91.131 E0.06333
G1 X117.656 Y91.712 E0.01984
G1 X116.344 Y93.023 E0.06333
G1 X116.344 Y93.604 E0.01984
G1 X117.656 Y92.292 E0.06333
G1 X117.656 Y92.873 E0.01984
G1 X116.344 Y94.184 E0.06333
G1 X116.344 Y94.765 E0.01984
G1 X117.656 Y93.454 E0.06333
G1 X117.656 Y94.035 E0.01984
G1 X116.344 Y95.346 E0.06333
G1 X116.344 Y95.927 E0.01984
G1 X117.656 Y94.616 E0.06333
G1 X117.656 Y95.197 E0.01984
G1 X116.344 Y96.508 E0.06333
G1 X116.344 Y97.089 E0.01984
G1 X117.656 Y95.778 E0.06333
G1 X117.656 Y96.359 E0.01984
G1 X116.344 Y97.670 E0.06333
G1 X116.344 Y98.251 E0.01984
G1 X117.656 Y96.940 E0.06333
G1 X117.656 Y97.521 E0.01984
G1 X116.344 Y98.832 E0.06333
G1 X116.344 Y99.413 E0.01984
G1 X117.656 Y98.102 E0.06333
G1 X117.656 Y98.683 E0.01984
G1 X116.344 Y99.994 E0.06333
G1 X116.344 Y100.575 E0.01984
G1 X117.656 Y99.264 E0.06333
G1 X117.656 Y99.844 E0.01984
G1 X116.344 Y101.156 E0.06333
G1 X116.925 Y101.156 E0.01984
G1 X118.236 Y99.844 E0.06333
G1 X118.817 Y99.844 E0.01984
G1 X117.506 Y101.156 E0.06333
G1 X118.087 Y101.156 E0.01984
G1 X119.398 Y99.844 E0.06333
G1 X119.979 Y99.844 E0.01984
G1 X118.668 Y101.156 E0.06333
G1 X119.249 Y101.156 E0.01984
G1 X120.560 Y99.844 E0.06333
G1 X121.141 Y99.844 E0.01984
G1 X119.830 Y101.156 E0.06333
G1 X120.411 Y101.156 E0.01984
G1 X121.722 Y99.844 E0.06333
G1 X122.303 Y99.844 E0.01984
