; generated by Slic3r 1.35.5-prusa3d-win64 on 2017-06-22 at 20:04:37

; 

; external perimeters extrusion width = 0.45mm
; perimeters extrusion width = 0.45mm
; infill extrusion width = 0.45mm
; solid infill extrusion width = 0.45mm
; top infill extrusion width = 0.40mm
; first layer extrusion width = 0.42mm

M107
M115 U3.0.11 ; tell printer latest fw version
M83  ; extruder relative mode
M104 S215 ; set extruder temp
M140 S55 ; set bed temp
M190 S55 ; wait for bed temp
M109 S215 ; wait for extruder temp
G28 W ; home all without mesh bed level
G80 ; mesh bed leveling
G1 Y-3.0 F1000.0 ; go outside pritn area
G1 X60.0 E9.0  F1000.0 ; intro line
G1 X100.0 E12.5  F1000.0 ; intro line
; Filament gcode

G21 ; set units to millimeters
G90 ; use absolute coordinates
M83 ; use relative distances for extrusion
G1 E-0.80000 F2100.00000
G1 Z0.200 F7200.000
G1 X85.487 Y54.961 F7200.000
G1 E0.80000 F2100.00000
M204 S1000
G1 F2100
G1 X85.845 Y54.424 E0.02024
G1 X86.338 Y54.001 E0.02036
G1 X86.923 Y53.729 E0.02024
G1 X87.564 Y53.624 E0.02036
G1 X136.379 Y53.623 E1.53055
G1 X137.221 Y53.778 E0.02684
G1 X137.953 Y54.222 E0.02684
G1 X166.731 Y80.247 E1.21656
G1 X167.074 Y80.639 E0.01633
G1 X167.325 Y81.100 E0.01645
G1 X167.502 Y81.991 E0.02849
G1 X167.502 Y128.004 E1.44271
G1 X167.442 Y128.533 E0.01668
G1 X167.263 Y129.038 E0.01680
G1 X166.726 Y129.757 E0.02813
G1 X137.969 Y155.763 E1.21568
G1 X137.134 Y156.253 E0.03036
G1 X136.382 Y156.377 E0.02390
G1 X87.621 Y156.377 E1.52886
G1 X87.092 Y156.317 E0.01668
G1 X86.587 Y156.138 E0.01680
G1 X85.876 Y155.610 E0.02778
G1 X85.407 Y154.854 E0.02790
G1 X82.605 Y146.206 E0.28501
G1 X82.498 Y145.528 E0.02154
G1 X82.499 Y64.424 E2.54295
G1 X82.608 Y63.784 E0.02036
G1 X85.468 Y55.018 E0.28910
G1 F5760
G1 X85.845 Y54.424 E-0.24366
G1 F5760
G1 X86.338 Y54.001 E-0.22489
G1 F5760
G1 X86.923 Y53.729 E-0.22358
G1 F5760
G1 X87.117 Y53.697 E-0.06787
G1 E-0.04000 F2100.00000
G1 X88.589 Y108.964 F7200.000
G1 E0.80000 F2100.00000
G1 F1680
G1 X106.661 Y108.964 E0.56663
G1 X106.661 Y115.536 E0.20605
G1 X106.089 Y115.536 E0.01792
G1 X106.089 Y109.536 E0.18813
G1 X89.161 Y109.536 E0.53078
G1 X89.161 Y126.464 E0.53078
G1 X106.089 Y126.464 E0.53078
G1 X106.089 Y120.464 E0.18813
G1 X106.661 Y120.464 E0.01792
G1 X106.661 Y127.036 E0.20605
G1 X88.589 Y127.036 E0.56663
G1 X88.589 Y118.536 E0.26651
G1 X85.839 Y118.536 E0.08622
G1 X85.839 Y117.464 E0.03360
G1 X88.589 Y117.464 E0.08622
G1 X88.589 Y109.024 E0.26463
G1 F5760
G1 X90.783 Y109.017 E-0.76000
G1 E-0.04000 F2100.00000
G1 X105.712 Y109.913 F7200.000
G1 E0.80000 F2100.00000
G1 F1680
G1 X89.538 Y109.913 E0.50713
G1 X89.538 Y126.087 E0.50713
G1 X105.712 Y126.087 E0.50713
G1 X105.712 Y120.087 E0.18813
G1 X107.038 Y120.087 E0.04157
G1 X107.038 Y127.413 E0.22970
G1 X88.212 Y127.413 E0.59027
G1 X88.212 Y118.913 E0.26651
G1 X85.788 Y118.913 E0.07601
G1 X85.788 Y119.431 E0.01623
G1 X85.462 Y119.198 E0.01256
G1 X85.462 Y116.802 E0.07512
G1 X85.788 Y116.569 E0.01256
G1 X85.788 Y117.087 E0.01623
G1 X88.212 Y117.087 E0.07601
G1 X88.212 Y108.587 E0.26651
G1 X107.038 Y108.587 E0.59027
G1 X107.038 Y115.913 E0.22970
G1 X105.712 Y115.913 E0.04157
G1 X105.712 Y109.973 E0.18624
G1 X105.335 Y110.290 F7200.000
G1 F1260
G1 X89.915 Y110.290 E0.48348
G1 X89.915 Y125.710 E0.48348
G1 X105.335 Y125.710 E0.48348
G1 X105.335 Y119.710 E0.18813
G1 X107.415 Y119.710 E0.06522
G1 X107.415 Y127.790 E0.25334
G1 X87.835 Y127.790 E0.61392
G1 X87.835 Y119.290 E0.26651
G1 X86.165 Y119.290 E0.05236
G1 X86.165 Y120.163 E0.02738
G1 X85.085 Y119.392 E0.04161
G1 X85.085 Y116.608 E0.08729
G1 X86.165 Y115.837 E0.04161
G1 X86.165 Y116.710 E0.02738
G1 X87.835 Y116.710 E0.05236
G1 X87.835 Y108.210 E0.26651
G1 X107.415 Y108.210 E0.61392
G1 X107.415 Y116.290 E0.25334
G1 X105.335 Y116.290 E0.06522
G1 X105.335 Y110.350 E0.18624
G1 X105.291 Y109.892 F7200.000
G1 F5760
G1 X103.141 Y110.341 E-0.76000
G1 E-0.04000 F2100.00000
G1 X106.375 Y115.347 F7200.000
G1 E0.80000 F2100.00000
G1 F1680
G1 X106.375 Y109.347 E0.07568
G1 X106.358 Y109.267 E0.00104
G1 X106.278 Y109.250 E0.00104
G1 X88.972 Y109.250 E0.21827
G1 X88.892 Y109.267 E0.00104
G1 X88.875 Y109.347 E0.00104
G1 X88.875 Y117.653 E0.10475
G1 X88.734 Y118.234 F7200.000
G1 F1680
G1 X88.246 Y117.747 E0.02216
G1 X87.699 Y117.747 E0.01758
G1 X88.206 Y118.253 E0.02301
G1 X87.659 Y118.253 E0.01758
G1 X87.153 Y117.747 E0.02301
G1 X86.606 Y117.747 E0.01758
G1 X87.112 Y118.253 E0.02301
G1 X86.565 Y118.253 E0.01758
G1 X85.952 Y117.640 E0.02786
G1 F5760
G1 X86.565 Y118.253 E-0.30016
G1 F5760
G1 X87.112 Y118.253 E-0.18940
G1 F5760
G1 X86.606 Y117.747 E-0.24790
G1 F5760
G1 X86.671 Y117.747 E-0.02254
G1 E-0.04000 F2100.00000
G1 X88.875 Y118.347 F7200.000
G1 E0.80000 F2100.00000
G1 F1680
G1 X88.875 Y126.653 E0.10475
G1 X88.892 Y126.733 E0.00104
G1 X88.972 Y126.750 E0.00104
G1 X106.278 Y126.750 E0.21827
G1 X106.358 Y126.733 E0.00104
G1 X106.375 Y126.653 E0.00104
G1 X106.375 Y120.653 E0.07568
G1 F5760
G1 X106.375 Y122.847 E-0.76000
G1 E-0.04000 F2100.00000
G1 X106.089 Y135.536 F7200.000
G1 E0.80000 F2100.00000
G1 F1680
G1 X89.161 Y135.536 E0.53078
G1 X89.161 Y152.464 E0.53078
G1 X106.089 Y152.464 E0.53078
G1 X106.089 Y146.464 E0.18813
G1 X106.661 Y146.464 E0.01792
G1 X106.661 Y153.036 E0.20605
G1 X88.589 Y153.036 E0.56663
G1 X88.589 Y144.536 E0.26651
G1 X85.839 Y144.536 E0.08622
G1 X85.839 Y143.464 E0.03360
G1 X88.589 Y143.464 E0.08622
G1 X88.589 Y134.964 E0.26651
G1 X106.661 Y134.964 E0.56663
G1 X106.661 Y141.536 E0.20605
G1 X106.089 Y141.536 E0.01792
G1 X106.089 Y135.596 E0.18624
G1 X105.712 Y135.913 F7200.000
G1 F1680
G1 X89.538 Y135.913 E0.50713
G1 X89.538 Y152.087 E0.50713
G1 X105.712 Y152.087 E0.50713
G1 X105.712 Y146.087 E0.18813
G1 X107.038 Y146.087 E0.04157
G1 X107.038 Y153.413 E0.22970
G1 X88.212 Y153.413 E0.59027
G1 X88.212 Y144.913 E0.26651
G1 X85.788 Y144.913 E0.07601
G1 X85.788 Y145.431 E0.01623
G1 X85.462 Y145.198 E0.01256
G1 X85.462 Y142.802 E0.07512
G1 X85.788 Y142.569 E0.01256
G1 X85.788 Y143.087 E0.01623
G1 X88.212 Y143.087 E0.07601
G1 X88.212 Y134.587 E0.26651
G1 X107.038 Y134.587 E0.59027
G1 X107.038 Y141.913 E0.22970
G1 X105.712 Y141.913 E0.04157
G1 X105.712 Y135.973 E0.18624
G1 X105.335 Y136.290 F7200.000
G1 F1260
G1 X89.915 Y136.290 E0.48348
G1 X89.915 Y151.710 E0.48348
G1 X105.335 Y151.710 E0.48348
G1 X105.335 Y145.710 E0.18813
G1 X107.415 Y145.710 E0.06522
G1 X107.415 Y153.790 E0.25334
G1 X87.835 Y153.790 E0.61392
G1 X87.835 Y145.290 E0.26651
G1 X86.165 Y145.290 E0.05236
G1 X86.165 Y146.163 E0.02738
G1 X85.085 Y145.392 E0.04161
G1 X85.085 Y142.608 E0.08729
G1 X86.165 Y141.837 E0.04161
G1 X86.165 Y142.710 E0.02738
G1 X87.835 Y142.710 E0.05236
G1 X87.835 Y134.210 E0.26651
G1 X107.415 Y134.210 E0.61392
G1 X107.415 Y142.290 E0.25334
G1 X105.335 Y142.290 E0.06522
G1 X105.335 Y136.350 E0.18624
G1 X105.291 Y135.892 F7200.000
G1 F5760
G1 X103.141 Y136.341 E-0.76000
G1 E-0.04000 F2100.00000
G1 X106.375 Y141.347 F7200.000
G1 E0.80000 F2100.00000
G1 F1680
G1 X106.375 Y135.347 E0.07568
G1 X106.358 Y135.267 E0.00104
G1 X106.278 Y135.250 E0.00104
G1 X88.972 Y135.250 E0.21827
G1 X88.892 Y135.267 E0.00104
G1 X88.875 Y135.347 E0.00104
G1 X88.875 Y143.653 E0.10475
G1 X88.734 Y144.234 F7200.000
G1 F1680
G1 X88.246 Y143.747 E0.02216
G1 X87.699 Y143.747 E0.01758
G1 X88.206 Y144.253 E0.02301
G1 X87.659 Y144.253 E0.01758
G1 X87.153 Y143.747 E0.02301
G1 X86.606 Y143.747 E0.01758
G1 X87.112 Y144.253 E0.02301
G1 X86.565 Y144.253 E0.01758
G1 X85.952 Y143.640 E0.02786
G1 F5760
G1 X86.565 Y144.253 E-0.30016
G1 F5760
G1 X87.112 Y144.253 E-0.18940
G1 F5760
G1 X86.606 Y143.747 E-0.24790
G1 F5760
G1 X86.671 Y143.747 E-0.02254
G1 E-0.04000 F2100.00000
G1 X88.875 Y144.347 F7200.000
G1 E0.80000 F2100.00000
G1 F1680
G1 X88.875 Y152.653 E0.10475
G1 X88.892 Y152.733 E0.00104
G1 X88.972 Y152.750 E0.00104
G1 X106.278 Y152.750 E0.21827
G1 X106.358 Y152.733 E0.00104
G1 X106.375 Y152.653 E0.00104
G1 X106.375 Y146.653 E0.07568
G1 F5760
G1 X106.375 Y148.847 E-0.76000
G1 E-0.04000 F2100.00000
G1 X114.589 Y144.536 F7200.000
G1 E0.80000 F2100.00000
G1 F1680
G1 X114.589 Y143.464 E0.03360
G1 X117.339 Y143.464 E0.08622
G1 X117.339 Y134.964 E0.26651
G1 X135.411 Y134.964 E0.56663
G1 X135.411 Y141.536 E0.20605
G1 X134.839 Y141.536 E0.01792
G1 X134.839 Y135.536 E0.18813
G1 X117.911 Y135.536 E0.53078
G1 X117.911 Y152.464 E0.53078
G1 X134.839 Y152.464 E0.53078
G1 X134.839 Y146.464 E0.18813
G1 X135.411 Y146.464 E0.01792
G1 X135.411 Y153.036 E0.20605
G1 X117.339 Y153.036 E0.56663
G1 X117.339 Y144.536 E0.26651
G1 X114.649 Y144.536 E0.08434
G1 X114.649 Y144.913 F7200.000
G1 F1680
G1 X114.538 Y144.913 E0.00349
G1 X114.538 Y145.431 E0.01623
G1 X114.212 Y145.198 E0.01256
G1 X114.212 Y142.802 E0.07512
G1 X114.538 Y142.569 E0.01256
G1 X114.538 Y143.087 E0.01623
G1 X116.962 Y143.087 E0.07601
G1 X116.962 Y134.587 E0.26651
G1 X135.788 Y134.587 E0.59027
G1 X135.788 Y141.913 E0.22970
G1 X134.462 Y141.913 E0.04157
G1 X134.462 Y135.913 E0.18813
G1 X118.288 Y135.913 E0.50713
G1 X118.288 Y152.087 E0.50713
G1 X134.462 Y152.087 E0.50713
G1 X134.462 Y146.087 E0.18813
G1 X135.788 Y146.087 E0.04157
G1 X135.788 Y153.413 E0.22970
G1 X116.962 Y153.413 E0.59027
G1 X116.962 Y144.913 E0.26651
G1 X114.709 Y144.913 E0.07064
G1 X114.915 Y145.290 F7200.000
G1 F1260
G1 X114.915 Y146.163 E0.02738
G1 X113.835 Y145.392 E0.04161
G1 X113.835 Y142.608 E0.08729
G1 X114.915 Y141.837 E0.04161
G1 X114.915 Y142.710 E0.02738
G1 X116.585 Y142.710 E0.05236
G1 X116.585 Y134.210 E0.26651
G1 X136.165 Y134.210 E0.61392
G1 X136.165 Y142.290 E0.25334
G1 X134.085 Y142.290 E0.06522
G1 X134.085 Y136.290 E0.18813
G1 X118.665 Y136.290 E0.48348
G1 X118.665 Y151.710 E0.48348
G1 X134.085 Y151.710 E0.48348
G1 X134.085 Y145.710 E0.18813
G1 X136.165 Y145.710 E0.06522
G1 X136.165 Y153.790 E0.25334
G1 X116.585 Y153.790 E0.61392
G1 X116.585 Y145.290 E0.26651
G1 X114.975 Y145.290 E0.05048
G1 X114.556 Y145.113 F7200.000
G1 F5760
G1 X114.915 Y146.163 E-0.30320
G1 F5760
G1 X113.842 Y145.397 E-0.45680
G1 E-0.04000 F2100.00000
G1 X114.702 Y143.640 F7200.000
G1 E0.80000 F2100.00000
G1 F1680
G1 X115.315 Y144.253 E0.02786
G1 X115.862 Y144.253 E0.01758
G1 X115.356 Y143.747 E0.02301
G1 X115.903 Y143.747 E0.01758
G1 X116.409 Y144.253 E0.02301
G1 X116.956 Y144.253 E0.01758
G1 X116.449 Y143.747 E0.02301
G1 X116.996 Y143.747 E0.01758
G1 X117.484 Y144.234 E0.02216
G1 X117.625 Y144.347 F7200.000
G1 F1680
G1 X117.625 Y152.653 E0.10475
G1 X117.642 Y152.733 E0.00104
G1 X117.722 Y152.750 E0.00104
G1 X135.028 Y152.750 E0.21827
G1 X135.108 Y152.733 E0.00104
G1 X135.125 Y152.653 E0.00104
G1 X135.125 Y146.653 E0.07568
G1 F5760
G1 X135.125 Y148.847 E-0.76000
G1 E-0.04000 F2100.00000
G1 X135.125 Y141.347 F7200.000
G1 E0.80000 F2100.00000
G1 F1680
G1 X135.125 Y135.347 E0.07568
G1 X135.108 Y135.267 E0.00104
G1 X135.028 Y135.250 E0.00104
G1 X117.722 Y135.250 E0.21827
G1 X117.642 Y135.267 E0.00104
G1 X117.625 Y135.347 E0.00104
G1 X117.625 Y143.653 E0.10475
G1 F5760
G1 X117.625 Y141.458 E-0.76000
G1 E-0.04000 F2100.00000
G1 X134.839 Y109.536 F7200.000
G1 E0.80000 F2100.00000
G1 F1680
G1 X117.911 Y109.536 E0.53078
G1 X117.911 Y126.464 E0.53078
G1 X134.839 Y126.464 E0.53078
G1 X134.839 Y120.464 E0.18813
G1 X135.411 Y120.464 E0.01792
G1 X135.411 Y127.036 E0.20605
G1 X117.339 Y127.036 E0.56663
G1 X117.339 Y118.536 E0.26651
G1 X114.589 Y118.536 E0.08622
G1 X114.589 Y117.464 E0.03360
G1 X117.339 Y117.464 E0.08622
G1 X117.339 Y108.964 E0.26651
G1 X135.411 Y108.964 E0.56663
G1 X135.411 Y115.536 E0.20605
G1 X134.839 Y115.536 E0.01792
G1 X134.839 Y109.596 E0.18624
G1 X134.462 Y109.913 F7200.000
G1 F1680
G1 X118.288 Y109.913 E0.50713
G1 X118.288 Y126.087 E0.50713
G1 X134.462 Y126.087 E0.50713
G1 X134.462 Y120.087 E0.18813
G1 X135.788 Y120.087 E0.04157
G1 X135.788 Y127.413 E0.22970
G1 X116.962 Y127.413 E0.59027
G1 X116.962 Y118.913 E0.26651
G1 X114.538 Y118.913 E0.07601
G1 X114.538 Y119.431 E0.01623
G1 X114.212 Y119.198 E0.01256
G1 X114.212 Y116.802 E0.07512
G1 X114.538 Y116.569 E0.01256
G1 X114.538 Y117.087 E0.01623
G1 X116.962 Y117.087 E0.07601
G1 X116.962 Y108.587 E0.26651
G1 X135.788 Y108.587 E0.59027
G1 X135.788 Y115.913 E0.22970
G1 X134.462 Y115.913 E0.04157
G1 X134.462 Y109.973 E0.18624
G1 X134.085 Y110.290 F7200.000
G1 F1260
G1 X118.665 Y110.290 E0.48348
G1 X118.665 Y125.710 E0.48348
G1 X134.085 Y125.710 E0.48348
G1 X134.085 Y119.710 E0.18813
G1 X136.165 Y119.710 E0.06522
G1 X136.165 Y127.790 E0.25334
G1 X116.585 Y127.790 E0.61392
G1 X116.585 Y119.290 E0.26651
G1 X114.915 Y119.290 E0.05236
G1 X114.915 Y120.163 E0.02738
G1 X113.835 Y119.392 E0.04161
G1 X113.835 Y116.608 E0.08729
G1 X114.915 Y115.837 E0.04161
G1 X114.915 Y116.710 E0.02738
G1 X116.585 Y116.710 E0.05236
G1 X116.585 Y108.210 E0.26651
G1 X136.165 Y108.210 E0.61392
G1 X136.165 Y116.290 E0.25334
G1 X134.085 Y116.290 E0.06522
G1 X134.085 Y110.350 E0.18624
G1 X134.041 Y109.892 F7200.000
G1 F5760
G1 X131.891 Y110.341 E-0.76000
G1 E-0.04000 F2100.00000
G1 X135.125 Y115.347 F7200.000
G1 E0.80000 F2100.00000
G1 F1680
G1 X135.125 Y109.347 E0.07568
G1 X135.108 Y109.267 E0.00104
G1 X135.028 Y109.250 E0.00104
G1 X117.722 Y109.250 E0.21827
G1 X117.642 Y109.267 E0.00104
G1 X117.625 Y109.347 E0.00104
G1 X117.625 Y117.653 E0.10475
G1 X117.484 Y118.234 F7200.000
G1 F1680
G1 X116.996 Y117.747 E0.02216
G1 X116.449 Y117.747 E0.01758
G1 X116.956 Y118.253 E0.02301
G1 X116.409 Y118.253 E0.01758
G1 X115.903 Y117.747 E0.02301
G1 X115.356 Y117.747 E0.01758
G1 X115.862 Y118.253 E0.02301
G1 X115.315 Y118.253 E0.01758
G1 X114.702 Y117.640 E0.02786
G1 F5760
G1 X115.315 Y118.253 E-0.30016
G1 F5760
G1 X115.862 Y118.253 E-0.18940
G1 F5760
G1 X115.356 Y117.747 E-0.24790
G1 F5760
G1 X115.421 Y117.747 E-0.02254
G1 E-0.04000 F2100.00000
G1 X117.625 Y118.347 F7200.000
G1 E0.80000 F2100.00000
G1 F1680
G1 X117.625 Y126.653 E0.10475
G1 X117.642 Y126.733 E0.00104
G1 X117.722 Y126.750 E0.00104
G1 X135.028 Y126.750 E0.21827
G1 X135.108 Y126.733 E0.00104
G1 X135.125 Y126.653 E0.00104
G1 X135.125 Y120.653 E0.07568
G1 F5760
G1 X135.125 Y122.847 E-0.76000
G1 E-0.04000 F2100.00000
G1 X134.839 Y83.536 F7200.000
G1 E0.80000 F2100.00000
G1 F1680
G1 X117.911 Y83.536 E0.53078
G1 X117.911 Y100.464 E0.53078
G1 X134.839 Y100.464 E0.53078
G1 X134.839 Y94.464 E0.18813
G1 X135.411 Y94.464 E0.01792
G1 X135.411 Y101.036 E0.20605
G1 X117.339 Y101.036 E0.56663
G1 X117.339 Y92.536 E0.26651
G1 X114.589 Y92.536 E0.08622
G1 X114.589 Y91.464 E0.03360
G1 X117.339 Y91.464 E0.08622
G1 X117.339 Y82.964 E0.26651
G1 X135.411 Y82.964 E0.56663
G1 X135.411 Y89.536 E0.20605
G1 X134.839 Y89.536 E0.01792
G1 X134.839 Y83.596 E0.18624
G1 X134.462 Y83.913 F7200.000
G1 F1680
G1 X118.288 Y83.913 E0.50713
G1 X118.288 Y100.087 E0.50713
G1 X134.462 Y100.087 E0.50713
G1 X134.462 Y94.087 E0.18813
G1 X135.788 Y94.087 E0.04157
G1 X135.788 Y101.413 E0.22970
G1 X116.962 Y101.413 E0.59027
G1 X116.962 Y92.913 E0.26651
G1 X114.538 Y92.913 E0.07601
G1 X114.538 Y93.431 E0.01623
G1 X114.212 Y93.198 E0.01256
G1 X114.212 Y90.802 E0.07512
G1 X114.538 Y90.569 E0.01256
G1 X114.538 Y91.087 E0.01623
G1 X116.962 Y91.087 E0.07601
G1 X116.962 Y82.587 E0.26651
G1 X135.788 Y82.587 E0.59027
G1 X135.788 Y89.913 E0.22970
G1 X134.462 Y89.913 E0.04157
G1 X134.462 Y83.973 E0.18624
G1 X134.085 Y84.290 F7200.000
G1 F1260
G1 X118.665 Y84.290 E0.48348
G1 X118.665 Y99.710 E0.48348
G1 X134.085 Y99.710 E0.48348
G1 X134.085 Y93.710 E0.18813
G1 X136.165 Y93.710 E0.06522
G1 X136.165 Y101.790 E0.25334
G1 X116.585 Y101.790 E0.61392
G1 X116.585 Y93.290 E0.26651
G1 X114.915 Y93.290 E0.05236
G1 X114.915 Y94.163 E0.02738
G1 X113.835 Y93.392 E0.04161
G1 X113.835 Y90.608 E0.08729
G1 X114.915 Y89.837 E0.04161
G1 X114.915 Y90.710 E0.02738
G1 X116.585 Y90.710 E0.05236
G1 X116.585 Y82.210 E0.26651
G1 X136.165 Y82.210 E0.61392
G1 X136.165 Y90.290 E0.25334
G1 X134.085 Y90.290 E0.06522
G1 X134.085 Y84.350 E0.18624
G1 X134.041 Y83.892 F7200.000
G1 F5760
G1 X131.891 Y84.341 E-0.76000
G1 E-0.04000 F2100.00000
G1 X135.125 Y89.347 F7200.000
G1 E0.80000 F2100.00000
G1 F1680
G1 X135.125 Y83.347 E0.07568
G1 X135.108 Y83.267 E0.00104
G1 X135.028 Y83.250 E0.00104
