; generated by Slic3r 1.35.5.16-prusa3d-win64 on 2017-07-19 at 23:28:26

; 

; external perimeters extrusion width = 0.45mm
; perimeters extrusion width = 0.45mm
; infill extrusion width = 0.45mm
; solid infill extrusion width = 0.45mm
; top infill extrusion width = 0.45mm
; first layer extrusion width = 0.42mm

M107
M115 U3.0.9 ; tell printer latest fw version
M83  ; extruder relative mode
M104 S215 ; set extruder temp
M140 S55 ; set bed temp
M190 S55 ; wait for bed temp
M109 S215 ; wait for extruder temp
G28 W ; home all without mesh bed level
G80 ; mesh bed leveling
G1 Y-3.0 F1000.0 ; go outside pritn area
G1 X60.0 E9.0  F1000.0 ; intro line
G1 X100.0 E12.5  F1000.0 ; intro line
; Filament gcode

G21 ; set units to millimeters
G90 ; use absolute coordinates
M83 ; use relative distances for extrusion
M106 S216.75
G1 E-0.80000 F2100.00000
G1 Z0.200 F7200.000
G1 X93.287 Y73.352 F7200.000
G1 E0.80000 F2100.00000
M204 S1000
G1 F2100
G1 X94.055 Y72.819 E0.02931
G1 X94.972 Y72.623 E0.02942
G1 X155.004 Y72.623 E1.88225
G1 X155.895 Y72.798 E0.02849
G1 X156.659 Y73.297 E0.02860
G1 X157.178 Y74.048 E0.02860
G1 X157.376 Y74.938 E0.02860
G1 X157.377 Y135.027 E1.88404
G1 X157.201 Y135.899 E0.02790
G1 X156.713 Y136.648 E0.02802
G1 X155.935 Y137.185 E0.02966
G1 X155.005 Y137.377 E0.02977
G1 X94.973 Y137.377 E1.88225
G1 X94.101 Y137.201 E0.02790
G1 X93.352 Y136.713 E0.02802
G1 X92.815 Y135.935 E0.02966
G1 X92.623 Y135.005 E0.02977
G1 X92.623 Y74.973 E1.88225
G1 X92.799 Y74.101 E0.02790
G1 X93.254 Y73.402 E0.02614

G1 F5760
G1 X94.055 Y72.819 E-0.34307
G1 F5760
G1 X94.972 Y72.623 E-0.32503
G1 F5760
G1 X95.238 Y72.623 E-0.09190
G1 E-0.04000 F2100.00000
G1 X122.036 Y124.036 F7200.000
G1 E0.80000 F2100.00000
G1 F840
G1 X127.964 Y124.036 E0.18588
G1 X127.964 Y133.964 E0.31130
G1 X122.036 Y133.964 E0.18588
G1 X122.036 Y124.096 E0.30941

G1 X122.413 Y124.413 F7200.000
G1 F840
G1 X127.587 Y124.413 E0.16223
G1 X127.587 Y133.587 E0.28765
G1 X122.413 Y133.587 E0.16223
G1 X122.413 Y124.473 E0.28577

G1 X122.790 Y124.790 F7200.000
G1 F840
G1 X127.210 Y124.790 E0.13859
G1 X127.210 Y133.210 E0.26400
G1 X122.790 Y133.210 E0.13859
G1 X122.790 Y124.850 E0.26212

G1 X122.726 Y124.395 F7200.000
G1 F5760
G1 X124.984 Y124.820 E-0.76000
G1 E-0.04000 F2100.00000
G1 X123.233 Y120.859 F7200.000
G1 E0.80000 F2100.00000
G1 F1680
G1 X122.222 Y120.721 E0.03197
G1 X121.274 Y120.523 E0.03038
G1 X120.748 Y120.388 E0.01702
G1 X119.815 Y120.099 E0.03061
G1 X118.880 Y119.745 E0.03136
G1 X118.382 Y119.528 E0.01704
G1 X117.506 Y119.096 E0.03061
G1 X116.638 Y118.599 E0.03136
G1 X116.180 Y118.307 E0.01704
G1 X115.389 Y117.747 E0.03038
G1 X114.961 Y117.413 E0.01702
G1 X114.226 Y116.781 E0.03038
G1 X113.832 Y116.408 E0.01702
G1 X113.160 Y115.709 E0.03038
G1 X112.803 Y115.300 E0.01702
G1 X112.201 Y114.541 E0.03038
G1 X111.884 Y114.101 E0.01702
G1 X111.352 Y113.282 E0.03061
G1 X110.860 Y112.411 E0.03136
G1 X110.616 Y111.925 E0.01704
G1 X110.222 Y111.040 E0.03038
G1 X110.026 Y110.534 E0.01702
G1 X109.715 Y109.608 E0.03061
G1 X109.457 Y108.642 E0.03136
G1 X109.342 Y108.111 E0.01704
G1 X109.182 Y107.155 E0.03038
G1 X109.118 Y106.616 E0.01702
G1 X109.049 Y105.649 E0.03038
G1 X109.036 Y105.107 E0.01702
G1 X109.059 Y104.138 E0.03038
G1 X109.098 Y103.596 E0.01702
G1 X109.212 Y102.634 E0.03038
G1 X109.302 Y102.098 E0.01702
G1 X109.507 Y101.151 E0.03038
G1 X109.646 Y100.626 E0.01704
G1 X109.950 Y99.673 E0.03136
G1 X110.304 Y98.763 E0.03061
G1 X110.525 Y98.267 E0.01702
G1 X110.960 Y97.401 E0.03038
G1 X111.227 Y96.928 E0.01702
G1 X111.742 Y96.108 E0.03038
G1 X112.052 Y95.662 E0.01704
G1 X112.662 Y94.869 E0.03136
G1 X113.305 Y94.134 E0.03061
G1 X113.681 Y93.742 E0.01702
G1 X114.385 Y93.076 E0.03038
G1 X114.796 Y92.722 E0.01702
G1 X115.560 Y92.126 E0.03038
G1 X116.003 Y91.812 E0.01702
G1 X116.820 Y91.291 E0.03038
G1 X117.291 Y91.020 E0.01702
G1 X118.153 Y90.578 E0.03038
G1 X118.648 Y90.354 E0.01702
G1 X119.548 Y89.996 E0.03038
G1 X120.061 Y89.819 E0.01702
G1 X120.998 Y89.545 E0.03061
G1 X121.974 Y89.325 E0.03136
G1 X122.509 Y89.231 E0.01704
G1 X123.471 Y89.109 E0.03038
G1 X124.012 Y89.066 E0.01702
G1 X124.988 Y89.035 E0.03061
G1 X125.988 Y89.066 E0.03136
G1 X126.529 Y89.109 E0.01704
G1 X127.491 Y89.231 E0.03038
G1 X128.025 Y89.325 E0.01702
G1 X128.971 Y89.537 E0.03038
G1 X129.494 Y89.681 E0.01702
G1 X130.416 Y89.982 E0.03038
G1 X130.923 Y90.175 E0.01702
G1 X131.818 Y90.565 E0.03061
G1 X132.709 Y91.020 E0.03136
G1 X133.180 Y91.291 E0.01704
G1 X133.997 Y91.812 E0.03038
G1 X134.440 Y92.126 E0.01702
G1 X135.204 Y92.722 E0.03038
G1 X135.615 Y93.076 E0.01702
G1 X136.319 Y93.742 E0.03038
G1 X136.695 Y94.134 E0.01702
G1 X137.333 Y94.863 E0.03038
G1 X137.671 Y95.289 E0.01702
G1 X138.237 Y96.075 E0.03038
G1 X138.533 Y96.531 E0.01704
G1 X139.037 Y97.395 E0.03136
G1 X139.475 Y98.267 E0.03061
G1 X139.696 Y98.763 E0.01702
G1 X140.047 Y99.667 E0.03038
G1 X140.220 Y100.181 E0.01702
G1 X140.486 Y101.121 E0.03061
G1 X140.698 Y102.098 E0.03136
G1 X140.788 Y102.634 E0.01704
G1 X140.902 Y103.596 E0.03038
G1 X140.941 Y104.138 E0.01702
G1 X140.964 Y105.107 E0.03038
G1 X140.951 Y105.649 E0.01702
G1 X140.882 Y106.616 E0.03038
G1 X140.818 Y107.155 E0.01702
G1 X140.658 Y108.111 E0.03038
G1 X140.543 Y108.641 E0.01702
G1 X140.294 Y109.578 E0.03038
G1 X140.129 Y110.095 E0.01702
G1 X139.790 Y111.011 E0.03061
G1 X139.384 Y111.925 E0.03136
G1 X139.140 Y112.410 E0.01704
G1 X138.665 Y113.255 E0.03038
G1 X138.376 Y113.715 E0.01702
G1 X137.823 Y114.510 E0.03038
G1 X137.492 Y114.941 E0.01702
G1 X136.866 Y115.680 E0.03038
G1 X136.496 Y116.078 E0.01702
G1 X135.802 Y116.755 E0.03038
G1 X135.396 Y117.115 E0.01702
G1 X134.642 Y117.724 E0.03038
G1 X134.204 Y118.044 E0.01702
G1 X133.395 Y118.579 E0.03038
G1 X132.929 Y118.856 E0.01702
G1 X132.067 Y119.315 E0.03061
G1 X131.157 Y119.729 E0.03136
G1 X130.652 Y119.930 E0.01703
G1 X129.736 Y120.246 E0.03038
G1 X129.214 Y120.398 E0.01702
G1 X128.265 Y120.627 E0.03061
G1 X127.280 Y120.801 E0.03137
G1 X126.741 Y120.869 E0.01704
G1 X125.775 Y120.945 E0.03038
G1 X125.233 Y120.963 E0.01702
G1 X124.264 Y120.947 E0.03038
G1 X123.292 Y120.865 E0.03056

G1 X123.334 Y120.491 F7200.000
G1 F1680
G1 X122.291 Y120.350 E0.03301
G1 X121.359 Y120.156 E0.02982
G1 X120.851 Y120.025 E0.01646
G1 X119.938 Y119.742 E0.02996
G1 X119.022 Y119.395 E0.03071
G1 X118.540 Y119.186 E0.01647
G1 X117.683 Y118.763 E0.02996
G1 X116.833 Y118.276 E0.03071
G1 X116.391 Y117.994 E0.01647
G1 X115.614 Y117.444 E0.02982
G1 X115.200 Y117.121 E0.01646
G1 X114.479 Y116.501 E0.02982
G1 X114.098 Y116.140 E0.01646
G1 X113.439 Y115.454 E0.02982
G1 X113.093 Y115.059 E0.01646
G1 X112.502 Y114.314 E0.02982
G1 X112.195 Y113.888 E0.01646
G1 X111.674 Y113.086 E0.02996
G1 X111.193 Y112.233 E0.03071
G1 X110.957 Y111.764 E0.01647
G1 X110.571 Y110.895 E0.02982
G1 X110.380 Y110.405 E0.01646
G1 X110.076 Y109.500 E0.02996
G1 X109.823 Y108.553 E0.03071
G1 X109.712 Y108.040 E0.01647
G1 X109.555 Y107.102 E0.02982
G1 X109.493 Y106.580 E0.01646
G1 X109.426 Y105.631 E0.02982
G1 X109.413 Y105.107 E0.01646
G1 X109.436 Y104.156 E0.02982
G1 X109.473 Y103.632 E0.01646
G1 X109.585 Y102.687 E0.02982
G1 X109.672 Y102.169 E0.01646
G1 X109.873 Y101.240 E0.02982
G1 X110.008 Y100.732 E0.01647
G1 X110.306 Y99.799 E0.03071
G1 X110.652 Y98.908 E0.02996
G1 X110.866 Y98.429 E0.01646
G1 X111.293 Y97.579 E0.02982
G1 X111.551 Y97.121 E0.01646
G1 X112.056 Y96.316 E0.02982
G1 X112.356 Y95.884 E0.01647
G1 X112.954 Y95.108 E0.03071
G1 X113.583 Y94.389 E0.02996
G1 X113.946 Y94.010 E0.01646
G1 X114.637 Y93.356 E0.02982
G1 X115.035 Y93.014 E0.01646
G1 X115.785 Y92.428 E0.02982
G1 X116.214 Y92.125 E0.01646
G1 X117.015 Y91.613 E0.02982
G1 X117.471 Y91.352 E0.01646
G1 X118.317 Y90.918 E0.02982
G1 X118.795 Y90.701 E0.01646
G1 X119.679 Y90.349 E0.02982
G1 X120.176 Y90.178 E0.01646
G1 X121.093 Y89.910 E0.02996
G1 X122.048 Y89.695 E0.03071
G1 X122.566 Y89.604 E0.01647
G1 X123.509 Y89.484 E0.02982
G1 X124.033 Y89.443 E0.01646
G1 X124.988 Y89.413 E0.02996
G1 X125.967 Y89.443 E0.03071
G1 X126.491 Y89.484 E0.01647
G1 X127.434 Y89.604 E0.02982
G1 X127.951 Y89.695 E0.01646
G1 X128.879 Y89.903 E0.02982
G1 X129.386 Y90.043 E0.01646
G1 X130.290 Y90.338 E0.02982
G1 X130.781 Y90.524 E0.01646
G1 X131.657 Y90.906 E0.02996
G1 X132.529 Y91.352 E0.03071
G1 X132.985 Y91.613 E0.01647
G1 X133.786 Y92.125 E0.02982
G1 X134.215 Y92.428 E0.01646
G1 X134.965 Y93.014 E0.02982
G1 X135.363 Y93.356 E0.01646
G1 X136.054 Y94.010 E0.02982
G1 X136.417 Y94.389 E0.01646
G1 X137.043 Y95.105 E0.02982
G1 X137.370 Y95.516 E0.01646
G1 X137.925 Y96.288 E0.02982
G1 X138.212 Y96.729 E0.01647
G1 X138.705 Y97.575 E0.03071
G1 X139.134 Y98.429 E0.02996
G1 X139.348 Y98.908 E0.01646
G1 X139.692 Y99.795 E0.02982
G1 X139.859 Y100.293 E0.01646
G1 X140.120 Y101.212 E0.02996
G1 X140.328 Y102.169 E0.03071
G1 X140.415 Y102.687 E0.01647
G1 X140.527 Y103.632 E0.02982
G1 X140.564 Y104.156 E0.01646
G1 X140.587 Y105.107 E0.02982
G1 X140.574 Y105.631 E0.01646
G1 X140.507 Y106.580 E0.02982
G1 X140.445 Y107.102 E0.01646
G1 X140.288 Y108.040 E0.02982
G1 X140.177 Y108.553 E0.01646
G1 X139.932 Y109.472 E0.02982
G1 X139.773 Y109.973 E0.01646
G1 X139.440 Y110.868 E0.02996
G1 X139.043 Y111.764 E0.03071
G1 X138.807 Y112.233 E0.01647
G1 X138.340 Y113.062 E0.02982
G1 X138.061 Y113.507 E0.01646
G1 X137.518 Y114.287 E0.02982
G1 X137.198 Y114.704 E0.01646
G1 X136.584 Y115.430 E0.02982
G1 X136.226 Y115.814 E0.01646
G1 X135.545 Y116.479 E0.02982
G1 X135.153 Y116.827 E0.01646
G1 X134.412 Y117.425 E0.02982
G1 X133.988 Y117.734 E0.01646
G1 X133.195 Y118.259 E0.02982
G1 X132.744 Y118.528 E0.01646
G1 X131.900 Y118.977 E0.02996
G1 X131.009 Y119.382 E0.03071
G1 X130.521 Y119.577 E0.01647
G1 X129.621 Y119.886 E0.02982
G1 X129.117 Y120.034 E0.01646
G1 X128.188 Y120.258 E0.02996
G1 X127.224 Y120.428 E0.03071
G1 X126.703 Y120.494 E0.01647
G1 X125.754 Y120.569 E0.02982
G1 X125.230 Y120.585 E0.01646
G1 X124.279 Y120.570 E0.02982
G1 X123.394 Y120.497 E0.02784

G1 X123.435 Y120.122 F7200.000
G1 F1050
G1 X122.860 Y120.059 E0.01816
G1 X122.359 Y119.979 E0.01590
G1 X121.445 Y119.789 E0.02926
G1 X120.954 Y119.662 E0.01590
G1 X120.061 Y119.386 E0.02931
G1 X119.164 Y119.046 E0.03006
G1 X118.699 Y118.843 E0.01591
G1 X117.860 Y118.430 E0.02931
G1 X117.029 Y117.954 E0.03006
G1 X116.601 Y117.681 E0.01591
G1 X115.839 Y117.142 E0.02926
G1 X115.439 Y116.829 E0.01590
G1 X114.732 Y116.221 E0.02926
G1 X114.363 Y115.872 E0.01590
G1 X113.717 Y115.199 E0.02926
G1 X113.383 Y114.817 E0.01590
G1 X112.802 Y114.086 E0.02926
G1 X112.506 Y113.675 E0.01590
G1 X111.997 Y112.891 E0.02931
G1 X111.526 Y112.056 E0.03006
G1 X111.298 Y111.603 E0.01591
G1 X110.919 Y110.750 E0.02926
G1 X110.735 Y110.277 E0.01590
G1 X110.438 Y109.391 E0.02931
G1 X110.190 Y108.465 E0.03006
G1 X110.083 Y107.969 E0.01591
G1 X109.929 Y107.048 E0.02926
G1 X109.869 Y106.545 E0.01590
G1 X109.802 Y105.614 E0.02926
G1 X109.790 Y105.107 E0.01590
G1 X109.813 Y104.173 E0.02926
G1 X109.849 Y103.668 E0.01590
G1 X109.959 Y102.741 E0.02926
G1 X110.042 Y102.241 E0.01590
G1 X110.240 Y101.328 E0.02926
G1 X110.371 Y100.838 E0.01591
G1 X110.662 Y99.925 E0.03006
G1 X111.001 Y99.053 E0.02931
G1 X111.207 Y98.590 E0.01590
G1 X111.626 Y97.756 E0.02926
G1 X111.875 Y97.314 E0.01590
G1 X112.371 Y96.524 E0.02926
G1 X112.661 Y96.107 E0.01591
G1 X113.245 Y95.347 E0.03006
G1 X113.861 Y94.644 E0.02931
G1 X114.212 Y94.278 E0.01590
G1 X114.890 Y93.636 E0.02926
G1 X115.275 Y93.306 E0.01590
G1 X116.010 Y92.731 E0.02926
G1 X116.424 Y92.438 E0.01590
G1 X117.211 Y91.936 E0.02926
G1 X117.651 Y91.683 E0.01590
G1 X118.481 Y91.258 E0.02926
G1 X118.943 Y91.048 E0.01590
G1 X119.810 Y90.703 E0.02926
G1 X120.290 Y90.538 E0.01590
G1 X121.187 Y90.276 E0.02931
G1 X122.122 Y90.065 E0.03006
G1 X122.622 Y89.977 E0.01591
G1 X123.548 Y89.860 E0.02926
G1 X124.054 Y89.820 E0.01590
G1 X124.988 Y89.790 E0.02931
G1 X125.946 Y89.819 E0.03006
G1 X126.452 Y89.860 E0.01591
G1 X127.378 Y89.977 E0.02926
G1 X127.877 Y90.065 E0.01590
G1 X128.788 Y90.269 E0.02926
G1 X129.277 Y90.404 E0.01590
G1 X130.164 Y90.694 E0.02926
G1 X130.638 Y90.874 E0.01590
G1 X131.496 Y91.247 E0.02931
G1 X132.349 Y91.683 E0.03006
G1 X132.789 Y91.936 E0.01591
G1 X133.576 Y92.438 E0.02926
G1 X133.990 Y92.731 E0.01590
G1 X134.725 Y93.306 E0.02926
G1 X135.110 Y93.636 E0.01590
G1 X135.788 Y94.278 E0.02926
G1 X136.139 Y94.644 E0.01590
G1 X136.754 Y95.346 E0.02926
G1 X137.069 Y95.744 E0.01590
G1 X137.614 Y96.501 E0.02926
G1 X137.890 Y96.927 E0.01591
G1 X138.373 Y97.755 E0.03006
G1 X138.793 Y98.590 E0.02931
G1 X138.999 Y99.053 E0.01590
G1 X139.338 Y99.923 E0.02926
G1 X139.499 Y100.404 E0.01590
G1 X139.754 Y101.304 E0.02931
G1 X139.958 Y102.240 E0.03006
G1 X140.041 Y102.741 E0.01591
G1 X140.151 Y103.668 E0.02926
G1 X140.187 Y104.173 E0.01590
G1 X140.210 Y105.107 E0.02926
G1 X140.198 Y105.614 E0.01590
G1 X140.131 Y106.545 E0.02926
G1 X140.071 Y107.048 E0.01590
G1 X139.917 Y107.969 E0.02926
G1 X139.810 Y108.465 E0.01590
G1 X139.570 Y109.366 E0.02926
G1 X139.416 Y109.850 E0.01590
G1 X139.091 Y110.726 E0.02931
G1 X138.702 Y111.603 E0.03006
G1 X138.474 Y112.056 E0.01591
G1 X138.016 Y112.869 E0.02926
G1 X137.747 Y113.299 E0.01590
G1 X137.214 Y114.065 E0.02926
G1 X136.905 Y114.467 E0.01590
G1 X136.302 Y115.179 E0.02926
G1 X135.956 Y115.550 E0.01590
G1 X135.288 Y116.203 E0.02926
G1 X134.909 Y116.539 E0.01590
G1 X134.182 Y117.125 E0.02926
G1 X133.773 Y117.425 E0.01590
G1 X132.994 Y117.940 E0.02926
G1 X132.559 Y118.199 E0.01590
G1 X131.733 Y118.638 E0.02931
G1 X130.861 Y119.035 E0.03006
G1 X130.390 Y119.223 E0.01591
G1 X129.507 Y119.527 E0.02926
G1 X129.020 Y119.669 E0.01590
G1 X128.111 Y119.888 E0.02931
G1 X127.167 Y120.055 E0.03006
G1 X126.664 Y120.119 E0.01591
G1 X125.734 Y120.192 E0.02926
G1 X125.227 Y120.208 E0.01590
G1 X124.293 Y120.194 E0.02926
G1 X123.495 Y120.129 E0.02512

G1 X123.205 Y120.450 F7200.000
G1 F5760
G1 X122.860 Y120.059 E-0.22141
G1 F5760
G1 X122.359 Y119.979 E-0.17567
G1 F5760
G1 X121.445 Y119.789 E-0.32326
G1 F5760
G1 X121.334 Y119.760 E-0.03966
G1 E-0.04000 F2100.00000
G1 X122.036 Y76.036 F7200.000
G1 E0.80000 F2100.00000
G1 F840
G1 X127.964 Y76.036 E0.18588
G1 X127.964 Y85.964 E0.31130
G1 X122.036 Y85.964 E0.18588
G1 X122.036 Y76.096 E0.30941

G1 X122.413 Y76.413 F7200.000
G1 F840
G1 X127.587 Y76.413 E0.16223
G1 X127.587 Y85.587 E0.28765
G1 X122.413 Y85.587 E0.16223
G1 X122.413 Y76.473 E0.28577

G1 X122.790 Y76.790 F7200.000
G1 F840
G1 X127.210 Y76.790 E0.13859
G1 X127.210 Y85.210 E0.26400
G1 X122.790 Y85.210 E0.13859
G1 X122.790 Y76.850 E0.26212

G1 X122.726 Y76.395 F7200.000
G1 F5760
G1 X124.984 Y76.820 E-0.76000
G1 E-0.04000 F2100.00000
G1 X96.036 Y85.964 F7200.000
G1 E0.80000 F2100.00000
G1 F1680
G1 X110.964 Y85.964 E0.46807
G1 X110.964 Y75.964 E0.31354
G1 X139.036 Y75.964 E0.88017
G1 X139.036 Y85.964 E0.31354
G1 X153.964 Y85.964 E0.46807
G1 X153.964 Y75.964 E0.31354
G1 X154.036 Y75.964 E0.00225
G1 X154.036 Y134.036 E1.82080
G1 X153.964 Y134.036 E0.00225
G1 X153.964 Y124.036 E0.31354
G1 X139.036 Y124.036 E0.46807
G1 X139.036 Y134.036 E0.31354
G1 X110.964 Y134.036 E0.88017
G1 X110.964 Y124.036 E0.31354
G1 X96.036 Y124.036 E0.46807
G1 X96.036 Y134.036 E0.31354
G1 X95.964 Y134.036 E0.00225
G1 X95.964 Y75.964 E1.82080
G1 X96.036 Y75.964 E0.00225
G1 X96.036 Y85.904 E0.31166

G1 X96.413 Y85.587 F7200.000
G1 F1680
G1 X110.587 Y85.587 E0.44442
G1 X110.587 Y75.587 E0.31354
G1 X139.413 Y75.587 E0.90381
G1 X139.413 Y85.587 E0.31354
G1 X153.587 Y85.587 E0.44442
G1 X153.587 Y75.587 E0.31354
G1 X154.413 Y75.587 E0.02589
G1 X154.413 Y134.413 E1.84444
G1 X153.587 Y134.413 E0.02589
G1 X153.587 Y124.413 E0.31354
G1 X139.413 Y124.413 E0.44442
G1 X139.413 Y134.413 E0.31354
G1 X110.587 Y134.413 E0.90381
G1 X110.587 Y124.413 E0.31354
G1 X96.413 Y124.413 E0.44442
G1 X96.413 Y134.413 E0.31354
G1 X95.587 Y134.413 E0.02589
G1 X95.587 Y75.587 E1.84444
G1 X96.413 Y75.587 E0.02589
G1 X96.413 Y85.527 E0.31166

G1 X96.790 Y85.210 F7200.000
G1 F1050
G1 X110.210 Y85.210 E0.42077
G1 X110.210 Y75.210 E0.31354
G1 X139.790 Y75.210 E0.92746
G1 X139.790 Y85.210 E0.31354
G1 X153.210 Y85.210 E0.42077
G1 X153.210 Y75.210 E0.31354
