; generated by Slic3r 1.35.5.16-prusa3d-win64 on 2017-07-20 at 22:05:16

; 

; external perimeters extrusion width = 0.45mm
; perimeters extrusion width = 0.45mm
; infill extrusion width = 0.45mm
; solid infill extrusion width = 0.45mm
; top infill extrusion width = 0.45mm
; support material extrusion width = 0.35mm
; first layer extrusion width = 0.42mm

M107
M115 U3.0.9 ; tell printer latest fw version
M83  ; extruder relative mode
M104 S215 ; set extruder temp
M140 S55 ; set bed temp
M190 S55 ; wait for bed temp
M109 S215 ; wait for extruder temp
G28 W ; home all without mesh bed level
G80 ; mesh bed leveling
G1 Y-3.0 F1000.0 ; go outside pritn area
G1 X60.0 E9.0  F1000.0 ; intro line
G1 X100.0 E12.5  F1000.0 ; intro line
; Filament gcode

G21 ; set units to millimeters
G90 ; use absolute coordinates
M83 ; use relative distances for extrusion
M106 S216.75
G1 E-0.80000 F2100.00000
G1 Z0.200 F7200.000
G1 X63.427 Y73.218 F7200.000
G1 E0.80000 F2100.00000
M204 S1000
G1 F2100
G1 X63.964 Y72.860 E0.02024
G1 X64.433 Y72.692 E0.01562
G1 X64.930 Y72.624 E0.01574
G1 X178.881 Y69.483 E3.57420
G1 X188.223 Y69.671 E0.29297
G1 X188.762 Y69.804 E0.01740
G1 X189.255 Y70.058 E0.01740
G1 X189.676 Y70.419 E0.01740
G1 X190.002 Y70.868 E0.01740
G1 X190.224 Y71.414 E0.01846
G1 X190.305 Y71.993 E0.01835
G1 X190.300 Y89.877 E0.56075
G1 X187.165 Y118.068 E0.88936
G1 X186.725 Y120.363 E0.07325
G1 X186.065 Y122.548 E0.07157
G1 X185.543 Y123.871 E0.04459
G1 X184.541 Y125.902 E0.07103
G1 X183.363 Y127.789 E0.06973
G1 X181.947 Y129.611 E0.07236
G1 X180.412 Y131.223 E0.06979
G1 X178.646 Y132.735 E0.07290
G1 X176.746 Y134.046 E0.07239
G1 X174.718 Y135.157 E0.07250
G1 X172.582 Y136.053 E0.07262
G1 X170.358 Y136.726 E0.07286
G1 X168.083 Y137.163 E0.07262
G1 X165.608 Y137.367 E0.07787
G1 X84.996 Y137.377 E2.52753
G1 X82.752 Y137.264 E0.07044
G1 X79.815 Y136.766 E0.09341
G1 X77.229 Y135.985 E0.08469
G1 X75.471 Y135.244 E0.05981
G1 X74.296 Y134.651 E0.04128
G1 X72.212 Y133.363 E0.07683
G1 X71.257 Y132.659 E0.03717
G1 X69.632 Y131.264 E0.06715
G1 X67.996 Y129.547 E0.07438
G1 X67.236 Y128.607 E0.03790
G1 X66.037 Y126.880 E0.06591
G1 X64.843 Y124.718 E0.07744
G1 X63.947 Y122.582 E0.07262
G1 X63.273 Y120.354 E0.07298
G1 X62.837 Y118.083 E0.07250
G1 X62.632 Y115.593 E0.07835
G1 X62.624 Y74.928 E1.27503
G1 X62.731 Y74.291 E0.02024
G1 X63.006 Y73.707 E0.02024
G1 X63.388 Y73.263 E0.01836

G1 F5760
G1 X63.965 Y72.860 E-0.24366
G1 F5760
G1 X64.433 Y72.692 E-0.17251
G1 F5760
G1 X64.930 Y72.624 E-0.17382
G1 F5760
G1 X65.421 Y72.610 E-0.17001
G1 E-0.04000 F2100.00000
G1 X84.608 Y81.195 F7200.000
G1 E0.80000 F2100.00000
G1 F2100
G1 X84.608 Y78.985 E0.06928
G1 X84.811 Y78.927 E0.00661
G1 X85.000 Y78.910 E0.00596
G1 X85.189 Y78.927 E0.00596
G1 X85.362 Y78.973 E0.00562
G1 X85.362 Y81.202 E0.06990

G1 F5760
G1 X85.362 Y79.008 E-0.76000
G1 E-0.04000 F2100.00000
G1 X124.579 Y78.813 F7200.000
G1 E0.80000 F2100.00000
G1 F2100
G1 X124.579 Y81.001 E0.06860
G1 X124.811 Y81.073 E0.00762
G1 X125.000 Y81.090 E0.00596
G1 X125.189 Y81.073 E0.00596
G1 X125.333 Y81.035 E0.00466
G1 X125.333 Y78.965 E0.06488
G1 X125.545 Y79.056 E0.00724
G1 X125.700 Y79.165 E0.00596
G1 X125.835 Y79.300 E0.00596
G1 X125.944 Y79.455 E0.00596
G1 X126.024 Y79.627 E0.00596
G1 X126.073 Y79.811 E0.00596
G1 X126.087 Y79.968 E0.00494
G1 X126.087 Y80.636 E0.02096

G1 F5760
G1 X126.087 Y79.968 E-0.23157
G1 F5760
G1 X126.073 Y79.811 E-0.05454
G1 F5760
G1 X126.024 Y79.627 E-0.06579
G1 F5760
G1 X125.944 Y79.455 E-0.06579
G1 F5760
G1 X125.835 Y79.300 E-0.06579
G1 F5760
G1 X125.700 Y79.165 E-0.06579
G1 F5760
G1 X125.545 Y79.056 E-0.06579
G1 F5760
G1 X125.333 Y78.965 E-0.07995
G1 F5760
G1 X125.333 Y79.153 E-0.06499
G1 E-0.04000 F2100.00000
G1 X164.549 Y78.825 F7200.000
G1 E0.80000 F2100.00000
G1 F2100
G1 X164.549 Y80.987 E0.06779
G1 X164.811 Y81.073 E0.00864
G1 X165.000 Y81.090 E0.00596
G1 X165.189 Y81.073 E0.00596
G1 X165.303 Y81.043 E0.00370
G1 X165.303 Y78.957 E0.06538
G1 X165.545 Y79.056 E0.00819
G1 X165.700 Y79.165 E0.00596
G1 X165.835 Y79.300 E0.00596
G1 X165.944 Y79.455 E0.00596
G1 X166.024 Y79.627 E0.00596
G1 X166.057 Y79.752 E0.00404
G1 X166.057 Y80.678 E0.02906

G1 F5760
G1 X166.057 Y79.752 E-0.32101
G1 F5760
G1 X166.024 Y79.627 E-0.04458
G1 F5760
G1 X165.944 Y79.455 E-0.06579
G1 F5760
G1 X165.835 Y79.300 E-0.06579
G1 F5760
G1 X165.700 Y79.165 E-0.06579
G1 F5760
G1 X165.545 Y79.056 E-0.06579
G1 F5760
G1 X165.303 Y78.957 E-0.09045
G1 F5760
G1 X165.303 Y79.075 E-0.04079
G1 E-0.04000 F2100.00000
G1 X178.878 Y71.860 F7200.000
G1 E0.80000 F2100.00000
G1 F2100
G1 X178.878 Y72.472 E0.01919
G1 X179.632 Y73.226 E0.03344
G1 X179.632 Y72.030 E0.03752
G1 X180.386 Y72.030 E0.02365
G1 X180.386 Y73.980 E0.06116
G1 X180.947 Y74.541 E0.02488
G1 X181.140 Y74.541 E0.00605
G1 X181.140 Y72.030 E0.07875
G1 X181.895 Y72.030 E0.02365
G1 X181.895 Y74.541 E0.07875
G1 X182.649 Y74.541 E0.02365
G1 X182.649 Y72.030 E0.07875
G1 X183.403 Y72.030 E0.02365
G1 X183.403 Y74.541 E0.07875
G1 X184.157 Y74.541 E0.02365
G1 X184.157 Y72.030 E0.07875
G1 X184.911 Y72.030 E0.02365
G1 X184.911 Y74.541 E0.07875
G1 X185.190 Y74.541 E0.00874
G1 X185.459 Y74.810 E0.01191
G1 X185.459 Y89.559 E0.46245
G1 X185.665 Y89.559 E0.00649
G1 X185.665 Y72.030 E0.54963
G1 X186.420 Y72.030 E0.02365
G1 X186.420 Y89.559 E0.54963
G1 X187.174 Y89.559 E0.02365
G1 X187.174 Y72.030 E0.54963
G1 X187.928 Y72.030 E0.02365
G1 X187.928 Y89.729 E0.55495

G1 F5760
G1 X187.928 Y87.535 E-0.76000
G1 E-0.04000 F2100.00000
G1 X165.280 Y99.564 F7200.000
G1 E0.80000 F2100.00000
G1 F1680
G1 X165.525 Y100.226 E0.02212
G1 X165.720 Y100.920 E0.02261
G1 X165.854 Y101.594 E0.02156
G1 X165.937 Y102.294 E0.02209
G1 X165.964 Y102.979 E0.02150
G1 X165.964 Y117.021 E0.44028
G1 X165.937 Y117.706 E0.02150
G1 X165.854 Y118.406 E0.02209
G1 X165.716 Y119.097 E0.02209
G1 X165.525 Y119.775 E0.02209
G1 X165.280 Y120.436 E0.02209
G1 X164.985 Y121.076 E0.02209
G1 X164.640 Y121.690 E0.02209
G1 X164.248 Y122.276 E0.02209
G1 X163.811 Y122.829 E0.02209
G1 X163.333 Y123.345 E0.02208
G1 X162.828 Y123.812 E0.02155
G1 X162.276 Y124.248 E0.02208
G1 X161.690 Y124.640 E0.02209
G1 X161.075 Y124.985 E0.02211
G1 X160.420 Y125.287 E0.02261
G1 X159.775 Y125.525 E0.02156
G1 X159.097 Y125.716 E0.02208
G1 X158.406 Y125.854 E0.02209
G1 X157.706 Y125.937 E0.02209
G1 X157.019 Y125.964 E0.02157
G1 X92.981 Y125.964 E2.00787
G1 X92.294 Y125.937 E0.02157
G1 X91.594 Y125.854 E0.02209
G1 X90.903 Y125.716 E0.02209
G1 X90.225 Y125.525 E0.02209
G1 X89.564 Y125.280 E0.02208
G1 X88.940 Y124.992 E0.02156
G1 X88.310 Y124.640 E0.02261
G1 X87.724 Y124.248 E0.02211
G1 X87.171 Y123.811 E0.02209
G1 X86.655 Y123.333 E0.02208
G1 X86.188 Y122.828 E0.02157
G1 X85.742 Y122.262 E0.02260
G1 X85.360 Y121.690 E0.02156
G1 X85.015 Y121.075 E0.02210
G1 X84.713 Y120.420 E0.02261
G1 X84.475 Y119.775 E0.02156
G1 X84.284 Y119.096 E0.02211
G1 X84.144 Y118.389 E0.02261
G1 X84.063 Y117.706 E0.02156
G1 X84.036 Y117.021 E0.02150
G1 X84.036 Y102.981 E0.44022
G1 X84.063 Y102.294 E0.02157
G1 X84.146 Y101.594 E0.02209
G1 X84.284 Y100.903 E0.02208
G1 X84.470 Y100.241 E0.02156
G1 X84.719 Y99.565 E0.02261
G1 X85.015 Y98.924 E0.02211
G1 X85.360 Y98.310 E0.02209
G1 X85.752 Y97.724 E0.02209
G1 X86.189 Y97.171 E0.02209
G1 X86.667 Y96.655 E0.02208
G1 X87.172 Y96.188 E0.02155
G1 X87.724 Y95.752 E0.02208
G1 X88.310 Y95.360 E0.02209
G1 X88.925 Y95.015 E0.02211
G1 X89.580 Y94.713 E0.02261
G1 X90.225 Y94.475 E0.02156
G1 X90.903 Y94.284 E0.02208
G1 X91.594 Y94.146 E0.02209
G1 X92.294 Y94.063 E0.02209
G1 X92.981 Y94.036 E0.02157
G1 X157.021 Y94.036 E2.00793
G1 X157.706 Y94.063 E0.02150
G1 X158.406 Y94.146 E0.02209
G1 X159.097 Y94.284 E0.02209
G1 X159.775 Y94.475 E0.02209
G1 X160.436 Y94.720 E0.02208
G1 X161.060 Y95.008 E0.02156
G1 X161.690 Y95.360 E0.02261
G1 X162.276 Y95.752 E0.02211
G1 X162.829 Y96.189 E0.02209
G1 X163.345 Y96.667 E0.02208
G1 X163.812 Y97.172 E0.02157
G1 X164.258 Y97.738 E0.02260
G1 X164.640 Y98.310 E0.02156
G1 X164.985 Y98.924 E0.02208
G1 X165.255 Y99.510 E0.02021

G1 X164.913 Y99.668 F7200.000
G1 F1680
G1 X165.166 Y100.342 E0.02259
G1 X165.353 Y101.008 E0.02168
G1 X165.481 Y101.653 E0.02064
G1 X165.561 Y102.323 E0.02116
G1 X165.587 Y102.986 E0.02080
G1 X165.587 Y117.014 E0.43982
G1 X165.561 Y117.677 E0.02080
G1 X165.481 Y118.347 E0.02116
G1 X165.349 Y119.009 E0.02116
G1 X165.166 Y119.658 E0.02116
G1 X164.932 Y120.291 E0.02116
G1 X164.649 Y120.904 E0.02116
G1 X164.318 Y121.493 E0.02116
G1 X163.943 Y122.054 E0.02116
G1 X163.525 Y122.583 E0.02116
G1 X163.066 Y123.078 E0.02115
G1 X162.583 Y123.525 E0.02063
G1 X162.054 Y123.943 E0.02115
G1 X161.493 Y124.318 E0.02116
G1 X160.904 Y124.649 E0.02117
G1 X160.276 Y124.938 E0.02168
G1 X159.658 Y125.166 E0.02064
G1 X159.009 Y125.349 E0.02116
G1 X158.347 Y125.481 E0.02116
G1 X157.677 Y125.561 E0.02116
G1 X157.012 Y125.587 E0.02087
G1 X92.988 Y125.587 E2.00740
G1 X92.323 Y125.561 E0.02087
G1 X91.653 Y125.481 E0.02116
G1 X90.991 Y125.349 E0.02116
G1 X90.342 Y125.166 E0.02116
G1 X89.709 Y124.932 E0.02116
G1 X89.111 Y124.656 E0.02064
G1 X88.508 Y124.319 E0.02168
G1 X87.946 Y123.943 E0.02117
G1 X87.417 Y123.525 E0.02116
G1 X86.922 Y123.066 E0.02115
G1 X86.475 Y122.583 E0.02064
G1 X86.047 Y122.040 E0.02167
G1 X85.681 Y121.493 E0.02064
G1 X85.351 Y120.904 E0.02117
G1 X85.062 Y120.276 E0.02168
G1 X84.834 Y119.658 E0.02064
G1 X84.651 Y119.008 E0.02117
G1 X84.517 Y118.330 E0.02168
G1 X84.439 Y117.677 E0.02064
G1 X84.413 Y117.014 E0.02080
G1 X84.413 Y102.988 E0.43975
G1 X84.439 Y102.323 E0.02087
G1 X84.519 Y101.653 E0.02116
G1 X84.651 Y100.991 E0.02116
G1 X84.829 Y100.358 E0.02064
G1 X85.068 Y99.709 E0.02168
G1 X85.351 Y99.096 E0.02118
G1 X85.682 Y98.507 E0.02116
G1 X86.057 Y97.946 E0.02116
G1 X86.475 Y97.417 E0.02116
G1 X86.934 Y96.922 E0.02115
G1 X87.417 Y96.475 E0.02063
G1 X87.946 Y96.057 E0.02115
G1 X88.507 Y95.682 E0.02116
G1 X89.096 Y95.351 E0.02118
G1 X89.724 Y95.062 E0.02168
G1 X90.342 Y94.834 E0.02064
G1 X90.991 Y94.651 E0.02116
G1 X91.653 Y94.519 E0.02116
G1 X92.323 Y94.439 E0.02116
G1 X92.988 Y94.413 E0.02087
G1 X157.014 Y94.413 E2.00747
G1 X157.677 Y94.439 E0.02080
G1 X158.347 Y94.519 E0.02116
G1 X159.009 Y94.651 E0.02116
G1 X159.658 Y94.834 E0.02116
G1 X160.291 Y95.068 E0.02116
G1 X160.889 Y95.344 E0.02064
G1 X161.492 Y95.681 E0.02168
G1 X162.054 Y96.057 E0.02117
G1 X162.583 Y96.475 E0.02116
G1 X163.078 Y96.934 E0.02115
G1 X163.525 Y97.417 E0.02064
G1 X163.953 Y97.960 E0.02167
G1 X164.319 Y98.507 E0.02064
G1 X164.649 Y99.096 E0.02115
G1 X164.888 Y99.613 E0.01786

G1 X164.545 Y99.771 F7200.000
G1 F1050
G1 X164.807 Y100.459 E0.02306
G1 X164.986 Y101.096 E0.02074
G1 X165.109 Y101.712 E0.01972
G1 X165.185 Y102.353 E0.02023
G1 X165.210 Y102.994 E0.02010
G1 X165.210 Y117.006 E0.43935
G1 X165.185 Y117.647 E0.02010
G1 X165.109 Y118.288 E0.02023
G1 X164.982 Y118.920 E0.02023
G1 X164.807 Y119.541 E0.02023
G1 X164.583 Y120.147 E0.02023
G1 X164.313 Y120.733 E0.02023
G1 X163.997 Y121.295 E0.02023
G1 X163.638 Y121.832 E0.02023
G1 X163.238 Y122.338 E0.02023
G1 X162.799 Y122.811 E0.02023
G1 X162.338 Y123.238 E0.01971
G1 X161.832 Y123.638 E0.02023
G1 X161.295 Y123.997 E0.02023
G1 X160.732 Y124.313 E0.02024
G1 X160.131 Y124.589 E0.02075
G1 X159.541 Y124.807 E0.01972
G1 X158.920 Y124.982 E0.02023
G1 X158.288 Y125.109 E0.02023
G1 X157.647 Y125.185 E0.02023
G1 X157.004 Y125.210 E0.02017
G1 X92.996 Y125.210 E2.00693
G1 X92.353 Y125.185 E0.02017
G1 X91.712 Y125.109 E0.02023
G1 X91.080 Y124.982 E0.02023
G1 X90.459 Y124.807 E0.02023
G1 X89.853 Y124.583 E0.02023
G1 X89.282 Y124.320 E0.01972
G1 X88.705 Y123.997 E0.02075
G1 X88.168 Y123.638 E0.02024
G1 X87.662 Y123.238 E0.02023
G1 X87.189 Y122.799 E0.02023
G1 X86.762 Y122.338 E0.01972
G1 X86.352 Y121.818 E0.02074
G1 X86.003 Y121.295 E0.01972
G1 X85.687 Y120.732 E0.02023
G1 X85.411 Y120.131 E0.02075
G1 X85.193 Y119.541 E0.01972
G1 X85.018 Y118.920 E0.02024
G1 X84.889 Y118.271 E0.02074
G1 X84.815 Y117.647 E0.01972
G1 X84.790 Y117.006 E0.02010
G1 X84.790 Y102.996 E0.43928
G1 X84.815 Y102.353 E0.02017
G1 X84.891 Y101.712 E0.02023
G1 X85.018 Y101.080 E0.02023
G1 X85.188 Y100.474 E0.01972
G1 X85.417 Y99.853 E0.02074
G1 X85.687 Y99.267 E0.02024
G1 X86.003 Y98.705 E0.02023
G1 X86.362 Y98.168 E0.02023
G1 X86.762 Y97.662 E0.02023
G1 X87.201 Y97.189 E0.02023
G1 X87.662 Y96.762 E0.01971
G1 X88.168 Y96.362 E0.02023
G1 X88.705 Y96.003 E0.02023
G1 X89.268 Y95.687 E0.02024
G1 X89.869 Y95.411 E0.02075
G1 X90.459 Y95.193 E0.01972
G1 X91.080 Y95.018 E0.02023
G1 X91.712 Y94.891 E0.02023
G1 X92.353 Y94.815 E0.02023
G1 X92.996 Y94.790 E0.02017
G1 X157.006 Y94.790 E2.00700
G1 X157.647 Y94.815 E0.02010
G1 X158.288 Y94.891 E0.02023
G1 X158.920 Y95.018 E0.02023
G1 X159.541 Y95.193 E0.02023
G1 X160.147 Y95.417 E0.02023
G1 X160.718 Y95.680 E0.01972
G1 X161.295 Y96.003 E0.02075
G1 X161.832 Y96.362 E0.02024
G1 X162.338 Y96.762 E0.02023
G1 X162.811 Y97.201 E0.02023
G1 X163.238 Y97.662 E0.01972
G1 X163.648 Y98.182 E0.02074
G1 X163.997 Y98.705 E0.01972
G1 X164.313 Y99.267 E0.02023
G1 X164.520 Y99.717 E0.01552

G1 X164.942 Y99.820 F7200.000
G1 F5760
G1 X164.807 Y100.459 E-0.27549
G1 F5760
G1 X164.986 Y101.096 E-0.22915
G1 F5760
G1 X165.109 Y101.712 E-0.21779
G1 F5760
G1 X165.121 Y101.820 E-0.03756
G1 E-0.04000 F2100.00000
G1 X87.480 Y80.437 F7200.000
G1 E0.80000 F2100.00000
G1 F840
G1 X87.366 Y80.861 E0.01376
G1 X87.181 Y81.259 E0.01376
G1 X86.929 Y81.618 E0.01376
G1 X86.618 Y81.929 E0.01376
G1 X86.259 Y82.181 E0.01376
G1 X85.861 Y82.366 E0.01376
G1 X85.437 Y82.480 E0.01376
G1 X85.000 Y82.518 E0.01376
G1 X84.563 Y82.480 E0.01376
G1 X84.139 Y82.366 E0.01376
G1 X83.741 Y82.181 E0.01376
G1 X83.382 Y81.929 E0.01376
G1 X83.084 Y81.631 E0.01321
G1 X82.821 Y81.263 E0.01418
G1 X82.634 Y80.861 E0.01389
G1 X82.520 Y80.437 E0.01376
G1 X82.482 Y80.000 E0.01376
G1 X82.520 Y79.563 E0.01376
G1 X82.634 Y79.139 E0.01376
G1 X82.819 Y78.741 E0.01376
G1 X83.071 Y78.382 E0.01376
G1 X83.382 Y78.071 E0.01376
G1 X83.741 Y77.819 E0.01376
G1 X84.139 Y77.634 E0.01376
G1 X84.563 Y77.520 E0.01376
G1 X84.983 Y77.484 E0.01321
G1 X85.433 Y77.519 E0.01418
G1 X85.861 Y77.634 E0.01389
G1 X86.259 Y77.819 E0.01376
G1 X86.618 Y78.071 E0.01376
G1 X86.929 Y78.382 E0.01376
G1 X87.181 Y78.741 E0.01376
G1 X87.366 Y79.139 E0.01376
G1 X87.480 Y79.563 E0.01376
G1 X87.518 Y80.000 E0.01376
G1 X87.485 Y80.377 E0.01188

G1 X87.109 Y80.345 F7200.000
G1 F840
G1 X87.010 Y80.732 E0.01253
G1 X86.853 Y81.070 E0.01169
G1 X86.639 Y81.375 E0.01169
G1 X86.375 Y81.639 E0.01169
G1 X86.070 Y81.853 E0.01169
G1 X85.732 Y82.010 E0.01169
G1 X85.371 Y82.107 E0.01169
G1 X85.000 Y82.139 E0.01169
G1 X84.629 Y82.107 E0.01169
G1 X84.268 Y82.010 E0.01169
G1 X83.930 Y81.853 E0.01169
G1 X83.625 Y81.639 E0.01169
G1 X83.372 Y81.386 E0.01119
G1 X83.148 Y81.072 E0.01211
G1 X82.990 Y80.732 E0.01177
G1 X82.893 Y80.371 E0.01169
G1 X82.861 Y80.000 E0.01169
G1 X82.893 Y79.629 E0.01169
G1 X82.990 Y79.268 E0.01169
G1 X83.147 Y78.930 E0.01169
G1 X83.361 Y78.625 E0.01169
G1 X83.625 Y78.361 E0.01169
G1 X83.930 Y78.147 E0.01169
G1 X84.268 Y77.990 E0.01169
G1 X84.629 Y77.893 E0.01169
G1 X84.984 Y77.862 E0.01119
G1 X85.369 Y77.893 E0.01211
G1 X85.732 Y77.990 E0.01177
G1 X86.070 Y78.147 E0.01169
G1 X86.375 Y78.361 E0.01169
G1 X86.639 Y78.625 E0.01169
G1 X86.853 Y78.930 E0.01169
G1 X87.010 Y79.268 E0.01169
G1 X87.107 Y79.629 E0.01169
G1 X87.139 Y80.000 E0.01169
G1 X87.114 Y80.285 E0.00896

G1 X86.734 Y80.306 F7200.000
G1 F840
G1 X86.655 Y80.602 E0.00962
G1 X86.525 Y80.880 E0.00962
G1 X86.349 Y81.132 E0.00962
G1 X86.132 Y81.349 E0.00962
G1 X85.880 Y81.525 E0.00962
G1 X85.602 Y81.655 E0.00962
G1 X85.306 Y81.734 E0.00962
G1 X85.000 Y81.761 E0.00962
G1 X84.694 Y81.734 E0.00962
G1 X84.398 Y81.655 E0.00962
G1 X84.120 Y81.525 E0.00962
G1 X83.868 Y81.349 E0.00962
G1 X83.661 Y81.142 E0.00917
G1 X83.475 Y80.881 E0.01004
G1 X83.345 Y80.602 E0.00965
G1 X83.266 Y80.306 E0.00962
G1 X83.239 Y80.000 E0.00962
G1 X83.266 Y79.694 E0.00962
G1 X83.345 Y79.398 E0.00962
G1 X83.475 Y79.120 E0.00962
G1 X83.651 Y78.868 E0.00962
G1 X83.868 Y78.651 E0.00962
G1 X84.120 Y78.475 E0.00962
G1 X84.398 Y78.345 E0.00962
