; generated by Slic3r 1.35.5.16-prusa3d-win64 on 2017-07-17 at 20:56:44

; 

; external perimeters extrusion width = 0.45mm
; perimeters extrusion width = 0.45mm
; infill extrusion width = 0.45mm
; solid infill extrusion width = 0.45mm
; top infill extrusion width = 0.45mm
; support material extrusion width = 0.35mm
; first layer extrusion width = 0.42mm

M107
M115 U3.0.9 ; tell printer latest fw version
M83  ; extruder relative mode
M104 S215 ; set extruder temp
M140 S55 ; set bed temp
M190 S55 ; wait for bed temp
M109 S215 ; wait for extruder temp
G28 W ; home all without mesh bed level
G80 ; mesh bed leveling
G1 Y-3.0 F1000.0 ; go outside pritn area
G1 X60.0 E9.0  F1000.0 ; intro line
G1 X100.0 E12.5  F1000.0 ; intro line
; Filament gcode

G21 ; set units to millimeters
G90 ; use absolute coordinates
M83 ; use relative distances for extrusion
M106 S216.75
G1 E-0.80000 F2100.00000
G1 Z0.200 F7200.000
G1 X103.622 Y82.616 F7200.000
G1 E0.80000 F2100.00000
M204 S1000
G1 F2100
G1 X104.369 Y82.147 E0.02767
G1 X105.240 Y81.983 E0.02778
G1 X123.394 Y82.153 E0.56922
G1 X123.954 Y82.234 E0.01775
G1 X124.480 Y82.445 E0.01775
G1 X124.979 Y82.811 E0.01941
G1 X149.216 Y106.094 E1.05376
G1 X149.671 Y106.810 E0.02661
G1 X149.846 Y107.636 E0.02649
G1 X149.847 Y127.736 E0.63022
G1 X149.646 Y128.683 E0.03036
G1 X149.083 Y129.471 E0.03036
G1 X148.360 Y129.929 E0.02684
G1 X147.517 Y130.102 E0.02696
G1 X118.520 Y130.084 E0.90919
G1 X117.833 Y129.891 E0.02237
G1 X106.493 Y124.653 E0.39166
G1 X105.753 Y124.113 E0.02872
G1 X105.420 Y123.650 E0.01787
G1 X105.205 Y123.118 E0.01799
G1 X102.926 Y113.913 E0.29735
G1 X102.861 Y113.385 E0.01668
G1 X102.867 Y84.181 E0.91565
G1 X103.096 Y83.329 E0.02767
G1 X103.586 Y82.664 E0.02590

G1 F5760
G1 X104.369 Y82.147 E-0.32504
G1 F5760
G1 X105.240 Y81.983 E-0.30690
G1 F5760
G1 X105.610 Y81.986 E-0.12806
G1 E-0.04000 F2100.00000
G1 X105.238 Y84.360 F7200.000
G1 E0.80000 F2100.00000
G1 F2100
G1 X105.238 Y113.357 E0.90916
G1 X105.992 Y112.602 E0.03344
G1 X105.992 Y84.530 E0.88020
G1 X106.746 Y84.530 E0.02365
G1 X106.746 Y111.848 E0.85655
G1 X107.041 Y111.553 E0.01311
G1 X107.041 Y107.310 E0.13302
G1 X107.310 Y107.041 E0.01191
G1 X107.500 Y107.041 E0.00596
G1 X107.500 Y84.530 E0.70584
G1 X108.254 Y84.530 E0.02365
G1 X108.254 Y107.041 E0.70584
G1 X109.008 Y107.041 E0.02365
G1 X109.008 Y84.530 E0.70584
G1 X109.762 Y84.530 E0.02365
G1 X109.762 Y107.041 E0.70584
G1 X110.517 Y107.041 E0.02365
G1 X110.517 Y84.530 E0.70584
G1 X111.271 Y84.530 E0.02365
G1 X111.271 Y107.041 E0.70584
G1 X112.025 Y107.041 E0.02365
G1 X112.025 Y84.530 E0.70584
G1 X112.779 Y84.530 E0.02365
G1 X112.779 Y107.041 E0.70584
G1 X113.533 Y107.041 E0.02365
G1 X113.533 Y84.530 E0.70584
G1 X114.287 Y84.530 E0.02365
G1 X114.287 Y107.041 E0.70584
G1 X115.042 Y107.041 E0.02365
G1 X115.042 Y84.530 E0.70584
G1 X115.796 Y84.530 E0.02365
G1 X115.796 Y107.041 E0.70584
G1 X116.550 Y107.041 E0.02365
G1 X116.550 Y84.530 E0.70584
G1 X117.304 Y84.530 E0.02365
G1 X117.304 Y87.047 E0.07894
G1 X118.058 Y87.041 E0.02365
G1 X118.058 Y84.530 E0.07875
G1 X118.812 Y84.530 E0.02365
G1 X118.812 Y87.041 E0.07875
G1 X119.567 Y87.041 E0.02365
G1 X119.567 Y84.530 E0.07875
G1 X120.321 Y84.530 E0.02365
G1 X120.321 Y97.424 E0.40428
G1 X121.075 Y97.424 E0.02365
G1 X121.075 Y84.530 E0.40428
G1 X121.829 Y84.530 E0.02365
G1 X121.829 Y97.593 E0.40960

G1 F5760
G1 X121.829 Y95.399 E-0.76000
G1 E-0.04000 F2100.00000
G1 X120.321 Y98.267 F7200.000
G1 E0.80000 F2100.00000
G1 F2100
G1 X120.321 Y110.041 E0.36918
G1 X121.075 Y110.041 E0.02365
G1 X121.075 Y98.437 E0.36386
G1 X121.829 Y98.437 E0.02365
G1 X121.829 Y110.041 E0.36386
G1 X122.583 Y110.041 E0.02365
G1 X122.583 Y98.437 E0.36386
G1 X123.337 Y98.437 E0.02365
G1 X123.337 Y110.041 E0.36386
G1 X124.091 Y110.041 E0.02365
G1 X124.091 Y98.437 E0.36386
G1 X124.377 Y98.437 E0.00896
G1 X124.377 Y100.754 E0.07267
G1 X124.846 Y100.754 E0.01469
G1 X124.846 Y110.041 E0.29119
G1 X125.600 Y110.041 E0.02365
G1 X125.600 Y100.754 E0.29119
G1 X126.354 Y100.754 E0.02365
G1 X126.354 Y110.041 E0.29119
G1 X127.108 Y110.041 E0.02365
G1 X127.108 Y103.072 E0.21852
G1 X127.862 Y103.072 E0.02365
G1 X127.862 Y110.041 E0.21852
G1 X128.616 Y110.041 E0.02365
G1 X128.616 Y103.072 E0.21852
G1 X129.013 Y103.072 E0.01243
G1 X129.013 Y105.390 E0.07267
G1 X129.371 Y105.390 E0.01122
G1 X129.371 Y110.041 E0.14584
G1 X130.125 Y110.041 E0.02365
G1 X130.125 Y105.390 E0.14584
G1 X130.879 Y105.390 E0.02365
G1 X130.879 Y110.041 E0.14584
G1 X132.343 Y110.026 E0.04592
G1 X132.343 Y105.390 E0.14535
G1 X132.387 Y105.390 E0.00137
G1 X132.387 Y110.041 E0.14584
G1 X133.141 Y110.041 E0.02365
G1 X133.141 Y105.390 E0.14584
G1 X133.896 Y105.390 E0.02365
G1 X133.896 Y110.041 E0.14584
G1 X134.650 Y110.041 E0.02365
G1 X134.650 Y105.390 E0.14584
G1 X135.404 Y105.390 E0.02365
G1 X135.404 Y110.041 E0.14584
G1 X136.158 Y110.041 E0.02365
G1 X136.158 Y105.390 E0.14584
G1 X136.912 Y105.390 E0.02365
G1 X136.912 Y110.041 E0.14584
G1 X137.666 Y110.041 E0.02365
G1 X137.666 Y105.390 E0.14584
G1 X138.421 Y105.390 E0.02365
G1 X138.421 Y110.041 E0.14584
G1 X139.175 Y110.041 E0.02365
G1 X139.175 Y105.390 E0.14584
G1 X139.929 Y105.390 E0.02365
G1 X139.929 Y110.041 E0.14584
G1 X140.683 Y110.041 E0.02365
G1 X140.683 Y105.390 E0.14584
G1 X141.437 Y105.390 E0.02365
G1 X141.437 Y110.041 E0.14584
G1 X142.191 Y110.041 E0.02365
G1 X142.191 Y105.390 E0.14584
G1 X142.920 Y105.390 E0.02283
G1 X142.920 Y107.708 E0.07267
G1 X142.945 Y107.708 E0.00081
G1 X142.945 Y127.555 E0.62230
G1 X143.700 Y127.555 E0.02365
G1 X143.700 Y107.708 E0.62230
G1 X144.454 Y107.708 E0.02365
G1 X144.454 Y127.555 E0.62230
G1 X145.208 Y127.555 E0.02365
G1 X145.208 Y107.708 E0.62230
G1 X145.962 Y107.708 E0.02365
G1 X145.962 Y127.555 E0.62230
G1 X146.716 Y127.555 E0.02365
G1 X146.716 Y107.708 E0.62230
G1 X147.470 Y107.708 E0.02365
G1 X147.470 Y127.725 E0.62762

G1 X142.191 Y127.725 F7200.000
G1 F2100
G1 X142.191 Y112.959 E0.46299
G1 X141.437 Y112.959 E0.02365
G1 X141.437 Y127.555 E0.45767
G1 X140.683 Y127.555 E0.02365
G1 X140.683 Y112.959 E0.45767
G1 X139.929 Y112.959 E0.02365
G1 X139.929 Y127.555 E0.45767
G1 X139.175 Y127.555 E0.02365
G1 X139.175 Y112.959 E0.45767
G1 X138.421 Y112.959 E0.02365
G1 X138.421 Y127.555 E0.45767
G1 X137.666 Y127.555 E0.02365
G1 X137.666 Y112.959 E0.45767
G1 X136.912 Y112.959 E0.02365
G1 X136.912 Y127.555 E0.45767
G1 X136.158 Y127.555 E0.02365
G1 X136.158 Y112.959 E0.45767
G1 X135.404 Y112.959 E0.02365
G1 X135.404 Y127.555 E0.45767
G1 X134.650 Y127.555 E0.02365
G1 X134.650 Y112.959 E0.45767
G1 X133.896 Y112.959 E0.02365
G1 X133.896 Y127.555 E0.45767
G1 X133.141 Y127.555 E0.02365
G1 X133.141 Y112.959 E0.45767
G1 X132.387 Y112.959 E0.02365
G1 X132.387 Y127.555 E0.45767
G1 X131.633 Y127.555 E0.02365
G1 X131.633 Y112.959 E0.45767
G1 X130.879 Y112.959 E0.02365
G1 X130.879 Y127.555 E0.45767
G1 X130.125 Y127.555 E0.02365
G1 X130.125 Y112.959 E0.45767
G1 X129.371 Y112.959 E0.02365
G1 X129.371 Y127.555 E0.45767
G1 X128.616 Y127.555 E0.02365
G1 X128.616 Y112.959 E0.45767
G1 X127.862 Y112.959 E0.02365
G1 X127.862 Y127.555 E0.45767
G1 X127.108 Y127.555 E0.02365
G1 X127.108 Y112.959 E0.45767
G1 X126.354 Y112.959 E0.02365
G1 X126.354 Y127.555 E0.45767
G1 X125.600 Y127.555 E0.02365
G1 X125.600 Y112.959 E0.45767
G1 X124.846 Y112.959 E0.02365
G1 X124.846 Y127.555 E0.45767
G1 X124.091 Y127.555 E0.02365
G1 X124.091 Y112.959 E0.45767
G1 X123.337 Y112.959 E0.02365
G1 X123.337 Y127.555 E0.45767
G1 X122.583 Y127.555 E0.02365
G1 X122.583 Y122.959 E0.14413
G1 X121.829 Y122.959 E0.02365
G1 X121.829 Y127.555 E0.14413
G1 X121.075 Y127.555 E0.02365
G1 X121.075 Y122.959 E0.14413
G1 X120.321 Y122.959 E0.02365
G1 X120.321 Y127.555 E0.14413
G1 X119.567 Y127.555 E0.02365
G1 X119.567 Y122.959 E0.14413
G1 X118.812 Y122.959 E0.02365
G1 X118.812 Y127.725 E0.14945

G1 F5760
G1 X118.812 Y125.531 E-0.76000
G1 E-0.04000 F2100.00000
G1 X124.091 Y97.593 F7200.000
G1 E0.80000 F2100.00000
G1 F2100
G1 X124.091 Y86.848 E0.33693
G1 X123.337 Y86.848 E0.02365
G1 X123.337 Y97.424 E0.33161
G1 X122.583 Y97.424 E0.02365
G1 X122.583 Y86.678 E0.33693

G1 X122.583 Y86.251 F7200.000
G1 F2100
G1 X122.583 Y84.530 E0.05396
G1 X123.337 Y84.530 E0.02365
G1 X123.337 Y85.497 E0.03032

G1 F5760
G1 X123.337 Y84.530 E-0.33491
G1 F5760
G1 X122.583 Y84.530 E-0.26121
G1 F5760
G1 X122.583 Y85.003 E-0.16388
G1 E-0.04000 F2100.00000
G1 X118.536 Y88.464 F7200.000
G1 E0.80000 F2100.00000
G1 F1680
G1 X118.536 Y111.464 E0.72115
G1 X141.536 Y111.464 E0.72115
G1 X141.536 Y111.536 E0.00225
G1 X121.536 Y111.536 E0.62709
G1 X121.536 Y121.536 E0.31354
G1 X108.464 Y121.536 E0.40985
G1 X108.464 Y108.464 E0.40985
G1 X118.464 Y108.464 E0.31354
G1 X118.476 Y88.464 E0.62709

G1 F5760
G1 X118.482 Y90.658 E-0.76000
G1 E-0.04000 F2100.00000
G1 X118.913 Y111.087 F7200.000
G1 E0.80000 F2100.00000
G1 F1680
G1 X141.913 Y111.087 E0.72115
G1 X141.913 Y111.913 E0.02589
G1 X121.913 Y111.913 E0.62709
G1 X121.913 Y121.913 E0.31354
G1 X108.087 Y121.913 E0.43350
G1 X108.087 Y108.087 E0.43350
G1 X118.087 Y108.087 E0.31354
G1 X118.087 Y88.087 E0.62709
G1 X118.913 Y88.087 E0.02589
G1 X118.913 Y111.027 E0.71927

G1 X119.290 Y110.710 F7200.000
G1 F1050
G1 X142.290 Y110.710 E0.72115
G1 X142.290 Y112.290 E0.04954
G1 X122.290 Y112.290 E0.62709
G1 X122.290 Y122.290 E0.31354
G1 X107.710 Y122.290 E0.45715
G1 X107.710 Y107.710 E0.45715
G1 X117.710 Y107.710 E0.31354
G1 X117.710 Y87.710 E0.62709
G1 X119.290 Y87.710 E0.04954
G1 X119.290 Y110.650 E0.71927

G1 X119.299 Y111.110 F7200.000
G1 F5760
G1 X121.484 Y110.656 E-0.76000
G1 E-0.04000 F2100.00000
G1 X117.647 Y108.577 F7200.000
G1 E0.80000 F2100.00000
G1 F1680
G1 X118.253 Y109.183 E0.02730
G1 X118.253 Y109.725 E0.01728
G1 X117.275 Y108.747 E0.04409
G1 X116.733 Y108.747 E0.01728
G1 X118.253 Y110.267 E0.06852
G1 X118.253 Y110.809 E0.01728
G1 X116.191 Y108.747 E0.09295
G1 X115.649 Y108.747 E0.01728
G1 X118.253 Y111.351 E0.11738
G1 X118.253 Y111.747 E0.01261
G1 X118.649 Y111.747 E0.01261
G1 X121.253 Y114.351 E0.11738
G1 X121.253 Y113.809 E0.01728
G1 X119.191 Y111.747 E0.09295
G1 X119.733 Y111.747 E0.01728
G1 X121.253 Y113.267 E0.06852
G1 X121.253 Y112.725 E0.01728
G1 X120.275 Y111.747 E0.04409
G1 X120.817 Y111.747 E0.01728
G1 X121.423 Y112.353 E0.02730

G1 F5760
G1 X120.817 Y111.747 E-0.29671
G1 F5760
G1 X120.275 Y111.747 E-0.18774
G1 F5760
G1 X120.837 Y112.309 E-0.27554
G1 E-0.04000 F2100.00000
G1 X121.423 Y115.063 F7200.000
G1 E0.80000 F2100.00000
G1 F1680
G1 X115.107 Y108.747 E0.28468
G1 X114.565 Y108.747 E0.01728
G1 X121.253 Y115.435 E0.30146
G1 X121.253 Y115.977 E0.01728
G1 X114.023 Y108.747 E0.32589
G1 X113.481 Y108.747 E0.01728
G1 X121.253 Y116.519 E0.35032
G1 X121.253 Y117.062 E0.01728
G1 X112.938 Y108.747 E0.37476
G1 X112.396 Y108.747 E0.01728
G1 X121.253 Y117.604 E0.39919
G1 X121.253 Y118.146 E0.01728
G1 X111.854 Y108.747 E0.42362
G1 X111.312 Y108.747 E0.01728
G1 X121.253 Y118.688 E0.44805
G1 X121.253 Y119.230 E0.01728
G1 X110.770 Y108.747 E0.47248
G1 X110.228 Y108.747 E0.01728
G1 X121.253 Y119.772 E0.49691
G1 X121.253 Y120.314 E0.01728
G1 X109.686 Y108.747 E0.52134
G1 X109.144 Y108.747 E0.01728
G1 X121.253 Y120.856 E0.54578
G1 X121.253 Y121.253 E0.01266
G1 X121.108 Y121.253 E0.00462
G1 X108.747 Y108.892 E0.55715
G1 X108.747 Y109.434 E0.01728
G1 X120.566 Y121.253 E0.53271
G1 X120.024 Y121.253 E0.01728
G1 X108.747 Y109.976 E0.50828
G1 X108.747 Y110.518 E0.01728
G1 X119.482 Y121.253 E0.48385
G1 X118.940 Y121.253 E0.01728
G1 X108.747 Y111.060 E0.45942
G1 X108.747 Y111.602 E0.01728
G1 X118.398 Y121.253 E0.43499
G1 X117.856 Y121.253 E0.01728
G1 X108.747 Y112.144 E0.41056
G1 X108.747 Y112.686 E0.01728
G1 X117.314 Y121.253 E0.38612
G1 X116.772 Y121.253 E0.01728
G1 X108.747 Y113.228 E0.36169
G1 X108.747 Y113.770 E0.01728
G1 X116.230 Y121.253 E0.33726
G1 X115.688 Y121.253 E0.01728
G1 X108.747 Y114.312 E0.31283
G1 X108.747 Y114.854 E0.01728
G1 X115.146 Y121.253 E0.28840
G1 X114.603 Y121.253 E0.01728
G1 X108.747 Y115.397 E0.26397
G1 X108.747 Y115.939 E0.01728
G1 X114.061 Y121.253 E0.23953
G1 X113.519 Y121.253 E0.01728
G1 X108.747 Y116.481 E0.21510
G1 X108.747 Y117.023 E0.01728
G1 X112.977 Y121.253 E0.19067
G1 X112.435 Y121.253 E0.01728
G1 X108.747 Y117.565 E0.16624
G1 X108.747 Y118.107 E0.01728
G1 X111.893 Y121.253 E0.14181
G1 X111.351 Y121.253 E0.01728
G1 X108.747 Y118.649 E0.11738
G1 X108.747 Y119.191 E0.01728
G1 X110.809 Y121.253 E0.09295
G1 X110.267 Y121.253 E0.01728
G1 X108.747 Y119.733 E0.06851
G1 X108.747 Y120.275 E0.01728
G1 X109.725 Y121.253 E0.04408
G1 X109.183 Y121.253 E0.01728
G1 X108.577 Y120.647 E0.02730

M106 S252.45
G1 F5760
G1 X109.183 Y121.253 E-0.29667
G1 F5760
G1 X109.725 Y121.253 E-0.18774
G1 F5760
G1 X109.162 Y120.690 E-0.27559
G1 E-0.04000 F2100.00000
G1 Z0.350 F7200.000
M104 S210 ; set temperature
G1 X105.753 Y124.113 F7200.000
G1 E0.80000 F2100.00000
G1 F2883
G1 X105.420 Y123.650 E0.01378
G1 X105.205 Y123.118 E0.01388
G1 X102.926 Y113.913 E0.22936
G1 X102.861 Y113.385 E0.01287
G1 X102.867 Y84.181 E0.70628
G1 X103.096 Y83.329 E0.02134
G1 X103.622 Y82.616 E0.02143
G1 X104.369 Y82.147 E0.02134
G1 X105.240 Y81.983 E0.02143
G1 X123.394 Y82.153 E0.43906
G1 X123.954 Y82.234 E0.01369
G1 X124.480 Y82.445 E0.01369
G1 X124.979 Y82.811 E0.01497
G1 X149.216 Y106.094 E0.81281
G1 X149.671 Y106.810 E0.02052
G1 X149.846 Y107.636 E0.02043
G1 X149.847 Y127.736 E0.48611
G1 X149.646 Y128.683 E0.02342
G1 X149.083 Y129.471 E0.02342
G1 X148.360 Y129.929 E0.02071
G1 X147.517 Y130.102 E0.02080
G1 X118.520 Y130.084 E0.70130
G1 X117.833 Y129.891 E0.01725
G1 X106.493 Y124.653 E0.30210
G1 X105.802 Y124.148 E0.02070

G1 F5760
G1 X105.420 Y123.650 E-0.21727
G1 F5760
G1 X105.205 Y123.118 E-0.19872
G1 F5760
G1 X104.966 Y122.154 E-0.34400
G1 E-0.04000 F2100.00000
G1 X108.561 Y121.439 F7200.000
G1 E0.80000 F2100.00000
M204 S800
G1 F2306
G1 X108.561 Y108.561 E0.33557
G1 X118.439 Y108.561 E0.25740
G1 X118.439 Y111.561 E0.07817
G1 X121.439 Y111.561 E0.07817
G1 X121.439 Y121.439 E0.25740
G1 X108.621 Y121.439 E0.33400

M204 S1000
G1 F5760
G1 X108.610 Y119.245 E-0.76000
G1 E-0.04000 F2100.00000
G1 X118.857 Y111.143 F7200.000
G1 E0.80000 F2100.00000
M204 S800
G1 F2306
G1 X141.857 Y111.143 E0.59928
G1 X141.857 Y111.857 E0.01861
G1 X121.857 Y111.857 E0.52112
G1 X121.857 Y121.857 E0.26056
G1 X108.143 Y121.857 E0.35734
G1 X108.143 Y108.143 E0.35734
G1 X118.143 Y108.143 E0.26056
G1 X118.143 Y88.143 E0.52112
G1 X118.857 Y88.143 E0.01861
G1 X118.857 Y111.083 E0.59772

M204 S1000
G1 X119.275 Y110.725 F7200.000
M204 S800
G1 F1500
G1 X142.275 Y110.725 E0.59928
G1 X142.275 Y112.275 E0.04039
G1 X122.275 Y112.275 E0.52112
G1 X122.275 Y122.275 E0.26056
G1 X107.725 Y122.275 E0.37911
G1 X107.725 Y107.725 E0.37911
G1 X117.725 Y107.725 E0.26056
G1 X117.725 Y87.725 E0.52112
G1 X119.275 Y87.725 E0.04039
G1 X119.275 Y110.665 E0.59772

M204 S1000
G1 X119.284 Y111.125 F7200.000
G1 F5760
G1 X121.469 Y110.671 E-0.76000
G1 E-0.04000 F2100.00000
G1 X118.500 Y108.352 F7200.000
G1 E0.80000 F2100.00000
G1 F2306
G1 X118.500 Y88.352 E0.32976

G1 F5760
G1 X118.500 Y90.546 E-0.76000
G1 E-0.04000 F2100.00000
G1 X108.686 Y109.549 F7200.000
G1 E0.80000 F2100.00000
M204 S2000
G1 F2306
G1 X109.361 Y108.874 E0.02540
G1 X109.964 Y108.874 E0.01605
G1 X108.874 Y109.964 E0.04103
G1 X108.874 Y110.568 E0.01605
G1 X110.568 Y108.874 E0.06373
G1 X111.171 Y108.874 E0.01605
G1 X108.874 Y111.171 E0.08643
G1 X108.874 Y111.774 E0.01605
G1 X111.774 Y108.874 E0.10913
G1 X112.378 Y108.874 E0.01605
G1 X108.874 Y112.378 E0.13183
G1 X108.874 Y112.981 E0.01605
G1 X112.981 Y108.874 E0.15453
G1 X113.584 Y108.874 E0.01605
G1 X108.874 Y113.584 E0.17723
G1 X108.874 Y114.188 E0.01605
G1 X114.188 Y108.874 E0.19993
G1 X114.791 Y108.874 E0.01605
G1 X108.874 Y114.791 E0.22263
G1 X108.874 Y115.394 E0.01605
G1 X115.394 Y108.874 E0.24533
G1 X115.998 Y108.874 E0.01605
G1 X108.874 Y115.998 E0.26803
G1 X108.874 Y116.601 E0.01605
G1 X116.601 Y108.874 E0.29073
G1 X117.204 Y108.874 E0.01605
G1 X108.874 Y117.204 E0.31343
G1 X108.874 Y117.808 E0.01605
G1 X117.808 Y108.874 E0.33613
G1 X118.126 Y108.874 E0.00847
G1 X118.126 Y109.159 E0.00758
