; generated by Slic3r 1.35.5.16-prusa3d-win64 on 2017-07-19 at 20:46:39

; 

; external perimeters extrusion width = 0.45mm
; perimeters extrusion width = 0.45mm
; infill extrusion width = 0.45mm
; solid infill extrusion width = 0.45mm
; top infill extrusion width = 0.40mm
; first layer extrusion width = 0.42mm

M107
M115 U3.0.9 ; tell printer latest fw version
M83  ; extruder relative mode
M104 S215 ; set extruder temp
M140 S55 ; set bed temp
M190 S55 ; wait for bed temp
M109 S215 ; wait for extruder temp
G28 W ; home all without mesh bed level
G80 ; mesh bed leveling
G1 Y-3.0 F1000.0 ; go outside pritn area
G1 X60.0 E9.0  F1000.0 ; intro line
G1 X100.0 E12.5  F1000.0 ; intro line
; Filament gcode

G21 ; set units to millimeters
G90 ; use absolute coordinates
M83 ; use relative distances for extrusion
M106 S216.75
G1 E-0.80000 F2100.00000
G1 Z0.200 F7200.000
G1 X90.700 Y96.448 F7200.000
G1 E0.80000 F2100.00000
M204 S1000
G1 F2100
G1 X91.251 Y95.978 E0.02272
G1 X91.918 Y95.695 E0.02272
G1 X92.495 Y95.623 E0.01823
G1 X157.504 Y95.623 E2.03830
G1 X158.395 Y95.798 E0.02849
G1 X159.156 Y96.295 E0.02849
G1 X159.675 Y97.041 E0.02849
G1 X159.876 Y97.927 E0.02849
G1 X159.863 Y112.259 E0.44937
G1 X159.677 Y112.955 E0.02260
G1 X159.293 Y113.561 E0.02249
G1 X158.746 Y114.024 E0.02249
G1 X158.082 Y114.305 E0.02260
G1 X157.505 Y114.377 E0.01823
G1 X92.439 Y114.376 E2.04009
G1 X91.683 Y114.232 E0.02414
G1 X91.015 Y113.856 E0.02402
G1 X90.502 Y113.288 E0.02402
G1 X90.195 Y112.582 E0.02414
G1 X90.123 Y112.009 E0.01811
G1 X90.135 Y97.760 E0.44674
G1 X90.316 Y97.063 E0.02260
G1 X90.668 Y96.499 E0.02084

G1 F5760
G1 X91.251 Y95.978 E-0.27089
G1 F5760
G1 X91.918 Y95.695 E-0.25100
G1 F5760
G1 X92.495 Y95.623 E-0.20134
G1 F5760
G1 X92.601 Y95.623 E-0.03677
G1 E-0.04000 F2100.00000
G1 X93.087 Y98.587 F7200.000
G1 E0.80000 F2100.00000
G1 F1680
G1 X156.913 Y98.587 E2.00121
G1 X156.913 Y111.413 E0.40215
G1 X93.087 Y111.413 E2.00121
G1 X93.087 Y98.647 E0.40026

G1 X92.710 Y98.210 F7200.000
G1 F1260
G1 X157.290 Y98.210 E2.02486
G1 X157.290 Y111.790 E0.42579
G1 X92.710 Y111.790 E2.02486
G1 X92.710 Y98.270 E0.42391

G1 X93.109 Y98.238 F7200.000
G1 F5760
G1 X94.904 Y98.268 E-0.76000
G1 E-0.04000 F2100.00000
G1 X93.200 Y110.537 F7200.000
G1 E0.80000 F2100.00000
G1 F1680
G1 X93.793 Y111.130 E0.02629
G1 X94.326 Y111.130 E0.01673
G1 X93.370 Y110.174 E0.04242
G1 X93.370 Y109.640 E0.01673
G1 X94.860 Y111.130 E0.06607
G1 X95.393 Y111.130 E0.01673
G1 X93.370 Y109.107 E0.08973
G1 X93.370 Y108.574 E0.01673
G1 X95.926 Y111.130 E0.11339
G1 X96.460 Y111.130 E0.01673
G1 X93.370 Y108.040 E0.13704
G1 X93.370 Y107.507 E0.01673
G1 X96.993 Y111.130 E0.16070
G1 X97.527 Y111.130 E0.01673
G1 X93.370 Y106.973 E0.18436
G1 X93.370 Y106.440 E0.01673
G1 X98.060 Y111.130 E0.20801
G1 X98.593 Y111.130 E0.01673
G1 X93.370 Y105.907 E0.23167
G1 X93.370 Y105.373 E0.01673
G1 X99.127 Y111.130 E0.25533
G1 X99.660 Y111.130 E0.01673
G1 X93.370 Y104.840 E0.27898
G1 X93.370 Y104.306 E0.01673
G1 X100.194 Y111.130 E0.30264
G1 X100.727 Y111.130 E0.01673
G1 X93.370 Y103.773 E0.32630
G1 X93.370 Y103.240 E0.01673
G1 X101.260 Y111.130 E0.34995
G1 X101.794 Y111.130 E0.01673
G1 X93.370 Y102.706 E0.37361
G1 X93.370 Y102.173 E0.01673
G1 X102.327 Y111.130 E0.39727
G1 X102.860 Y111.130 E0.01673
G1 X93.370 Y101.640 E0.42092
G1 X93.370 Y101.106 E0.01673
G1 X103.394 Y111.130 E0.44458
G1 X103.927 Y111.130 E0.01673
G1 X93.370 Y100.573 E0.46824
G1 X93.370 Y100.039 E0.01673
G1 X104.461 Y111.130 E0.49189
G1 X104.994 Y111.130 E0.01673
G1 X93.370 Y99.506 E0.51555
G1 X93.370 Y98.973 E0.01673
G1 X105.527 Y111.130 E0.53921
G1 X106.061 Y111.130 E0.01673
G1 X93.801 Y98.870 E0.54376
G1 X94.334 Y98.870 E0.01673
G1 X106.594 Y111.130 E0.54376
G1 X107.128 Y111.130 E0.01673
G1 X94.867 Y98.870 E0.54376
G1 X95.401 Y98.870 E0.01673
G1 X107.661 Y111.130 E0.54376
G1 X108.194 Y111.130 E0.01673
G1 X95.934 Y98.870 E0.54376
G1 X96.467 Y98.870 E0.01673
G1 X108.728 Y111.130 E0.54376
G1 X109.261 Y111.130 E0.01673
G1 X97.001 Y98.870 E0.54376
G1 X97.534 Y98.870 E0.01673
G1 X109.795 Y111.130 E0.54376
G1 X110.328 Y111.130 E0.01673
G1 X98.068 Y98.870 E0.54376
G1 X98.601 Y98.870 E0.01673
G1 X110.861 Y111.130 E0.54376
G1 X111.395 Y111.130 E0.01673
G1 X99.134 Y98.870 E0.54376
G1 X99.668 Y98.870 E0.01673
G1 X111.928 Y111.130 E0.54376
G1 X112.461 Y111.130 E0.01673
G1 X100.201 Y98.870 E0.54376
G1 X100.735 Y98.870 E0.01673
G1 X112.995 Y111.130 E0.54376
G1 X113.528 Y111.130 E0.01673
G1 X101.268 Y98.870 E0.54376
G1 X101.801 Y98.870 E0.01673
G1 X114.062 Y111.130 E0.54376
G1 X114.595 Y111.130 E0.01673
G1 X102.335 Y98.870 E0.54376
G1 X102.868 Y98.870 E0.01673
G1 X115.128 Y111.130 E0.54376
G1 X115.662 Y111.130 E0.01673
G1 X103.402 Y98.870 E0.54376
G1 X103.935 Y98.870 E0.01673
G1 X116.195 Y111.130 E0.54376
G1 X116.729 Y111.130 E0.01673
G1 X104.468 Y98.870 E0.54376
G1 X105.002 Y98.870 E0.01673
G1 X117.262 Y111.130 E0.54376
G1 X117.795 Y111.130 E0.01673
G1 X105.535 Y98.870 E0.54376
G1 X106.068 Y98.870 E0.01673
G1 X118.329 Y111.130 E0.54376
G1 X118.862 Y111.130 E0.01673
G1 X106.602 Y98.870 E0.54376
G1 X107.135 Y98.870 E0.01673
G1 X119.396 Y111.130 E0.54376
G1 X119.929 Y111.130 E0.01673
G1 X107.669 Y98.870 E0.54376
G1 X108.202 Y98.870 E0.01673
G1 X120.462 Y111.130 E0.54376
G1 X120.996 Y111.130 E0.01673
G1 X108.735 Y98.870 E0.54376
G1 X109.269 Y98.870 E0.01673
G1 X121.529 Y111.130 E0.54376
G1 X122.062 Y111.130 E0.01673
G1 X109.802 Y98.870 E0.54376
G1 X110.336 Y98.870 E0.01673
G1 X122.596 Y111.130 E0.54376
G1 X123.129 Y111.130 E0.01673
G1 X110.869 Y98.870 E0.54376
G1 X111.402 Y98.870 E0.01673
G1 X123.663 Y111.130 E0.54376
G1 X124.196 Y111.130 E0.01673
G1 X111.936 Y98.870 E0.54376
G1 X112.469 Y98.870 E0.01673
G1 X124.729 Y111.130 E0.54376
G1 X125.263 Y111.130 E0.01673
G1 X113.003 Y98.870 E0.54376
G1 X113.536 Y98.870 E0.01673
G1 X125.796 Y111.130 E0.54376
G1 X126.330 Y111.130 E0.01673
G1 X114.069 Y98.870 E0.54376
G1 X114.603 Y98.870 E0.01673
G1 X126.863 Y111.130 E0.54376
G1 X127.396 Y111.130 E0.01673
G1 X115.136 Y98.870 E0.54376
G1 X115.669 Y98.870 E0.01673
G1 X127.930 Y111.130 E0.54376
G1 X128.463 Y111.130 E0.01673
G1 X116.203 Y98.870 E0.54376
G1 X116.736 Y98.870 E0.01673
G1 X128.997 Y111.130 E0.54376
G1 X129.530 Y111.130 E0.01673
G1 X117.270 Y98.870 E0.54376
G1 X117.803 Y98.870 E0.01673
G1 X130.063 Y111.130 E0.54376
G1 X130.597 Y111.130 E0.01673
G1 X118.336 Y98.870 E0.54376
G1 X118.870 Y98.870 E0.01673
G1 X131.130 Y111.130 E0.54376
G1 X131.663 Y111.130 E0.01673
G1 X119.403 Y98.870 E0.54376
G1 X119.937 Y98.870 E0.01673
G1 X132.197 Y111.130 E0.54376
G1 X132.730 Y111.130 E0.01673
G1 X120.470 Y98.870 E0.54376
G1 X121.003 Y98.870 E0.01673
G1 X133.264 Y111.130 E0.54376
G1 X133.797 Y111.130 E0.01673
G1 X121.537 Y98.870 E0.54376
G1 X122.070 Y98.870 E0.01673
G1 X134.330 Y111.130 E0.54376
G1 X134.864 Y111.130 E0.01673
G1 X122.604 Y98.870 E0.54376
G1 X123.137 Y98.870 E0.01673
G1 X135.397 Y111.130 E0.54376
G1 X135.931 Y111.130 E0.01673
G1 X123.670 Y98.870 E0.54376
G1 X124.204 Y98.870 E0.01673
G1 X136.464 Y111.130 E0.54376
G1 X136.997 Y111.130 E0.01673
G1 X124.737 Y98.870 E0.54376
G1 X125.270 Y98.870 E0.01673
G1 X137.531 Y111.130 E0.54376
G1 X138.064 Y111.130 E0.01673
G1 X125.804 Y98.870 E0.54376
G1 X126.337 Y98.870 E0.01673
G1 X138.598 Y111.130 E0.54376
G1 X139.131 Y111.130 E0.01673
G1 X126.871 Y98.870 E0.54376
G1 X127.404 Y98.870 E0.01673
G1 X139.664 Y111.130 E0.54376
G1 X140.198 Y111.130 E0.01673
G1 X127.937 Y98.870 E0.54376
G1 X128.471 Y98.870 E0.01673
G1 X140.731 Y111.130 E0.54376
G1 X141.264 Y111.130 E0.01673
G1 X129.004 Y98.870 E0.54376
G1 X129.538 Y98.870 E0.01673
G1 X141.798 Y111.130 E0.54376
G1 X142.331 Y111.130 E0.01673
G1 X130.071 Y98.870 E0.54376
G1 X130.604 Y98.870 E0.01673
G1 X142.865 Y111.130 E0.54376
G1 X143.398 Y111.130 E0.01673
G1 X131.138 Y98.870 E0.54376
G1 X131.671 Y98.870 E0.01673
G1 X143.931 Y111.130 E0.54376
G1 X144.465 Y111.130 E0.01673
G1 X132.205 Y98.870 E0.54376
G1 X132.738 Y98.870 E0.01673
G1 X144.998 Y111.130 E0.54376
G1 X145.532 Y111.130 E0.01673
G1 X133.271 Y98.870 E0.54376
G1 X133.805 Y98.870 E0.01673
G1 X146.065 Y111.130 E0.54376
G1 X146.598 Y111.130 E0.01673
G1 X134.338 Y98.870 E0.54376
G1 X134.871 Y98.870 E0.01673
G1 X147.132 Y111.130 E0.54376
G1 X147.665 Y111.130 E0.01673
G1 X135.405 Y98.870 E0.54376
G1 X135.938 Y98.870 E0.01673
G1 X148.199 Y111.130 E0.54376
G1 X148.732 Y111.130 E0.01673
G1 X136.472 Y98.870 E0.54376
G1 X137.005 Y98.870 E0.01673
G1 X149.265 Y111.130 E0.54376
G1 X149.799 Y111.130 E0.01673
G1 X137.538 Y98.870 E0.54376
G1 X138.072 Y98.870 E0.01673
G1 X150.332 Y111.130 E0.54376
G1 X150.865 Y111.130 E0.01673
G1 X138.605 Y98.870 E0.54376
G1 X139.139 Y98.870 E0.01673
G1 X151.399 Y111.130 E0.54376
G1 X151.932 Y111.130 E0.01673
G1 X139.672 Y98.870 E0.54376
G1 X140.205 Y98.870 E0.01673
G1 X152.466 Y111.130 E0.54376
G1 X152.999 Y111.130 E0.01673
G1 X140.739 Y98.870 E0.54376
G1 X141.272 Y98.870 E0.01673
G1 X153.532 Y111.130 E0.54376
G1 X154.066 Y111.130 E0.01673
G1 X141.806 Y98.870 E0.54376
G1 X142.339 Y98.870 E0.01673
G1 X154.599 Y111.130 E0.54376
G1 X155.133 Y111.130 E0.01673
G1 X142.872 Y98.870 E0.54376
G1 X143.406 Y98.870 E0.01673
G1 X155.666 Y111.130 E0.54376
G1 X156.199 Y111.130 E0.01673
G1 X143.939 Y98.870 E0.54376
G1 X144.472 Y98.870 E0.01673
G1 X156.630 Y111.028 E0.53921
G1 X156.630 Y110.494 E0.01673
G1 X145.006 Y98.870 E0.51555
G1 X145.539 Y98.870 E0.01673
G1 X156.630 Y109.961 E0.49190
G1 X156.630 Y109.427 E0.01673
G1 X146.073 Y98.870 E0.46824
G1 X146.606 Y98.870 E0.01673
G1 X156.630 Y108.894 E0.44458
G1 X156.630 Y108.361 E0.01673
G1 X147.139 Y98.870 E0.42093
G1 X147.673 Y98.870 E0.01673
G1 X156.630 Y107.827 E0.39727
G1 X156.630 Y107.294 E0.01673
G1 X148.206 Y98.870 E0.37361
G1 X148.740 Y98.870 E0.01673
G1 X156.630 Y106.760 E0.34996
G1 X156.630 Y106.227 E0.01673
G1 X149.273 Y98.870 E0.32630
G1 X149.806 Y98.870 E0.01673
G1 X156.630 Y105.694 E0.30264
G1 X156.630 Y105.160 E0.01673
G1 X150.340 Y98.870 E0.27899
G1 X150.873 Y98.870 E0.01673
G1 X156.630 Y104.627 E0.25533
G1 X156.630 Y104.093 E0.01673
G1 X151.407 Y98.870 E0.23167
G1 X151.940 Y98.870 E0.01673
G1 X156.630 Y103.560 E0.20802
G1 X156.630 Y103.027 E0.01673
G1 X152.473 Y98.870 E0.18436
G1 X153.007 Y98.870 E0.01673
G1 X156.630 Y102.493 E0.16070
G1 X156.630 Y101.960 E0.01673
G1 X153.540 Y98.870 E0.13705
G1 X154.074 Y98.870 E0.01673
G1 X156.630 Y101.427 E0.11339
G1 X156.630 Y100.893 E0.01673
G1 X154.607 Y98.870 E0.08973
G1 X155.140 Y98.870 E0.01673
G1 X156.630 Y100.360 E0.06608
G1 X156.630 Y99.826 E0.01673
G1 X155.674 Y98.870 E0.04242
G1 X156.207 Y98.870 E0.01673
G1 X156.800 Y99.463 E0.02629

M106 S234.6
G1 F5760
G1 X156.207 Y98.870 E-0.29035
G1 F5760
G1 X155.674 Y98.870 E-0.18474
G1 F5760
G1 X156.255 Y99.452 E-0.28491
G1 E-0.04000 F2100.00000
G1 Z0.400 F7200.000
M104 S210 ; set temperature
G1 X159.675 Y97.041 F7200.000
G1 E0.80000 F2100.00000
G1 F3000
G1 X159.876 Y97.927 E0.02849
G1 X159.863 Y112.259 E0.44937
G1 X159.677 Y112.955 E0.02260
G1 X159.293 Y113.561 E0.02249
G1 X158.746 Y114.024 E0.02249
G1 X158.082 Y114.305 E0.02260
G1 X157.505 Y114.377 E0.01823
G1 X92.439 Y114.376 E2.04009
G1 X91.683 Y114.232 E0.02414
G1 X91.015 Y113.856 E0.02402
G1 X90.502 Y113.288 E0.02402
G1 X90.195 Y112.582 E0.02414
G1 X90.123 Y112.009 E0.01811
G1 X90.135 Y97.760 E0.44674
G1 X90.316 Y97.063 E0.02260
G1 X90.700 Y96.448 E0.02272
G1 X91.251 Y95.978 E0.02272
G1 X91.918 Y95.695 E0.02272
G1 X92.495 Y95.623 E0.01823
G1 X157.504 Y95.623 E2.03830
G1 X158.395 Y95.798 E0.02849
G1 X159.156 Y96.295 E0.02849
G1 X159.641 Y96.991 E0.02661

G1 F5760
G1 X159.876 Y97.927 E-0.33403
G1 F5760
G1 X159.875 Y99.156 E-0.42597
G1 E-0.04000 F2100.00000
G1 X156.868 Y98.632 F7200.000
G1 E0.80000 F2100.00000
M204 S800
G1 F2400
G1 X156.868 Y111.368 E0.43109
G1 X93.132 Y111.368 E2.15738
G1 X93.132 Y98.632 E0.43109
G1 X156.808 Y98.632 E2.15535

M204 S1000
G1 X157.275 Y98.225 F7200.000
M204 S800
G1 F1800
G1 X157.275 Y111.775 E0.45865
G1 X92.725 Y111.775 E2.18494
G1 X92.725 Y98.225 E0.45865
G1 X157.215 Y98.225 E2.18291

M204 S1000
G1 X157.099 Y98.584 F7200.000
G1 F5760
G1 X157.225 Y100.419 E-0.76000
G1 E-0.04000 F2100.00000
G1 X155.922 Y111.246 F7200.000
G1 E0.80000 F2100.00000
M204 S2000
G1 F2400
G1 X156.563 Y110.605 E0.03069
G1 X156.563 Y110.029 E0.01952
G1 X155.529 Y111.063 E0.04953
G1 X154.953 Y111.063 E0.01952
G1 X156.563 Y109.453 E0.07714
G1 X156.563 Y108.877 E0.01952
G1 X154.377 Y111.063 E0.10475
G1 X153.800 Y111.063 E0.01952
G1 X156.563 Y108.300 E0.13236
G1 X156.563 Y107.724 E0.01952
G1 X153.224 Y111.063 E0.15997
G1 X152.648 Y111.063 E0.01952
G1 X156.563 Y107.148 E0.18758
G1 X156.563 Y106.572 E0.01952
G1 X152.072 Y111.063 E0.21519
G1 X151.495 Y111.063 E0.01952
G1 X156.563 Y105.995 E0.24280
G1 X156.563 Y105.419 E0.01952
G1 X150.919 Y111.063 E0.27041
G1 X150.343 Y111.063 E0.01952
G1 X156.563 Y104.843 E0.29802
G1 X156.563 Y104.267 E0.01952
G1 X149.767 Y111.063 E0.32563
G1 X149.190 Y111.063 E0.01952
G1 X156.563 Y103.690 E0.35325
G1 X156.563 Y103.114 E0.01952
G1 X148.614 Y111.063 E0.38086
G1 X148.038 Y111.063 E0.01952
G1 X156.563 Y102.538 E0.40847
G1 X156.563 Y101.962 E0.01952
G1 X147.462 Y111.063 E0.43608
G1 X146.885 Y111.063 E0.01952
G1 X156.563 Y101.385 E0.46369
G1 X156.563 Y100.809 E0.01952
G1 X146.309 Y111.063 E0.49130
G1 X145.733 Y111.063 E0.01952
G1 X156.563 Y100.233 E0.51891
G1 X156.563 Y99.657 E0.01952
G1 X145.157 Y111.063 E0.54652
G1 X144.580 Y111.063 E0.01952
G1 X156.563 Y99.080 E0.57413
G1 X156.563 Y98.937 E0.00484
G1 X156.129 Y98.937 E0.01468
G1 X144.004 Y111.063 E0.58098
G1 X143.428 Y111.063 E0.01952
G1 X155.553 Y98.937 E0.58098
G1 X154.977 Y98.937 E0.01952
G1 X142.852 Y111.063 E0.58098
G1 X142.275 Y111.063 E0.01952
G1 X154.401 Y98.937 E0.58098
G1 X153.824 Y98.937 E0.01952
G1 X141.699 Y111.063 E0.58098
G1 X141.123 Y111.063 E0.01952
G1 X153.248 Y98.937 E0.58098
G1 X152.672 Y98.937 E0.01952
G1 X140.547 Y111.063 E0.58098
G1 X139.970 Y111.063 E0.01952
G1 X152.096 Y98.937 E0.58098
G1 X151.519 Y98.937 E0.01952
G1 X139.394 Y111.063 E0.58098
G1 X138.818 Y111.063 E0.01952
G1 X150.943 Y98.937 E0.58098
G1 X150.367 Y98.937 E0.01952
G1 X138.242 Y111.063 E0.58098
G1 X137.665 Y111.063 E0.01952
G1 X149.791 Y98.937 E0.58098
G1 X149.214 Y98.937 E0.01952
G1 X137.089 Y111.063 E0.58098
G1 X136.513 Y111.063 E0.01952
G1 X148.638 Y98.937 E0.58098
G1 X148.062 Y98.937 E0.01952
G1 X135.937 Y111.063 E0.58098
G1 X135.360 Y111.063 E0.01952
G1 X147.486 Y98.937 E0.58098
G1 X146.909 Y98.937 E0.01952
G1 X134.784 Y111.063 E0.58098
G1 X134.208 Y111.063 E0.01952
G1 X146.333 Y98.937 E0.58098
G1 X145.757 Y98.937 E0.01952
G1 X133.632 Y111.063 E0.58098
G1 X133.055 Y111.063 E0.01952
G1 X145.181 Y98.937 E0.58098
G1 X144.604 Y98.937 E0.01952
G1 X132.479 Y111.063 E0.58098
G1 X131.903 Y111.063 E0.01952
G1 X144.028 Y98.937 E0.58098
G1 X143.452 Y98.937 E0.01952
G1 X131.327 Y111.063 E0.58098
G1 X130.750 Y111.063 E0.01952
G1 X142.876 Y98.937 E0.58098
G1 X142.299 Y98.937 E0.01952
G1 X130.174 Y111.063 E0.58098
G1 X129.598 Y111.063 E0.01952
G1 X141.723 Y98.937 E0.58098
G1 X141.147 Y98.937 E0.01952
G1 X129.022 Y111.063 E0.58098
G1 X128.445 Y111.063 E0.01952
G1 X140.571 Y98.937 E0.58098
G1 X139.994 Y98.937 E0.01952
G1 X127.869 Y111.063 E0.58098
G1 X127.293 Y111.063 E0.01952
G1 X139.418 Y98.937 E0.58098
G1 X138.842 Y98.937 E0.01952
G1 X126.717 Y111.063 E0.58098
G1 X126.140 Y111.063 E0.01952
G1 X138.266 Y98.937 E0.58098
G1 X137.689 Y98.937 E0.01952
G1 X125.564 Y111.063 E0.58098
G1 X124.988 Y111.063 E0.01952
G1 X137.113 Y98.937 E0.58098
G1 X136.537 Y98.937 E0.01952
G1 X124.412 Y111.063 E0.58098
G1 X123.835 Y111.063 E0.01952
G1 X135.961 Y98.937 E0.58098
G1 X135.384 Y98.937 E0.01952
G1 X123.259 Y111.063 E0.58098
G1 X122.683 Y111.063 E0.01952
G1 X134.808 Y98.937 E0.58098
G1 X134.232 Y98.937 E0.01952
G1 X122.107 Y111.063 E0.58098
G1 X121.530 Y111.063 E0.01952
G1 X133.656 Y98.937 E0.58098
G1 X133.079 Y98.937 E0.01952
G1 X120.954 Y111.063 E0.58098
G1 X120.378 Y111.063 E0.01952
G1 X132.503 Y98.937 E0.58098
G1 X131.927 Y98.937 E0.01952
G1 X119.802 Y111.063 E0.58098
G1 X119.225 Y111.063 E0.01952
G1 X131.351 Y98.937 E0.58098
