; generated by Slic3r 1.35.5.16-prusa3d-win64 on 2017-07-21 at 13:55:23

; 

; external perimeters extrusion width = 0.45mm
; perimeters extrusion width = 0.45mm
; infill extrusion width = 0.45mm
; solid infill extrusion width = 0.45mm
; top infill extrusion width = 0.45mm
; first layer extrusion width = 0.42mm

M107
M115 U3.0.9 ; tell printer latest fw version
M83  ; extruder relative mode
M104 S215 ; set extruder temp
M140 S55 ; set bed temp
M190 S55 ; wait for bed temp
M109 S215 ; wait for extruder temp
G28 W ; home all without mesh bed level
G80 ; mesh bed leveling
G1 Y-3.0 F1000.0 ; go outside pritn area
G1 X60.0 E9.0  F1000.0 ; intro line
G1 X100.0 E12.5  F1000.0 ; intro line
; Filament gcode

G21 ; set units to millimeters
G90 ; use absolute coordinates
M83 ; use relative distances for extrusion
M106 S216.75
G1 E-0.80000 F2100.00000
G1 Z0.200 F7200.000
G1 X63.837 Y73.407 F7200.000
G1 E0.80000 F2100.00000
M204 S1000
G1 F2100
G1 X64.723 Y72.875 E0.03241
G1 X65.363 Y72.684 E0.02095
G1 X65.995 Y72.623 E0.01989
G1 X184.004 Y72.623 E3.70010
G1 X184.600 Y72.677 E0.01877
G1 X185.202 Y72.845 E0.01958
G1 X185.748 Y73.111 E0.01906
G1 X186.283 Y73.513 E0.02099
G1 X186.664 Y73.926 E0.01762
G1 X187.017 Y74.489 E0.02082
G1 X187.284 Y75.222 E0.02447
G1 X187.371 Y75.831 E0.01929
G1 X187.377 Y115.015 E1.22858
G1 X187.278 Y117.089 E0.06510
G1 X187.116 Y118.408 E0.04166
G1 X186.852 Y119.804 E0.04456
G1 X186.392 Y121.564 E0.05702
G1 X185.563 Y123.825 E0.07551
G1 X184.381 Y126.176 E0.08252
G1 X183.409 Y127.722 E0.05725
G1 X182.698 Y128.693 E0.03774
G1 X181.886 Y129.680 E0.04007
G1 X180.460 Y131.177 E0.06484
G1 X178.694 Y132.698 E0.07306
G1 X177.723 Y133.408 E0.03771
G1 X176.176 Y134.381 E0.05730
G1 X173.822 Y135.565 E0.08262
G1 X171.701 Y136.350 E0.07093
G1 X169.518 Y136.916 E0.07069
G1 X167.279 Y137.261 E0.07105
G1 X165.266 Y137.373 E0.06322
G1 X84.996 Y137.377 E2.51679
G1 X82.722 Y137.261 E0.07140
G1 X81.315 Y137.068 E0.04453
G1 X79.518 Y136.695 E0.05755
G1 X76.914 Y135.861 E0.08571
G1 X75.236 Y135.134 E0.05736
G1 X74.131 Y134.560 E0.03904
G1 X72.854 Y133.788 E0.04679
G1 X71.368 Y132.745 E0.05693
G1 X69.547 Y131.184 E0.07518
G1 X68.114 Y129.680 E0.06514
G1 X67.305 Y128.697 E0.03993
G1 X66.592 Y127.723 E0.03783
G1 X65.619 Y126.176 E0.05730
G1 X64.435 Y123.822 E0.08262
G1 X63.653 Y121.712 E0.07057
G1 X63.148 Y119.805 E0.06185
G1 X62.859 Y118.234 E0.05007
G1 X62.645 Y115.980 E0.07098
G1 X62.623 Y75.989 E1.25392
G1 X62.780 Y74.987 E0.03177
G1 X63.163 Y74.171 E0.02829
G1 X63.797 Y73.452 E0.03005

G1 F5760
G1 X64.723 Y72.875 E-0.37784
G1 F5760
G1 X65.363 Y72.684 E-0.23144
G1 F5760
G1 X65.796 Y72.642 E-0.15072
G1 E-0.04000 F2100.00000
G1 X85.083 Y95.071 F7200.000
G1 E0.80000 F2100.00000
G1 F1680
G1 X85.387 Y94.771 E0.01341
G1 X85.914 Y94.314 E0.02186
G1 X86.467 Y93.890 E0.02186
G1 X87.046 Y93.501 E0.02186
G1 X87.648 Y93.150 E0.02186
G1 X88.271 Y92.836 E0.02186
G1 X88.912 Y92.562 E0.02186
G1 X89.569 Y92.328 E0.02186
G1 X90.239 Y92.135 E0.02186
G1 X90.920 Y91.984 E0.02186
G1 X91.609 Y91.876 E0.02186
G1 X92.316 Y91.810 E0.02228
G1 X100.998 Y91.777 E0.27222
G1 X149.002 Y91.777 E1.50512
G1 X157.684 Y91.810 E0.27222
G1 X158.391 Y91.876 E0.02228
G1 X159.080 Y91.984 E0.02186
G1 X159.761 Y92.135 E0.02186
G1 X160.431 Y92.328 E0.02186
G1 X161.088 Y92.562 E0.02186
G1 X161.729 Y92.836 E0.02186
G1 X162.352 Y93.150 E0.02186
G1 X162.954 Y93.501 E0.02186
G1 X163.533 Y93.890 E0.02186
G1 X164.086 Y94.314 E0.02186
G1 X164.613 Y94.771 E0.02186
G1 X165.110 Y95.260 E0.02186
G1 X165.575 Y95.779 E0.02186
G1 X166.007 Y96.326 E0.02186
G1 X166.405 Y96.899 E0.02186
G1 X166.766 Y97.496 E0.02186
G1 X167.089 Y98.114 E0.02186
G1 X167.374 Y98.750 E0.02186
G1 X167.618 Y99.403 E0.02186
G1 X167.821 Y100.071 E0.02186
G1 X167.982 Y100.749 E0.02186
G1 X168.101 Y101.436 E0.02186
G1 X168.176 Y102.129 E0.02186
G1 X168.208 Y102.817 E0.02160
G1 X168.223 Y110.001 E0.22523
G1 X168.199 Y117.517 E0.23567
G1 X168.144 Y118.218 E0.02205
G1 X168.060 Y118.811 E0.01876
G1 X167.908 Y119.588 E0.02484
G1 X167.724 Y120.265 E0.02198
G1 X167.501 Y120.925 E0.02186
G1 X167.236 Y121.570 E0.02186
G1 X166.932 Y122.198 E0.02186
G1 X166.590 Y122.805 E0.02186
G1 X166.211 Y123.390 E0.02186
G1 X165.796 Y123.950 E0.02186
G1 X165.346 Y124.484 E0.02186
G1 X164.865 Y124.988 E0.02186
G1 X164.426 Y125.395 E0.01876
G1 X163.816 Y125.900 E0.02484
G1 X163.246 Y126.309 E0.02198
G1 X162.655 Y126.679 E0.02186
G1 X162.043 Y127.012 E0.02186
G1 X161.410 Y127.306 E0.02186
G1 X160.761 Y127.560 E0.02186
G1 X160.097 Y127.774 E0.02186
G1 X159.422 Y127.946 E0.02186
G1 X158.736 Y128.075 E0.02186
G1 X158.045 Y128.161 E0.02186
G1 X157.350 Y128.205 E0.02183
G1 X149.001 Y128.223 E0.26177
G1 X100.999 Y128.223 E1.50507
G1 X92.650 Y128.205 E0.26177
G1 X91.955 Y128.161 E0.02183
G1 X91.264 Y128.075 E0.02186
G1 X90.578 Y127.946 E0.02186
G1 X89.903 Y127.774 E0.02186
G1 X89.239 Y127.560 E0.02186
G1 X88.590 Y127.306 E0.02186
G1 X87.957 Y127.012 E0.02186
G1 X87.345 Y126.679 E0.02186
G1 X86.754 Y126.309 E0.02186
G1 X86.187 Y125.903 E0.02186
G1 X85.647 Y125.462 E0.02186
G1 X85.135 Y124.988 E0.02186
G1 X84.654 Y124.484 E0.02186
G1 X84.205 Y123.950 E0.02186
G1 X83.789 Y123.390 E0.02186
G1 X83.410 Y122.805 E0.02186
G1 X83.068 Y122.198 E0.02186
G1 X82.807 Y121.659 E0.01876
G1 X82.501 Y120.929 E0.02484
G1 X82.276 Y120.265 E0.02198
G1 X82.093 Y119.592 E0.02186
G1 X81.953 Y118.908 E0.02186
G1 X81.856 Y118.218 E0.02186
G1 X81.801 Y117.517 E0.02205
G1 X81.777 Y110.001 E0.23567
G1 X81.792 Y102.817 E0.22523
G1 X81.824 Y102.129 E0.02160
G1 X81.899 Y101.436 E0.02186
G1 X82.001 Y100.846 E0.01876
G1 X82.178 Y100.074 E0.02484
G1 X82.382 Y99.403 E0.02198
G1 X82.626 Y98.750 E0.02186
G1 X82.911 Y98.114 E0.02186
G1 X83.234 Y97.496 E0.02186
G1 X83.595 Y96.899 E0.02186
G1 X83.993 Y96.326 E0.02186
G1 X84.425 Y95.779 E0.02186
G1 X85.040 Y95.113 E0.02843

G1 X85.304 Y95.382 F7200.000
G1 F1680
G1 X85.643 Y95.048 E0.01492
G1 X86.152 Y94.606 E0.02113
G1 X86.687 Y94.196 E0.02113
G1 X87.247 Y93.821 E0.02113
G1 X87.828 Y93.481 E0.02113
G1 X88.430 Y93.178 E0.02113
G1 X89.050 Y92.913 E0.02113
G1 X89.684 Y92.687 E0.02113
G1 X90.332 Y92.501 E0.02113
G1 X90.990 Y92.355 E0.02113
G1 X91.656 Y92.251 E0.02113
G1 X92.335 Y92.187 E0.02138
G1 X100.999 Y92.154 E0.27167
G1 X149.001 Y92.154 E1.50508
G1 X157.665 Y92.187 E0.27167
G1 X158.344 Y92.251 E0.02138
G1 X159.010 Y92.355 E0.02113
G1 X159.668 Y92.501 E0.02113
G1 X160.316 Y92.687 E0.02113
G1 X160.950 Y92.913 E0.02113
G1 X161.570 Y93.178 E0.02113
G1 X162.172 Y93.481 E0.02113
G1 X162.753 Y93.821 E0.02113
G1 X163.313 Y94.196 E0.02113
G1 X163.848 Y94.606 E0.02113
G1 X164.357 Y95.048 E0.02113
G1 X164.837 Y95.521 E0.02113
G1 X165.287 Y96.022 E0.02113
G1 X165.704 Y96.551 E0.02113
G1 X166.088 Y97.105 E0.02113
G1 X166.437 Y97.681 E0.02113
G1 X166.750 Y98.278 E0.02113
G1 X167.024 Y98.893 E0.02113
G1 X167.260 Y99.525 E0.02113
G1 X167.457 Y100.169 E0.02113
G1 X167.612 Y100.825 E0.02113
G1 X167.727 Y101.489 E0.02113
G1 X167.800 Y102.158 E0.02113
G1 X167.831 Y102.826 E0.02097
G1 X167.846 Y110.000 E0.22494
G1 X167.821 Y117.502 E0.23520
G1 X167.769 Y118.177 E0.02124
G1 X167.688 Y118.748 E0.01807
G1 X167.540 Y119.502 E0.02410
G1 X167.363 Y120.155 E0.02120
G1 X167.147 Y120.793 E0.02113
G1 X166.892 Y121.416 E0.02113
G1 X166.598 Y122.023 E0.02113
G1 X166.267 Y122.610 E0.02113
G1 X165.901 Y123.175 E0.02113
G1 X165.500 Y123.717 E0.02113
G1 X165.065 Y124.232 E0.02113
G1 X164.600 Y124.719 E0.02113
G1 X164.177 Y125.111 E0.01807
G1 X163.585 Y125.602 E0.02410
G1 X163.036 Y125.996 E0.02120
G1 X162.465 Y126.353 E0.02113
G1 X161.873 Y126.675 E0.02113
G1 X161.262 Y126.959 E0.02113
G1 X160.635 Y127.205 E0.02113
G1 X159.993 Y127.411 E0.02113
G1 X159.340 Y127.577 E0.02113
G1 X158.678 Y127.702 E0.02113
G1 X158.009 Y127.786 E0.02113
G1 X157.338 Y127.828 E0.02111
G1 X149.001 Y127.846 E0.26140
G1 X100.999 Y127.846 E1.50505
G1 X92.662 Y127.828 E0.26140
G1 X91.991 Y127.786 E0.02111
G1 X91.322 Y127.702 E0.02113
G1 X90.660 Y127.577 E0.02113
G1 X90.007 Y127.411 E0.02113
G1 X89.365 Y127.205 E0.02113
G1 X88.738 Y126.959 E0.02113
G1 X88.127 Y126.675 E0.02113
G1 X87.535 Y126.353 E0.02113
G1 X86.964 Y125.996 E0.02113
G1 X86.416 Y125.603 E0.02113
G1 X85.894 Y125.177 E0.02113
G1 X85.400 Y124.719 E0.02113
G1 X84.935 Y124.232 E0.02113
G1 X84.501 Y123.717 E0.02113
G1 X84.099 Y123.175 E0.02113
G1 X83.733 Y122.610 E0.02113
G1 X83.402 Y122.023 E0.02113
G1 X83.151 Y121.504 E0.01807
G1 X82.853 Y120.795 E0.02410
G1 X82.637 Y120.155 E0.02120
G1 X82.460 Y119.504 E0.02113
G1 X82.325 Y118.844 E0.02113
G1 X82.231 Y118.177 E0.02113
G1 X82.179 Y117.502 E0.02124
G1 X82.154 Y110.000 E0.23520
G1 X82.169 Y102.826 E0.22494
G1 X82.200 Y102.158 E0.02097
G1 X82.273 Y101.489 E0.02113
G1 X82.371 Y100.921 E0.01807
G1 X82.543 Y100.171 E0.02410
G1 X82.740 Y99.525 E0.02120
G1 X82.976 Y98.893 E0.02113
G1 X83.250 Y98.278 E0.02113
G1 X83.563 Y97.681 E0.02113
G1 X83.912 Y97.105 E0.02113
G1 X84.296 Y96.551 E0.02113
G1 X84.713 Y96.022 E0.02113
G1 X85.262 Y95.424 E0.02544

G1 X85.526 Y95.693 F7200.000
G1 F1050
G1 X85.900 Y95.325 E0.01643
G1 X86.391 Y94.898 E0.02039
G1 X86.907 Y94.503 E0.02039
G1 X87.447 Y94.141 E0.02039
G1 X88.009 Y93.813 E0.02039
G1 X88.589 Y93.520 E0.02039
G1 X89.187 Y93.264 E0.02039
G1 X89.800 Y93.046 E0.02039
G1 X90.425 Y92.866 E0.02039
G1 X91.060 Y92.726 E0.02039
G1 X91.702 Y92.625 E0.02039
G1 X92.353 Y92.564 E0.02048
G1 X101.000 Y92.532 E0.27112
G1 X149.000 Y92.532 E1.50503
G1 X157.647 Y92.564 E0.27112
G1 X158.298 Y92.625 E0.02048
G1 X158.940 Y92.726 E0.02039
G1 X159.575 Y92.866 E0.02039
G1 X160.200 Y93.046 E0.02039
G1 X160.813 Y93.264 E0.02039
G1 X161.411 Y93.520 E0.02039
G1 X161.991 Y93.813 E0.02039
G1 X162.553 Y94.141 E0.02039
G1 X163.093 Y94.503 E0.02039
G1 X163.609 Y94.898 E0.02039
G1 X164.100 Y95.325 E0.02039
G1 X164.564 Y95.781 E0.02039
G1 X164.998 Y96.265 E0.02039
G1 X165.401 Y96.776 E0.02039
G1 X165.772 Y97.310 E0.02039
G1 X166.109 Y97.866 E0.02039
G1 X166.410 Y98.443 E0.02039
G1 X166.675 Y99.036 E0.02039
G1 X166.903 Y99.646 E0.02039
G1 X167.092 Y100.268 E0.02039
G1 X167.243 Y100.900 E0.02039
G1 X167.353 Y101.541 E0.02039
G1 X167.424 Y102.188 E0.02039
G1 X167.454 Y102.836 E0.02033
G1 X167.468 Y110.000 E0.22464
G1 X167.444 Y117.486 E0.23473
G1 X167.394 Y118.136 E0.02043
G1 X167.316 Y118.685 E0.01739
G1 X167.173 Y119.416 E0.02336
G1 X167.003 Y120.045 E0.02042
G1 X166.794 Y120.661 E0.02039
G1 X166.547 Y121.263 E0.02039
G1 X166.264 Y121.848 E0.02039
G1 X165.945 Y122.414 E0.02039
G1 X165.591 Y122.960 E0.02039
G1 X165.204 Y123.483 E0.02039
G1 X164.785 Y123.980 E0.02039
G1 X164.336 Y124.451 E0.02039
G1 X163.929 Y124.827 E0.01739
G1 X163.355 Y125.303 E0.02336
G1 X162.826 Y125.682 E0.02042
G1 X162.275 Y126.028 E0.02039
G1 X161.703 Y126.338 E0.02039
G1 X161.114 Y126.613 E0.02039
G1 X160.508 Y126.850 E0.02039
G1 X159.889 Y127.049 E0.02039
G1 X159.259 Y127.209 E0.02039
G1 X158.620 Y127.330 E0.02039
G1 X157.974 Y127.410 E0.02039
G1 X157.325 Y127.451 E0.02038
G1 X149.000 Y127.468 E0.26103
G1 X101.000 Y127.468 E1.50502
G1 X92.675 Y127.451 E0.26103
G1 X92.026 Y127.410 E0.02038
G1 X91.380 Y127.330 E0.02039
G1 X90.741 Y127.209 E0.02039
G1 X90.111 Y127.049 E0.02039
G1 X89.492 Y126.850 E0.02039
G1 X88.886 Y126.613 E0.02039
G1 X88.297 Y126.338 E0.02039
G1 X87.725 Y126.028 E0.02039
G1 X87.174 Y125.682 E0.02039
G1 X86.646 Y125.303 E0.02039
G1 X86.142 Y124.892 E0.02039
G1 X85.664 Y124.451 E0.02039
G1 X85.215 Y123.980 E0.02039
G1 X84.796 Y123.483 E0.02039
G1 X84.409 Y122.960 E0.02039
G1 X84.055 Y122.414 E0.02039
G1 X83.736 Y121.848 E0.02039
G1 X83.494 Y121.349 E0.01739
G1 X83.206 Y120.662 E0.02336
G1 X82.997 Y120.045 E0.02042
G1 X82.828 Y119.417 E0.02039
G1 X82.697 Y118.780 E0.02039
G1 X82.606 Y118.136 E0.02039
G1 X82.556 Y117.486 E0.02043
G1 X82.532 Y110.000 E0.23473
G1 X82.546 Y102.836 E0.22464
G1 X82.576 Y102.188 E0.02033
G1 X82.647 Y101.541 E0.02039
G1 X82.741 Y100.995 E0.01739
G1 X82.907 Y100.269 E0.02336
G1 X83.097 Y99.646 E0.02042
G1 X83.325 Y99.036 E0.02039
G1 X83.590 Y98.443 E0.02039
G1 X83.891 Y97.866 E0.02039
G1 X84.228 Y97.310 E0.02039
G1 X84.599 Y96.776 E0.02039
G1 X85.002 Y96.265 E0.02039
G1 X85.483 Y95.735 E0.02246

G1 X85.415 Y95.308 F7200.000
G1 F5760
G1 X85.900 Y95.325 E-0.20232
G1 F5760
G1 X86.391 Y94.898 E-0.22525
G1 F5760
G1 X86.907 Y94.503 E-0.22525
G1 F5760
G1 X87.164 Y94.331 E-0.10718
G1 E-0.04000 F2100.00000
G1 X85.000 Y82.568 F7200.000
G1 E0.80000 F2100.00000
G1 F840
G1 X84.554 Y82.529 E0.01403
G1 X84.122 Y82.413 E0.01403
G1 X83.716 Y82.224 E0.01403
G1 X83.349 Y81.967 E0.01403
G1 X83.033 Y81.651 E0.01403
G1 X82.776 Y81.284 E0.01403
G1 X82.587 Y80.878 E0.01403
G1 X82.471 Y80.446 E0.01403
G1 X82.432 Y80.000 E0.01403
G1 X82.471 Y79.554 E0.01403
G1 X82.587 Y79.122 E0.01403
G1 X82.776 Y78.716 E0.01403
G1 X83.033 Y78.349 E0.01403
G1 X83.349 Y78.033 E0.01403
G1 X83.716 Y77.776 E0.01403
G1 X84.122 Y77.587 E0.01403
G1 X84.554 Y77.471 E0.01403
G1 X84.985 Y77.433 E0.01356
G1 X85.443 Y77.470 E0.01439
G1 X85.878 Y77.587 E0.01414
G1 X86.284 Y77.776 E0.01403
G1 X86.651 Y78.033 E0.01403
G1 X86.967 Y78.349 E0.01403
G1 X87.224 Y78.716 E0.01403
G1 X87.413 Y79.122 E0.01403
G1 X87.529 Y79.554 E0.01403
G1 X87.568 Y80.000 E0.01403
G1 X87.529 Y80.446 E0.01403
G1 X87.413 Y80.878 E0.01403
G1 X87.224 Y81.284 E0.01403
G1 X86.967 Y81.651 E0.01403
G1 X86.651 Y81.967 E0.01403
G1 X86.284 Y82.224 E0.01403
G1 X85.878 Y82.413 E0.01403
G1 X85.446 Y82.529 E0.01403
G1 X85.060 Y82.563 E0.01215

G1 X85.027 Y82.187 F7200.000
G1 F840
G1 X84.620 Y82.156 E0.01280
G1 X84.251 Y82.057 E0.01197
G1 X83.905 Y81.896 E0.01197
G1 X83.593 Y81.677 E0.01197
G1 X83.323 Y81.407 E0.01197
G1 X83.104 Y81.095 E0.01197
G1 X82.943 Y80.749 E0.01197
G1 X82.844 Y80.380 E0.01197
G1 X82.811 Y80.000 E0.01197
G1 X82.844 Y79.620 E0.01197
G1 X82.943 Y79.251 E0.01197
G1 X83.104 Y78.905 E0.01197
G1 X83.323 Y78.593 E0.01197
G1 X83.593 Y78.323 E0.01197
G1 X83.905 Y78.104 E0.01197
G1 X84.251 Y77.943 E0.01197
G1 X84.620 Y77.844 E0.01197
G1 X84.986 Y77.812 E0.01154
G1 X85.378 Y77.843 E0.01232
G1 X85.749 Y77.943 E0.01203
G1 X86.095 Y78.104 E0.01197
G1 X86.407 Y78.323 E0.01197
G1 X86.677 Y78.593 E0.01197
G1 X86.896 Y78.905 E0.01197
G1 X87.057 Y79.251 E0.01197
G1 X87.156 Y79.620 E0.01197
G1 X87.189 Y80.000 E0.01197
G1 X87.156 Y80.380 E0.01197
G1 X87.057 Y80.749 E0.01197
G1 X86.896 Y81.095 E0.01197
G1 X86.677 Y81.407 E0.01197
G1 X86.407 Y81.677 E0.01197
G1 X86.095 Y81.896 E0.01197
G1 X85.749 Y82.057 E0.01197
G1 X85.380 Y82.156 E0.01197
G1 X85.087 Y82.182 E0.00924

G1 X85.000 Y81.811 F7200.000
G1 F840
G1 X84.686 Y81.783 E0.00990
G1 X84.381 Y81.702 E0.00990
G1 X84.095 Y81.568 E0.00990
G1 X83.836 Y81.387 E0.00990
G1 X83.613 Y81.164 E0.00990
G1 X83.432 Y80.905 E0.00990
G1 X83.298 Y80.619 E0.00990
G1 X83.217 Y80.314 E0.00990
G1 X83.189 Y80.000 E0.00990
G1 X83.217 Y79.686 E0.00990
G1 X83.298 Y79.381 E0.00990
G1 X83.432 Y79.095 E0.00990
G1 X83.613 Y78.836 E0.00990
G1 X83.836 Y78.613 E0.00990
G1 X84.095 Y78.432 E0.00990
G1 X84.381 Y78.298 E0.00990
G1 X84.686 Y78.217 E0.00990
G1 X84.988 Y78.190 E0.00951
G1 X85.314 Y78.217 E0.01026
G1 X85.619 Y78.298 E0.00992
G1 X85.905 Y78.432 E0.00990
G1 X86.164 Y78.613 E0.00990
G1 X86.387 Y78.836 E0.00990
G1 X86.568 Y79.095 E0.00990
G1 X86.702 Y79.381 E0.00990
G1 X86.783 Y79.686 E0.00990
G1 X86.811 Y80.000 E0.00990
G1 X86.783 Y80.314 E0.00990
G1 X86.702 Y80.619 E0.00990
G1 X86.568 Y80.905 E0.00990
G1 X86.387 Y81.164 E0.00990
G1 X86.164 Y81.387 E0.00990
G1 X85.905 Y81.568 E0.00990
G1 X85.619 Y81.702 E0.00990
G1 X85.314 Y81.783 E0.00990
G1 X85.060 Y81.806 E0.00802

G1 X84.842 Y82.084 F7200.000
G1 F5760
G1 X84.686 Y81.783 E-0.12984
G1 F5760
G1 X84.381 Y81.702 E-0.10932
G1 F5760
G1 X84.095 Y81.568 E-0.10932
G1 F5760
G1 X83.836 Y81.387 E-0.10932
G1 F5760
G1 X83.613 Y81.164 E-0.10932
G1 F5760
G1 X83.432 Y80.905 E-0.10933
G1 F5760
G1 X83.330 Y80.687 E-0.08354
G1 E-0.04000 F2100.00000
G1 X122.432 Y80.000 F7200.000
G1 E0.80000 F2100.00000
G1 F840
G1 X122.471 Y79.554 E0.01403
G1 X122.587 Y79.122 E0.01403
G1 X122.776 Y78.716 E0.01403
G1 X123.033 Y78.349 E0.01403
G1 X123.349 Y78.033 E0.01403
G1 X123.716 Y77.776 E0.01403
