; generated by Slic3r 1.35.5.16-prusa3d-win64 on 2017-07-18 at 21:39:59

; 

; external perimeters extrusion width = 0.45mm
; perimeters extrusion width = 0.45mm
; infill extrusion width = 0.45mm
; solid infill extrusion width = 0.45mm
; top infill extrusion width = 0.45mm
; first layer extrusion width = 0.42mm

M107
M115 U3.0.9 ; tell printer latest fw version
M83  ; extruder relative mode
M104 S215 ; set extruder temp
M140 S55 ; set bed temp
M190 S55 ; wait for bed temp
M109 S215 ; wait for extruder temp
G28 W ; home all without mesh bed level
G80 ; mesh bed leveling
G1 Y-3.0 F1000.0 ; go outside pritn area
G1 X60.0 E9.0  F1000.0 ; intro line
G1 X100.0 E12.5  F1000.0 ; intro line
; Filament gcode

G21 ; set units to millimeters
G90 ; use absolute coordinates
M83 ; use relative distances for extrusion
M106 S216.75
G1 E-0.80000 F2100.00000
G1 Z0.200 F7200.000
G1 X105.299 Y96.601 F7200.000
G1 E0.80000 F2100.00000
M204 S1000
G1 F2100
G1 X105.766 Y95.874 E0.02708
G1 X115.852 Y85.787 E0.44725
G1 X116.307 Y85.444 E0.01787
G1 X116.831 Y85.219 E0.01787
G1 X117.492 Y85.123 E0.02095
G1 X142.504 Y85.123 E0.78423
G1 X143.353 Y85.281 E0.02708
G1 X144.089 Y85.732 E0.02708
G1 X144.616 Y86.417 E0.02708
G1 X144.863 Y87.244 E0.02708
G1 X144.875 Y99.607 E0.38761
G1 X144.690 Y100.423 E0.02626
G1 X144.234 Y101.126 E0.02626
G1 X121.178 Y124.184 E1.02238
G1 X120.726 Y124.537 E0.01799
G1 X120.166 Y124.782 E0.01917
G1 X119.561 Y124.876 E0.01917
G1 X107.450 Y124.877 E0.37973
G1 X106.605 Y124.702 E0.02708
G1 X105.874 Y124.234 E0.02720
G1 X105.321 Y123.449 E0.03013
G1 X105.123 Y122.509 E0.03013
G1 X105.124 Y97.443 E0.78592
G1 X105.287 Y96.660 E0.02508

G1 F5760
G1 X105.766 Y95.874 E-0.31862
G1 F5760
G1 X106.667 Y94.973 E-0.44138
G1 E-0.04000 F2100.00000
G1 X111.908 Y115.101 F7200.000
G1 E0.80000 F2100.00000
G1 F840
G1 X112.458 Y115.033 E0.01738
G1 X112.824 Y115.053 E0.01148
G1 X113.376 Y115.189 E0.01782
G1 X113.867 Y115.446 E0.01738
G1 X114.156 Y115.670 E0.01148
G1 X114.534 Y116.096 E0.01784
G1 X114.811 Y116.624 E0.01868
G1 X114.946 Y117.174 E0.01776
G1 X114.968 Y117.529 E0.01117
G1 X114.903 Y118.062 E0.01683
G1 X114.797 Y118.402 E0.01117
G1 X114.534 Y118.904 E0.01776
G1 X114.158 Y119.328 E0.01776
G1 X113.878 Y119.547 E0.01117
G1 X113.376 Y119.811 E0.01776
G1 X112.826 Y119.946 E0.01776
G1 X112.471 Y119.968 E0.01117
G1 X111.909 Y119.900 E0.01773
G1 X111.391 Y119.704 E0.01738
G1 X111.076 Y119.516 E0.01148
G1 X110.672 Y119.158 E0.01692
G1 X110.453 Y118.878 E0.01117
G1 X110.189 Y118.376 E0.01776
G1 X110.054 Y117.826 E0.01776
G1 X110.034 Y117.500 E0.01026
G1 X110.054 Y117.174 E0.01026
G1 X110.189 Y116.624 E0.01773
G1 X110.446 Y116.133 E0.01738
G1 X110.670 Y115.844 E0.01148
G1 X111.074 Y115.486 E0.01692
G1 X111.379 Y115.301 E0.01117
G1 X111.852 Y115.122 E0.01585

G1 X111.985 Y115.475 F7200.000
G1 F840
G1 X112.471 Y115.411 E0.01535
G1 X112.768 Y115.428 E0.00932
G1 X113.241 Y115.544 E0.01528
G1 X113.663 Y115.765 E0.01491
G1 X113.898 Y115.947 E0.00932
G1 X114.221 Y116.312 E0.01530
G1 X114.455 Y116.758 E0.01581
G1 X114.572 Y117.230 E0.01525
G1 X114.589 Y117.518 E0.00902
G1 X114.533 Y117.983 E0.01468
G1 X114.447 Y118.257 E0.00902
G1 X114.221 Y118.688 E0.01525
G1 X113.899 Y119.052 E0.01525
G1 X113.672 Y119.230 E0.00902
G1 X113.242 Y119.455 E0.01525
G1 X112.770 Y119.572 E0.01525
G1 X112.482 Y119.589 E0.00902
G1 X112.000 Y119.531 E0.01523
G1 X111.555 Y119.363 E0.01491
G1 X111.300 Y119.210 E0.00932
G1 X110.948 Y118.899 E0.01474
G1 X110.770 Y118.672 E0.00902
G1 X110.545 Y118.242 E0.01525
G1 X110.428 Y117.770 E0.01525
G1 X110.412 Y117.500 E0.00847
G1 X110.428 Y117.230 E0.00847
G1 X110.544 Y116.759 E0.01523
G1 X110.765 Y116.337 E0.01491
G1 X110.947 Y116.102 E0.00932
G1 X111.299 Y115.791 E0.01474
G1 X111.545 Y115.642 E0.00902
G1 X111.929 Y115.496 E0.01289

G1 X112.090 Y115.838 F7200.000
G1 F840
G1 X112.484 Y115.790 E0.01243
G1 X112.712 Y115.802 E0.00716
G1 X113.107 Y115.900 E0.01275
G1 X113.458 Y116.083 E0.01243
G1 X113.639 Y116.223 E0.00716
G1 X113.909 Y116.528 E0.01275
G1 X114.100 Y116.893 E0.01294
G1 X114.198 Y117.287 E0.01274
G1 X114.211 Y117.506 E0.00688
G1 X114.163 Y117.903 E0.01253
G1 X114.097 Y118.113 E0.00688
G1 X113.909 Y118.472 E0.01274
G1 X113.639 Y118.776 E0.01274
G1 X113.467 Y118.912 E0.00688
G1 X113.107 Y119.100 E0.01274
G1 X112.713 Y119.198 E0.01274
G1 X112.494 Y119.211 E0.00688
G1 X112.091 Y119.162 E0.01273
G1 X111.720 Y119.022 E0.01243
G1 X111.523 Y118.905 E0.00716
G1 X111.224 Y118.639 E0.01255
G1 X111.088 Y118.467 E0.00688
G1 X110.900 Y118.107 E0.01274
G1 X110.802 Y117.713 E0.01274
G1 X110.790 Y117.500 E0.00668
G1 X110.802 Y117.287 E0.00668
G1 X110.900 Y116.893 E0.01273
G1 X111.083 Y116.542 E0.01243
G1 X111.223 Y116.361 E0.00716
G1 X111.523 Y116.096 E0.01255
G1 X111.711 Y115.982 E0.00688
G1 X112.034 Y115.860 E0.01085

G1 X112.207 Y115.459 F7200.000
G1 F5760
G1 X112.484 Y115.790 E-0.15761
G1 F5760
G1 X112.712 Y115.802 E-0.07913
G1 F5760
G1 X113.107 Y115.900 E-0.14084
G1 F5760
G1 X113.458 Y116.083 E-0.13734
G1 F5760
G1 X113.639 Y116.223 E-0.07913
G1 F5760
G1 X113.909 Y116.528 E-0.14090
G1 F5760
G1 X113.942 Y116.592 E-0.02506
G1 E-0.04000 F2100.00000
G1 X111.909 Y109.900 F7200.000
G1 E0.80000 F2100.00000
G1 F840
G1 X111.391 Y109.704 E0.01738
G1 X111.076 Y109.516 E0.01148
G1 X110.650 Y109.139 E0.01784
G1 X110.329 Y108.673 E0.01776
G1 X110.182 Y108.348 E0.01117
G1 X110.054 Y107.826 E0.01683
G1 X110.034 Y107.500 E0.01026
G1 X110.054 Y107.174 E0.01026
G1 X110.189 Y106.624 E0.01773
G1 X110.446 Y106.133 E0.01738
G1 X110.670 Y105.844 E0.01148
G1 X111.074 Y105.486 E0.01692
G1 X111.379 Y105.301 E0.01117
G1 X111.908 Y105.101 E0.01773
G1 X112.458 Y105.033 E0.01738
G1 X112.824 Y105.053 E0.01148
G1 X113.376 Y105.189 E0.01782
G1 X113.867 Y105.446 E0.01738
G1 X114.156 Y105.670 E0.01148
G1 X114.534 Y106.096 E0.01784
G1 X114.811 Y106.624 E0.01868
G1 X114.946 Y107.174 E0.01776
G1 X114.968 Y107.529 E0.01117
G1 X114.903 Y108.062 E0.01683
G1 X114.797 Y108.402 E0.01117
G1 X114.534 Y108.904 E0.01776
G1 X114.158 Y109.328 E0.01776
G1 X113.878 Y109.547 E0.01117
G1 X113.376 Y109.811 E0.01776
G1 X112.826 Y109.946 E0.01776
G1 X112.471 Y109.968 E0.01117
G1 X111.969 Y109.907 E0.01585

G1 X112.014 Y109.532 F7200.000
G1 F840
G1 X111.555 Y109.363 E0.01535
G1 X111.300 Y109.210 E0.00932
G1 X110.935 Y108.887 E0.01530
G1 X110.658 Y108.487 E0.01525
G1 X110.540 Y108.224 E0.00902
G1 X110.428 Y107.770 E0.01468
G1 X110.412 Y107.500 E0.00847
G1 X110.428 Y107.230 E0.00847
G1 X110.544 Y106.759 E0.01523
G1 X110.765 Y106.337 E0.01491
G1 X110.947 Y106.102 E0.00932
G1 X111.299 Y105.791 E0.01474
G1 X111.545 Y105.642 E0.00902
G1 X111.999 Y105.470 E0.01523
G1 X112.471 Y105.411 E0.01491
G1 X112.768 Y105.428 E0.00932
G1 X113.241 Y105.544 E0.01528
G1 X113.663 Y105.765 E0.01491
G1 X113.898 Y105.947 E0.00932
G1 X114.221 Y106.312 E0.01530
G1 X114.455 Y106.758 E0.01581
G1 X114.572 Y107.230 E0.01525
G1 X114.589 Y107.518 E0.00902
G1 X114.533 Y107.983 E0.01468
G1 X114.447 Y108.257 E0.00902
G1 X114.221 Y108.688 E0.01525
G1 X113.899 Y109.052 E0.01525
G1 X113.672 Y109.230 E0.00902
G1 X113.242 Y109.455 E0.01525
G1 X112.770 Y109.572 E0.01525
G1 X112.482 Y109.589 E0.00902
G1 X112.074 Y109.540 E0.01290

G1 X112.091 Y109.162 F7200.000
G1 F840
G1 X111.720 Y109.022 E0.01243
G1 X111.523 Y108.905 E0.00716
G1 X111.219 Y108.635 E0.01275
G1 X110.988 Y108.301 E0.01274
G1 X110.898 Y108.101 E0.00688
G1 X110.802 Y107.713 E0.01253
G1 X110.790 Y107.500 E0.00668
G1 X110.802 Y107.287 E0.00668
G1 X110.900 Y106.893 E0.01273
G1 X111.083 Y106.542 E0.01243
G1 X111.223 Y106.361 E0.00716
G1 X111.523 Y106.096 E0.01255
G1 X111.711 Y105.982 E0.00688
G1 X112.090 Y105.838 E0.01273
G1 X112.484 Y105.790 E0.01243
G1 X112.712 Y105.802 E0.00716
G1 X113.107 Y105.900 E0.01275
G1 X113.458 Y106.083 E0.01243
G1 X113.639 Y106.223 E0.00716
G1 X113.909 Y106.528 E0.01275
G1 X114.100 Y106.893 E0.01294
G1 X114.198 Y107.287 E0.01274
G1 X114.211 Y107.506 E0.00688
G1 X114.163 Y107.903 E0.01253
G1 X114.097 Y108.113 E0.00688
G1 X113.909 Y108.472 E0.01274
G1 X113.639 Y108.776 E0.01274
G1 X113.467 Y108.912 E0.00688
G1 X113.107 Y109.100 E0.01274
G1 X112.713 Y109.198 E0.01274
G1 X112.494 Y109.211 E0.00688
G1 X112.150 Y109.169 E0.01085

G1 X111.811 Y109.443 F7200.000
G1 F5760
G1 X111.720 Y109.022 E-0.15761
G1 F5760
G1 X111.523 Y108.905 E-0.07913
G1 F5760
G1 X111.219 Y108.635 E-0.14090
G1 F5760
G1 X110.988 Y108.301 E-0.14069
G1 F5760
G1 X110.898 Y108.101 E-0.07596
G1 F5760
G1 X110.802 Y107.713 E-0.13846
G1 F5760
G1 X110.798 Y107.634 E-0.02726
G1 E-0.04000 F2100.00000
G1 X125.054 Y107.826 F7200.000
G1 E0.80000 F2100.00000
G1 F840
G1 X125.032 Y107.471 E0.01117
G1 X125.097 Y106.938 E0.01683
G1 X125.203 Y106.598 E0.01115
G1 X125.446 Y106.133 E0.01646
G1 X125.670 Y105.844 E0.01148
G1 X126.074 Y105.486 E0.01692
G1 X126.379 Y105.301 E0.01117
G1 X126.908 Y105.101 E0.01773
G1 X127.458 Y105.033 E0.01738
G1 X127.824 Y105.053 E0.01148
G1 X128.376 Y105.189 E0.01782
G1 X128.867 Y105.446 E0.01738
G1 X129.156 Y105.670 E0.01148
G1 X129.534 Y106.096 E0.01784
G1 X129.810 Y106.623 E0.01866
G1 X129.944 Y107.161 E0.01738
G1 X129.968 Y107.526 E0.01148
G1 X129.903 Y108.062 E0.01692
G1 X129.797 Y108.402 E0.01117
G1 X129.534 Y108.904 E0.01776
G1 X129.158 Y109.328 E0.01776
G1 X128.878 Y109.547 E0.01117
G1 X128.377 Y109.810 E0.01773
G1 X127.839 Y109.944 E0.01738
G1 X127.474 Y109.968 E0.01148
G1 X126.909 Y109.900 E0.01782
G1 X126.391 Y109.704 E0.01738
G1 X126.076 Y109.516 E0.01148
G1 X125.650 Y109.139 E0.01784
G1 X125.329 Y108.673 E0.01776
G1 X125.182 Y108.348 E0.01117
G1 X125.068 Y107.885 E0.01495

G1 X125.434 Y107.794 F7200.000
G1 F840
G1 X125.411 Y107.482 E0.00982
G1 X125.467 Y107.017 E0.01468
G1 X125.553 Y106.743 E0.00901
G1 X125.765 Y106.337 E0.01435
G1 X125.947 Y106.102 E0.00932
G1 X126.299 Y105.791 E0.01474
G1 X126.545 Y105.642 E0.00902
G1 X126.999 Y105.470 E0.01523
G1 X127.471 Y105.411 E0.01491
G1 X127.768 Y105.428 E0.00932
G1 X128.241 Y105.544 E0.01528
G1 X128.663 Y105.765 E0.01491
G1 X128.898 Y105.947 E0.00932
G1 X129.221 Y106.312 E0.01530
G1 X129.455 Y106.758 E0.01579
G1 X129.570 Y107.219 E0.01491
G1 X129.589 Y107.516 E0.00932
G1 X129.533 Y107.983 E0.01474
G1 X129.447 Y108.257 E0.00902
G1 X129.221 Y108.688 E0.01525
G1 X128.899 Y109.052 E0.01525
G1 X128.672 Y109.230 E0.00902
G1 X128.242 Y109.455 E0.01523
G1 X127.781 Y109.570 E0.01491
G1 X127.484 Y109.589 E0.00932
G1 X127.000 Y109.531 E0.01528
G1 X126.555 Y109.363 E0.01491
G1 X126.300 Y109.210 E0.00932
G1 X125.935 Y108.887 E0.01530
G1 X125.658 Y108.487 E0.01525
G1 X125.540 Y108.224 E0.00902
G1 X125.449 Y107.853 E0.01200

G1 X125.802 Y107.713 F7200.000
G1 F840
G1 X125.789 Y107.494 E0.00688
G1 X125.837 Y107.097 E0.01253
G1 X125.903 Y106.888 E0.00687
G1 X126.083 Y106.542 E0.01223
G1 X126.223 Y106.361 E0.00716
G1 X126.523 Y106.096 E0.01255
G1 X126.711 Y105.982 E0.00688
G1 X127.090 Y105.838 E0.01273
G1 X127.484 Y105.790 E0.01243
G1 X127.712 Y105.802 E0.00716
G1 X128.107 Y105.900 E0.01275
G1 X128.458 Y106.083 E0.01243
G1 X128.639 Y106.223 E0.00716
G1 X128.909 Y106.528 E0.01275
G1 X129.100 Y106.893 E0.01293
G1 X129.196 Y107.278 E0.01243
G1 X129.211 Y107.506 E0.00716
G1 X129.163 Y107.903 E0.01255
G1 X129.097 Y108.113 E0.00688
G1 X128.909 Y108.472 E0.01274
G1 X128.639 Y108.776 E0.01274
G1 X128.467 Y108.912 E0.00688
G1 X128.107 Y109.100 E0.01273
G1 X127.722 Y109.196 E0.01243
G1 X127.494 Y109.211 E0.00716
G1 X127.091 Y109.162 E0.01275
G1 X126.720 Y109.022 E0.01243
G1 X126.523 Y108.905 E0.00716
G1 X126.219 Y108.635 E0.01275
G1 X125.988 Y108.301 E0.01274
G1 X125.898 Y108.101 E0.00688
G1 X125.817 Y107.771 E0.01065

G1 X125.599 Y107.631 F7200.000
G1 F5760
G1 X125.789 Y107.494 E-0.09647
G1 F5760
G1 X125.837 Y107.097 E-0.13846
G1 F5760
G1 X125.903 Y106.888 E-0.07590
G1 F5760
G1 X126.083 Y106.542 E-0.13512
G1 F5760
G1 X126.223 Y106.361 E-0.07913
G1 F5760
G1 X126.523 Y106.096 E-0.13868
G1 F5760
G1 X126.711 Y105.982 E-0.07596
G1 F5760
G1 X126.765 Y105.961 E-0.02029
G1 E-0.04000 F2100.00000
G1 X126.909 Y94.899 F7200.000
G1 E0.80000 F2100.00000
G1 F840
G1 X126.352 Y94.688 E0.01868
G1 X125.886 Y94.366 E0.01776
G1 X125.634 Y94.114 E0.01117
G1 X125.329 Y93.673 E0.01683
G1 X125.182 Y93.348 E0.01117
G1 X125.054 Y92.826 E0.01683
G1 X125.032 Y92.471 E0.01117
G1 X125.097 Y91.938 E0.01683
G1 X125.194 Y91.626 E0.01026
G1 X125.329 Y91.327 E0.01025
G1 X125.650 Y90.861 E0.01776
G1 X126.074 Y90.486 E0.01776
G1 X126.379 Y90.301 E0.01117
G1 X126.908 Y90.101 E0.01773
G1 X127.458 Y90.033 E0.01738
G1 X127.824 Y90.053 E0.01148
G1 X128.376 Y90.189 E0.01784
G1 X128.878 Y90.453 E0.01776
G1 X129.158 Y90.672 E0.01117
G1 X129.534 Y91.096 E0.01776
G1 X129.810 Y91.623 E0.01866
G1 X129.944 Y92.161 E0.01738
G1 X129.968 Y92.526 E0.01148
G1 X129.903 Y93.062 E0.01692
G1 X129.797 Y93.402 E0.01117
G1 X129.534 Y93.904 E0.01776
G1 X129.139 Y94.350 E0.01868
G1 X128.673 Y94.671 E0.01776
G1 X128.348 Y94.817 E0.01115
G1 X127.839 Y94.944 E0.01646
G1 X127.474 Y94.968 E0.01148
G1 X126.968 Y94.907 E0.01596

G1 X127.014 Y94.532 F7200.000
G1 F840
G1 X126.528 Y94.352 E0.01624
G1 X126.128 Y94.076 E0.01525
G1 X125.924 Y93.872 E0.00902
G1 X125.658 Y93.487 E0.01468
G1 X125.540 Y93.224 E0.00902
G1 X125.428 Y92.770 E0.01468
G1 X125.411 Y92.482 E0.00902
G1 X125.467 Y92.017 E0.01468
G1 X125.548 Y91.760 E0.00847
G1 X125.658 Y91.513 E0.00847
G1 X125.935 Y91.113 E0.01525
G1 X126.299 Y90.791 E0.01525
G1 X126.545 Y90.642 E0.00902
G1 X126.999 Y90.470 E0.01523
G1 X127.471 Y90.411 E0.01491
G1 X127.768 Y90.428 E0.00932
G1 X128.242 Y90.545 E0.01530
G1 X128.672 Y90.770 E0.01525
G1 X128.899 Y90.948 E0.00902
G1 X129.221 Y91.312 E0.01525
G1 X129.455 Y91.758 E0.01579
G1 X129.570 Y92.219 E0.01491
G1 X129.589 Y92.516 E0.00932
G1 X129.533 Y92.983 E0.01474
G1 X129.447 Y93.257 E0.00902
G1 X129.221 Y93.688 E0.01525
G1 X128.887 Y94.065 E0.01581
G1 X128.487 Y94.342 E0.01525
G1 X128.225 Y94.460 E0.00901
G1 X127.781 Y94.570 E0.01435
G1 X127.484 Y94.589 E0.00932
G1 X127.073 Y94.540 E0.01297

G1 X127.090 Y94.162 F7200.000
G1 F840
G1 X126.705 Y94.015 E0.01294
G1 X126.370 Y93.785 E0.01274
G1 X126.215 Y93.630 E0.00688
G1 X125.988 Y93.301 E0.01253
G1 X125.898 Y93.101 E0.00688
G1 X125.802 Y92.713 E0.01253
G1 X125.789 Y92.494 E0.00688
G1 X125.837 Y92.097 E0.01253
G1 X125.901 Y91.893 E0.00668
G1 X125.988 Y91.699 E0.00668
G1 X126.219 Y91.365 E0.01274
G1 X126.523 Y91.096 E0.01274
G1 X126.711 Y90.982 E0.00688
G1 X127.090 Y90.838 E0.01273
G1 X127.484 Y90.790 E0.01243
G1 X127.712 Y90.802 E0.00716
G1 X128.107 Y90.900 E0.01275
G1 X128.467 Y91.088 E0.01274
G1 X128.639 Y91.224 E0.00688
G1 X128.909 Y91.528 E0.01274
G1 X129.100 Y91.893 E0.01293
G1 X129.196 Y92.278 E0.01243
G1 X129.211 Y92.506 E0.00716
G1 X129.163 Y92.903 E0.01255
G1 X129.097 Y93.113 E0.00688
G1 X128.909 Y93.472 E0.01274
G1 X128.635 Y93.781 E0.01294
G1 X128.301 Y94.012 E0.01274
G1 X128.101 Y94.102 E0.00687
G1 X127.722 Y94.196 E0.01223
G1 X127.494 Y94.211 E0.00716
G1 X127.150 Y94.169 E0.01087

G1 X126.808 Y94.445 F7200.000
G1 F5760
G1 X126.705 Y94.015 E-0.16316
G1 F5760
G1 X126.370 Y93.785 E-0.14069
G1 F5760
G1 X126.215 Y93.630 E-0.07596
G1 F5760
G1 X125.988 Y93.301 E-0.13846
G1 F5760
G1 X125.898 Y93.101 E-0.07596
G1 F5760
G1 X125.802 Y92.713 E-0.13846
G1 F5760
G1 X125.798 Y92.634 E-0.02731
G1 E-0.04000 F2100.00000
G1 X135.054 Y92.826 F7200.000
G1 E0.80000 F2100.00000
G1 F840
G1 X135.032 Y92.471 E0.01117
G1 X135.097 Y91.938 E0.01683
G1 X135.203 Y91.598 E0.01117
G1 X135.453 Y91.122 E0.01683
G1 X135.672 Y90.842 E0.01117
G1 X136.074 Y90.486 E0.01683
G1 X136.379 Y90.301 E0.01117
G1 X136.908 Y90.101 E0.01773
G1 X137.458 Y90.033 E0.01738
G1 X137.824 Y90.053 E0.01148
G1 X138.376 Y90.189 E0.01784
G1 X138.878 Y90.453 E0.01776
G1 X139.158 Y90.672 E0.01117
G1 X139.534 Y91.096 E0.01776
G1 X139.810 Y91.623 E0.01866
G1 X139.944 Y92.161 E0.01738
G1 X139.968 Y92.526 E0.01148
G1 X139.903 Y93.062 E0.01692
G1 X139.797 Y93.402 E0.01117
G1 X139.534 Y93.904 E0.01776
G1 X139.139 Y94.350 E0.01868
G1 X138.673 Y94.671 E0.01776
G1 X138.348 Y94.817 E0.01115
G1 X137.839 Y94.944 E0.01646
G1 X137.474 Y94.968 E0.01146
G1 X136.950 Y94.905 E0.01655
G1 X136.600 Y94.798 E0.01148
