; generated by Slic3r 1.35.5.16-prusa3d-win64 on 2017-07-20 at 07:07:26

; 

; external perimeters extrusion width = 0.45mm
; perimeters extrusion width = 0.45mm
; infill extrusion width = 0.45mm
; solid infill extrusion width = 0.45mm
; top infill extrusion width = 0.45mm
; first layer extrusion width = 0.42mm

M107
M115 U3.0.9 ; tell printer latest fw version
M83  ; extruder relative mode
M104 S215 ; set extruder temp
M140 S55 ; set bed temp
M190 S55 ; wait for bed temp
M109 S215 ; wait for extruder temp
G28 W ; home all without mesh bed level
G80 ; mesh bed leveling
G1 Y-3.0 F1000.0 ; go outside pritn area
G1 X60.0 E9.0  F1000.0 ; intro line
G1 X100.0 E12.5  F1000.0 ; intro line
; Filament gcode

G21 ; set units to millimeters
G90 ; use absolute coordinates
M83 ; use relative distances for extrusion
M106 S216.75
G1 E-0.80000 F2100.00000
G1 Z0.200 F7200.000
G1 X93.287 Y73.352 F7200.000
G1 E0.80000 F2100.00000
M204 S1000
G1 F2100
G1 X94.055 Y72.819 E0.02931
G1 X94.972 Y72.623 E0.02942
G1 X155.004 Y72.623 E1.88225
G1 X155.895 Y72.798 E0.02849
G1 X156.659 Y73.297 E0.02860
G1 X157.178 Y74.048 E0.02860
G1 X157.376 Y74.938 E0.02860
G1 X157.377 Y135.027 E1.88404
G1 X157.201 Y135.899 E0.02790
G1 X156.713 Y136.648 E0.02802
G1 X155.935 Y137.185 E0.02966
G1 X155.005 Y137.377 E0.02977
G1 X94.973 Y137.377 E1.88225
G1 X94.101 Y137.201 E0.02790
G1 X93.352 Y136.713 E0.02802
G1 X92.815 Y135.935 E0.02966
G1 X92.623 Y135.005 E0.02977
G1 X92.623 Y74.973 E1.88225
G1 X92.799 Y74.101 E0.02790
G1 X93.254 Y73.402 E0.02614

G1 F5760
G1 X94.055 Y72.819 E-0.34307
G1 F5760
G1 X94.972 Y72.623 E-0.32503
G1 F5760
G1 X95.238 Y72.623 E-0.09190
G1 E-0.04000 F2100.00000
G1 X122.036 Y121.036 F7200.000
G1 E0.80000 F2100.00000
G1 F840
G1 X127.964 Y121.036 E0.18588
G1 X127.964 Y129.964 E0.27994
G1 X122.036 Y129.964 E0.18588
G1 X122.036 Y121.096 E0.27806

G1 X122.413 Y121.413 F7200.000
G1 F840
G1 X127.587 Y121.413 E0.16223
G1 X127.587 Y129.587 E0.25629
G1 X122.413 Y129.587 E0.16223
G1 X122.413 Y121.473 E0.25441

G1 X122.790 Y121.790 F7200.000
G1 F840
G1 X127.210 Y121.790 E0.13859
G1 X127.210 Y129.210 E0.23265
G1 X122.790 Y129.210 E0.13859
G1 X122.790 Y121.850 E0.23077

G1 X122.719 Y121.396 F7200.000
G1 F5760
G1 X124.984 Y121.820 E-0.76000
G1 E-0.04000 F2100.00000
G1 X123.358 Y117.854 F7200.000
G1 E0.80000 F2100.00000
G1 F1680
G1 X122.732 Y117.765 E0.01982
G1 X122.275 Y117.675 E0.01461
G1 X121.821 Y117.569 E0.01461
G1 X120.971 Y117.323 E0.02774
G1 X120.092 Y117.000 E0.02936
G1 X119.257 Y116.624 E0.02871
G1 X118.459 Y116.194 E0.02843
G1 X118.054 Y115.947 E0.01488
G1 X117.313 Y115.439 E0.02816
G1 X116.936 Y115.151 E0.01488
G1 X116.252 Y114.568 E0.02816
G1 X115.587 Y113.915 E0.02922
G1 X114.993 Y113.242 E0.02816
G1 X114.698 Y112.871 E0.01487
G1 X114.185 Y112.150 E0.02774
G1 X113.697 Y111.351 E0.02936
G1 X113.291 Y110.564 E0.02776
G1 X112.913 Y109.688 E0.02992
G1 X112.614 Y108.832 E0.02843
G1 X112.375 Y107.949 E0.02869
G1 X112.204 Y107.081 E0.02774
G1 X112.133 Y106.590 E0.01555
G1 X112.054 Y105.695 E0.02818
G1 X112.037 Y105.221 E0.01487
G1 X112.052 Y104.345 E0.02747
G1 X112.087 Y103.850 E0.01555
G1 X112.198 Y102.949 E0.02845
G1 X112.373 Y102.060 E0.02842
G1 X112.487 Y101.608 E0.01461
G1 X112.617 Y101.160 E0.01461
G1 X112.916 Y100.304 E0.02843
G1 X113.274 Y99.471 E0.02843
G1 X113.480 Y99.053 E0.01461
G1 X113.701 Y98.643 E0.01461
G1 X114.161 Y97.887 E0.02774
G1 X114.697 Y97.130 E0.02909
G1 X114.993 Y96.758 E0.01490
G1 X115.593 Y96.078 E0.02843
G1 X116.240 Y95.443 E0.02843
G1 X116.595 Y95.129 E0.01488
G1 X117.299 Y94.571 E0.02816
G1 X118.068 Y94.044 E0.02922
G1 X118.851 Y93.586 E0.02843
G1 X119.671 Y93.181 E0.02869
G1 X120.510 Y92.838 E0.02842
G1 X120.958 Y92.682 E0.01488
G1 X121.821 Y92.431 E0.02816
G1 X122.283 Y92.323 E0.01487
G1 X123.145 Y92.169 E0.02747
G1 X124.094 Y92.067 E0.02991
G1 X124.978 Y92.036 E0.02774
G1 X125.914 Y92.067 E0.02936
G1 X126.816 Y92.163 E0.02844
G1 X127.285 Y92.238 E0.01488
G1 X128.163 Y92.427 E0.02816
G1 X129.058 Y92.687 E0.02922
G1 X129.901 Y92.997 E0.02816
G1 X130.337 Y93.185 E0.01488
G1 X131.149 Y93.586 E0.02843
G1 X131.939 Y94.049 E0.02869
G1 X132.687 Y94.561 E0.02843
G1 X133.064 Y94.849 E0.01488
G1 X133.748 Y95.432 E0.02816
G1 X134.092 Y95.758 E0.01488
G1 X134.710 Y96.410 E0.02816
G1 X135.018 Y96.771 E0.01488
G1 X135.564 Y97.484 E0.02816
G1 X135.832 Y97.876 E0.01488
G1 X136.303 Y98.650 E0.02842
G1 X136.709 Y99.436 E0.02774
G1 X136.914 Y99.887 E0.01555
G1 X137.232 Y100.705 E0.02749
G1 X137.515 Y101.616 E0.02992
G1 X137.721 Y102.499 E0.02843
G1 X137.866 Y103.402 E0.02869
G1 X137.944 Y104.283 E0.02774
G1 X137.962 Y105.237 E0.02992
G1 X137.914 Y106.143 E0.02842
G1 X137.803 Y107.042 E0.02842
G1 X137.719 Y107.510 E0.01488
G1 X137.513 Y108.392 E0.02842
G1 X137.245 Y109.258 E0.02843
G1 X136.908 Y110.127 E0.02922
G1 X136.524 Y110.939 E0.02816
G1 X136.299 Y111.357 E0.01487
G1 X135.839 Y112.113 E0.02774
G1 X135.298 Y112.877 E0.02936
G1 X134.736 Y113.561 E0.02776
G1 X134.402 Y113.927 E0.01555
G1 X133.776 Y114.542 E0.02749
G1 X133.051 Y115.162 E0.02992
G1 X132.321 Y115.700 E0.02842
G1 X131.574 Y116.173 E0.02774
G1 X130.735 Y116.627 E0.02992
G1 X129.909 Y117.000 E0.02842
G1 X129.079 Y117.306 E0.02774
G1 X128.613 Y117.451 E0.01529
G1 X128.163 Y117.573 E0.01463
G1 X127.298 Y117.759 E0.02774
G1 X126.379 Y117.891 E0.02909
G1 X125.906 Y117.933 E0.01490
G1 X125.000 Y117.965 E0.02843
G1 X124.094 Y117.933 E0.02843
G1 X123.417 Y117.862 E0.02133

G1 X123.471 Y117.489 F7200.000
G1 F1680
G1 X122.795 Y117.393 E0.02139
G1 X122.354 Y117.306 E0.01409
G1 X121.916 Y117.204 E0.01409
G1 X121.089 Y116.964 E0.02702
G1 X120.235 Y116.651 E0.02852
G1 X119.424 Y116.285 E0.02787
G1 X118.647 Y115.866 E0.02769
G1 X118.259 Y115.630 E0.01426
G1 X117.534 Y115.134 E0.02753
G1 X117.173 Y114.858 E0.01426
G1 X116.505 Y114.288 E0.02753
G1 X115.863 Y113.658 E0.02818
G1 X115.282 Y113.000 E0.02753
G1 X115.000 Y112.644 E0.01425
G1 X114.500 Y111.942 E0.02702
G1 X114.026 Y111.165 E0.02852
G1 X113.630 Y110.400 E0.02703
G1 X113.266 Y109.554 E0.02886
G1 X112.975 Y108.720 E0.02769
G1 X112.742 Y107.863 E0.02785
G1 X112.576 Y107.018 E0.02702
G1 X112.508 Y106.546 E0.01492
G1 X112.431 Y105.671 E0.02755
G1 X112.415 Y105.217 E0.01425
G1 X112.429 Y104.361 E0.02685
G1 X112.462 Y103.886 E0.01492
G1 X112.571 Y103.009 E0.02771
G1 X112.741 Y102.142 E0.02769
G1 X112.851 Y101.706 E0.01409
G1 X112.977 Y101.275 E0.01409
G1 X113.267 Y100.441 E0.02769
G1 X113.616 Y99.629 E0.02769
G1 X113.815 Y99.226 E0.01409
G1 X114.028 Y98.831 E0.01409
G1 X114.476 Y98.095 E0.02702
G1 X114.999 Y97.356 E0.02836
G1 X115.282 Y97.000 E0.01427
G1 X115.867 Y96.338 E0.02769
G1 X116.497 Y95.719 E0.02769
G1 X116.838 Y95.418 E0.01426
G1 X117.526 Y94.872 E0.02753
G1 X118.267 Y94.365 E0.02818
G1 X119.030 Y93.919 E0.02769
G1 X119.826 Y93.525 E0.02786
G1 X120.644 Y93.191 E0.02769
G1 X121.073 Y93.041 E0.01426
G1 X121.916 Y92.796 E0.02753
G1 X122.359 Y92.693 E0.01425
G1 X123.202 Y92.542 E0.02685
G1 X124.117 Y92.444 E0.02886
G1 X124.978 Y92.413 E0.02702
G1 X125.888 Y92.444 E0.02852
G1 X126.766 Y92.537 E0.02771
G1 X127.215 Y92.609 E0.01426
G1 X128.074 Y92.794 E0.02753
G1 X128.937 Y93.044 E0.02818
G1 X129.761 Y93.348 E0.02753
G1 X130.178 Y93.527 E0.01426
G1 X130.970 Y93.919 E0.02769
G1 X131.737 Y94.367 E0.02786
G1 X132.466 Y94.866 E0.02769
G1 X132.827 Y95.142 E0.01426
G1 X133.495 Y95.712 E0.02753
G1 X133.825 Y96.025 E0.01426
G1 X134.430 Y96.662 E0.02753
G1 X134.725 Y97.008 E0.01426
G1 X135.258 Y97.705 E0.02753
G1 X135.515 Y98.081 E0.01426
G1 X135.974 Y98.835 E0.02769
G1 X136.370 Y99.600 E0.02702
G1 X136.566 Y100.034 E0.01492
G1 X136.877 Y100.832 E0.02687
G1 X137.150 Y101.711 E0.02886
G1 X137.351 Y102.572 E0.02769
G1 X137.491 Y103.449 E0.02785
G1 X137.568 Y104.307 E0.02701
G1 X137.585 Y105.227 E0.02886
G1 X137.538 Y106.109 E0.02769
G1 X137.430 Y106.986 E0.02769
G1 X137.350 Y107.433 E0.01426
G1 X137.149 Y108.294 E0.02769
G1 X136.888 Y109.137 E0.02769
G1 X136.562 Y109.975 E0.02818
G1 X136.187 Y110.769 E0.02753
G1 X135.972 Y111.169 E0.01425
G1 X135.524 Y111.905 E0.02702
G1 X134.998 Y112.648 E0.02852
G1 X134.451 Y113.314 E0.02703
G1 X134.130 Y113.665 E0.01492
G1 X133.519 Y114.266 E0.02687
G1 X132.819 Y114.864 E0.02886
G1 X132.108 Y115.388 E0.02769
G1 X131.381 Y115.850 E0.02702
G1 X130.571 Y116.287 E0.02886
G1 X129.766 Y116.650 E0.02769
G1 X128.957 Y116.949 E0.02701
G1 X128.508 Y117.088 E0.01476
G1 X128.074 Y117.206 E0.01410
G1 X127.231 Y117.388 E0.02702
G1 X126.336 Y117.516 E0.02836
G1 X125.883 Y117.556 E0.01427
G1 X125.000 Y117.587 E0.02769
G1 X124.117 Y117.556 E0.02769
G1 X123.530 Y117.497 E0.01851

G1 X123.583 Y117.124 F7200.000
G1 F1050
G1 X122.858 Y117.021 E0.02296
G1 X122.433 Y116.937 E0.01357
G1 X122.012 Y116.839 E0.01357
G1 X121.206 Y116.605 E0.02630
G1 X120.377 Y116.301 E0.02769
G1 X119.592 Y115.947 E0.02703
G1 X118.834 Y115.539 E0.02696
G1 X118.463 Y115.313 E0.01363
G1 X117.755 Y114.828 E0.02691
G1 X117.410 Y114.564 E0.01363
G1 X116.757 Y114.007 E0.02691
G1 X116.139 Y113.401 E0.02714
G1 X115.571 Y112.758 E0.02691
G1 X115.301 Y112.417 E0.01363
G1 X114.815 Y111.734 E0.02630
G1 X114.355 Y110.980 E0.02769
G1 X113.970 Y110.235 E0.02630
G1 X113.618 Y109.421 E0.02781
G1 X113.335 Y108.609 E0.02696
G1 X113.110 Y107.777 E0.02702
G1 X112.948 Y106.954 E0.02629
G1 X112.883 Y106.503 E0.01429
G1 X112.807 Y105.648 E0.02691
G1 X112.792 Y105.214 E0.01363
G1 X112.806 Y104.377 E0.02624
G1 X112.838 Y103.922 E0.01429
G1 X112.944 Y103.069 E0.02697
G1 X113.109 Y102.225 E0.02696
G1 X113.215 Y101.805 E0.01357
G1 X113.336 Y101.389 E0.01357
G1 X113.619 Y100.577 E0.02696
G1 X113.959 Y99.787 E0.02696
G1 X114.150 Y99.399 E0.01357
G1 X114.356 Y99.018 E0.01357
G1 X114.792 Y98.302 E0.02630
G1 X115.301 Y97.583 E0.02763
G1 X115.571 Y97.242 E0.01363
G1 X116.141 Y96.598 E0.02696
G1 X116.754 Y95.995 E0.02696
G1 X117.080 Y95.707 E0.01363
G1 X117.752 Y95.174 E0.02691
G1 X118.466 Y94.685 E0.02714
G1 X119.209 Y94.251 E0.02696
G1 X119.981 Y93.869 E0.02702
G1 X120.777 Y93.543 E0.02696
G1 X121.188 Y93.400 E0.01363
G1 X122.012 Y93.161 E0.02691
G1 X122.435 Y93.062 E0.01363
G1 X123.259 Y92.915 E0.02624
G1 X124.141 Y92.820 E0.02781
G1 X124.979 Y92.790 E0.02630
G1 X125.861 Y92.820 E0.02769
G1 X126.716 Y92.911 E0.02697
G1 X127.146 Y92.980 E0.01363
G1 X127.985 Y93.160 E0.02691
G1 X128.816 Y93.402 E0.02714
G1 X129.621 Y93.698 E0.02691
G1 X130.020 Y93.870 E0.01363
G1 X130.791 Y94.251 E0.02696
G1 X131.535 Y94.686 E0.02702
G1 X132.245 Y95.172 E0.02696
G1 X132.590 Y95.436 E0.01363
G1 X133.243 Y95.992 E0.02691
G1 X133.559 Y96.292 E0.01363
G1 X134.149 Y96.914 E0.02691
G1 X134.431 Y97.245 E0.01363
G1 X134.953 Y97.927 E0.02691
G1 X135.198 Y98.285 E0.01363
G1 X135.645 Y99.020 E0.02696
G1 X136.030 Y99.765 E0.02629
G1 X136.218 Y100.180 E0.01429
G1 X136.522 Y100.960 E0.02624
G1 X136.785 Y101.807 E0.02781
G1 X136.981 Y102.644 E0.02696
G1 X137.117 Y103.495 E0.02702
G1 X137.191 Y104.331 E0.02629
G1 X137.208 Y105.217 E0.02781
G1 X137.163 Y106.076 E0.02696
G1 X137.057 Y106.930 E0.02696
G1 X136.980 Y107.357 E0.01363
G1 X136.785 Y108.195 E0.02696
G1 X136.531 Y109.016 E0.02696
G1 X136.217 Y109.823 E0.02714
G1 X135.851 Y110.599 E0.02691
G1 X135.644 Y110.982 E0.01363
G1 X135.208 Y111.698 E0.02630
G1 X134.698 Y112.419 E0.02769
G1 X134.165 Y113.067 E0.02630
G1 X133.858 Y113.403 E0.01429
G1 X133.261 Y113.990 E0.02624
G1 X132.587 Y114.567 E0.02781
G1 X131.895 Y115.077 E0.02696
G1 X131.187 Y115.526 E0.02629
G1 X130.407 Y115.948 E0.02781
G1 X129.623 Y116.301 E0.02696
G1 X128.836 Y116.591 E0.02629
G1 X128.403 Y116.726 E0.01424
G1 X127.985 Y116.840 E0.01358
G1 X127.165 Y117.016 E0.02630
G1 X126.293 Y117.141 E0.02763
G1 X125.859 Y117.180 E0.01363
G1 X125.000 Y117.210 E0.02696
G1 X124.141 Y117.180 E0.02696
G1 X123.642 Y117.132 E0.01569

G1 X123.345 Y117.445 F7200.000
G1 F5760
G1 X122.858 Y117.021 E-0.27441
G1 F5760
G1 X122.433 Y116.937 E-0.14991
G1 F5760
G1 X122.012 Y116.839 E-0.14990
G1 F5760
G1 X121.497 Y116.690 E-0.18578
G1 E-0.04000 F2100.00000
G1 X122.036 Y80.036 F7200.000
G1 E0.80000 F2100.00000
G1 F840
G1 X127.964 Y80.036 E0.18588
G1 X127.964 Y88.964 E0.27994
G1 X122.036 Y88.964 E0.18588
G1 X122.036 Y80.096 E0.27806

G1 X122.413 Y80.413 F7200.000
G1 F840
G1 X127.587 Y80.413 E0.16223
G1 X127.587 Y88.587 E0.25629
G1 X122.413 Y88.587 E0.16223
G1 X122.413 Y80.473 E0.25441

G1 X122.790 Y80.790 F7200.000
G1 F840
G1 X127.210 Y80.790 E0.13859
G1 X127.210 Y88.210 E0.23265
G1 X122.790 Y88.210 E0.13859
G1 X122.790 Y80.850 E0.23077

G1 X122.719 Y80.396 F7200.000
G1 F5760
G1 X124.984 Y80.820 E-0.76000
G1 E-0.04000 F2100.00000
G1 X96.036 Y75.964 F7200.000
G1 E0.80000 F2100.00000
G1 F1680
G1 X96.036 Y82.033 E0.19028
G1 X96.071 Y82.540 E0.01593
G1 X96.174 Y83.042 E0.01609
G1 X96.264 Y83.326 E0.00934
G1 X96.369 Y83.594 E0.00904
G1 X96.605 Y84.051 E0.01610
G1 X96.922 Y84.502 E0.01731
G1 X97.281 Y84.887 E0.01649
G1 X97.510 Y85.086 E0.00951
G1 X97.929 Y85.382 E0.01610
G1 X98.419 Y85.638 E0.01731
G1 X98.930 Y85.819 E0.01701
G1 X99.460 Y85.929 E0.01697
G1 X99.967 Y85.964 E0.01594
G1 X107.287 Y85.955 E0.22951
G1 X107.807 Y85.883 E0.01646
G1 X108.328 Y85.738 E0.01696
G1 X108.799 Y85.534 E0.01609
G1 X109.073 Y85.380 E0.00986
G1 X109.490 Y85.086 E0.01599
G1 X109.719 Y84.887 E0.00952
G1 X110.077 Y84.503 E0.01646
G1 X110.389 Y84.061 E0.01697
G1 X110.638 Y83.580 E0.01697
G1 X110.819 Y83.071 E0.01696
G1 X110.924 Y82.568 E0.01609
G1 X110.957 Y82.257 E0.00983
G1 X110.964 Y78.034 E0.13240
G1 X110.985 Y77.723 E0.00976
G1 X111.077 Y77.334 E0.01253
G1 X111.194 Y77.064 E0.00922
G1 X111.339 Y76.827 E0.00870
G1 X111.514 Y76.612 E0.00870
G1 X111.717 Y76.423 E0.00870
G1 X112.049 Y76.201 E0.01253
G1 X112.319 Y76.084 E0.00922
G1 X112.587 Y76.009 E0.00872
G1 X113.018 Y75.964 E0.01359
G1 X137.139 Y75.971 E0.75629
G1 X137.414 Y76.009 E0.00871
G1 X137.681 Y76.084 E0.00870
G1 X137.936 Y76.194 E0.00870
G1 X138.173 Y76.339 E0.00870
G1 X138.388 Y76.514 E0.00870
G1 X138.577 Y76.717 E0.00870
G1 X138.738 Y76.943 E0.00870
G1 X138.865 Y77.190 E0.00870
G1 X138.989 Y77.570 E0.01253
G1 X139.029 Y77.862 E0.00925
G1 X139.036 Y82.033 E0.13079
G1 X139.068 Y82.511 E0.01503
G1 X139.121 Y82.821 E0.00986
G1 X139.262 Y83.328 E0.01649
G1 X139.466 Y83.799 E0.01609
G1 X139.620 Y84.073 E0.00986
G1 X139.914 Y84.490 E0.01599
G1 X140.113 Y84.718 E0.00951
G1 X140.476 Y85.057 E0.01557
G1 X140.725 Y85.248 E0.00986
G1 X141.175 Y85.522 E0.01651
G1 X141.672 Y85.737 E0.01697
G1 X142.193 Y85.883 E0.01697
G1 X142.729 Y85.957 E0.01696
G1 X150.032 Y85.964 E0.22900
G1 X150.540 Y85.929 E0.01595
G1 X151.070 Y85.819 E0.01697
G1 X151.580 Y85.638 E0.01697
G1 X152.046 Y85.397 E0.01646
G1 X152.300 Y85.230 E0.00951
G1 X152.698 Y84.907 E0.01610
G1 X153.076 Y84.504 E0.01731
G1 X153.389 Y84.061 E0.01701
G1 X153.638 Y83.580 E0.01697
G1 X153.819 Y83.070 E0.01697
G1 X153.929 Y82.540 E0.01697
G1 X153.964 Y82.033 E0.01594
G1 X153.964 Y75.964 E0.19028
G1 X154.036 Y75.964 E0.00225
G1 X154.036 Y134.036 E1.82080
G1 X153.964 Y134.036 E0.00225
G1 X153.964 Y127.967 E0.19028
G1 X153.929 Y127.460 E0.01594
G1 X153.819 Y126.930 E0.01697
G1 X153.638 Y126.420 E0.01697
G1 X153.389 Y125.939 E0.01697
G1 X153.077 Y125.497 E0.01697
G1 X152.719 Y125.113 E0.01646
G1 X152.490 Y124.914 E0.00952
G1 X152.074 Y124.621 E0.01594
G1 X151.810 Y124.472 E0.00952
G1 X151.328 Y124.263 E0.01646
G1 X150.823 Y124.121 E0.01646
G1 X150.524 Y124.069 E0.00952
G1 X150.032 Y124.036 E0.01544
G1 X142.729 Y124.043 E0.22900
G1 X142.193 Y124.117 E0.01696
G1 X141.688 Y124.258 E0.01646
G1 X141.406 Y124.369 E0.00951
G1 X140.949 Y124.605 E0.01610
G1 X140.511 Y124.913 E0.01679
G1 X140.281 Y125.113 E0.00956
G1 X139.923 Y125.497 E0.01646
G1 X139.621 Y125.926 E0.01646
G1 X139.472 Y126.190 E0.00951
G1 X139.267 Y126.661 E0.01610
G1 X139.121 Y127.176 E0.01679
G1 X139.069 Y127.476 E0.00956
G1 X139.036 Y127.966 E0.01540
G1 X139.029 Y132.138 E0.13081
G1 X138.963 Y132.535 E0.01259
G1 X138.865 Y132.810 E0.00917
G1 X138.738 Y133.057 E0.00870
G1 X138.577 Y133.283 E0.00870
G1 X138.377 Y133.498 E0.00922
G1 X138.064 Y133.733 E0.01226
G1 X137.809 Y133.866 E0.00901
G1 X137.549 Y133.958 E0.00866
G1 X137.277 Y134.015 E0.00870
G1 X136.967 Y134.036 E0.00974
