; generated by Slic3r 1.35.5-prusa3d-win64 on 2017-06-22 at 21:18:47

; 

; external perimeters extrusion width = 0.45mm
; perimeters extrusion width = 0.45mm
; infill extrusion width = 0.45mm
; solid infill extrusion width = 0.45mm
; top infill extrusion width = 0.40mm
; first layer extrusion width = 0.42mm

M107
M115 U3.0.11 ; tell printer latest fw version
M83  ; extruder relative mode
M104 S215 ; set extruder temp
M140 S55 ; set bed temp
M190 S55 ; wait for bed temp
M109 S215 ; wait for extruder temp
G28 W ; home all without mesh bed level
G80 ; mesh bed leveling
G1 Y-3.0 F1000.0 ; go outside pritn area
G1 X60.0 E9.0  F1000.0 ; intro line
G1 X100.0 E12.5  F1000.0 ; intro line
; Filament gcode

G21 ; set units to millimeters
G90 ; use absolute coordinates
M83 ; use relative distances for extrusion
G1 E-0.80000 F2100.00000
G1 Z0.200 F7200.000
G1 X93.686 Y96.032 F7200.000
G1 E0.80000 F2100.00000
M204 S1000
G1 F2100
G1 X93.485 Y95.215 E0.02637
G1 X93.487 Y92.888 E0.07299
G1 X93.724 Y92.018 E0.02825
G1 X94.070 Y91.500 E0.01953
G1 X94.538 Y91.089 E0.01953
G1 X95.097 Y90.814 E0.01953
G1 X95.708 Y90.694 E0.01953
G1 X165.861 Y90.689 E2.19961
G1 X166.574 Y90.800 E0.02260
G1 X167.220 Y91.119 E0.02260
G1 X167.742 Y91.617 E0.02260
G1 X168.089 Y92.248 E0.02260
G1 X168.232 Y92.951 E0.02249
G1 X168.232 Y95.173 E0.06967
G1 X168.136 Y95.743 E0.01811
G1 X167.906 Y96.272 E0.01811
G1 X167.547 Y96.739 E0.01846
G1 X157.484 Y106.800 E0.44618
G1 X156.803 Y107.248 E0.02555
G1 X156.007 Y107.439 E0.02567
G1 X105.403 Y107.400 E1.58663
G1 X104.769 Y107.179 E0.02107
G1 X104.221 Y106.790 E0.02107
G1 X94.158 Y96.728 E0.44618
G1 X93.719 Y96.082 E0.02449
G1 F5760
G1 X93.485 Y95.215 E-0.31090
G1 F5760
G1 X93.486 Y93.919 E-0.44910
G1 E-0.04000 F2100.00000
G1 X96.822 Y94.102 F7200.000
G1 E0.80000 F2100.00000
G1 F1680
G1 X96.822 Y94.031 E0.00225
G1 X106.893 Y94.031 E0.31579
G1 X106.893 Y104.031 E0.31354
G1 X154.822 Y104.031 E1.50276
G1 X154.822 Y94.031 E0.31354
G1 X164.893 Y94.031 E0.31579
G1 X164.893 Y94.102 E0.00225
G1 X154.893 Y94.102 E0.31354
G1 X154.893 Y104.102 E0.31354
G1 X106.822 Y104.102 E1.50725
G1 X106.822 Y94.102 E0.31354
G1 X96.882 Y94.102 E0.31166
G1 F5760
G1 X96.822 Y94.031 E-0.03238
G1 F5760
G1 X98.923 Y94.031 E-0.72762
G1 E-0.04000 F2100.00000
G1 X107.271 Y103.653 F7200.000
G1 E0.80000 F2100.00000
G1 F1680
G1 X154.445 Y103.653 E1.47911
G1 X154.445 Y93.653 E0.31354
G1 X165.271 Y93.653 E0.33944
G1 X165.271 Y94.479 E0.02589
G1 X155.271 Y94.479 E0.31354
G1 X155.271 Y104.479 E0.31354
G1 X106.445 Y104.479 E1.53090
G1 X106.445 Y94.479 E0.31354
G1 X96.445 Y94.479 E0.31354
G1 X96.445 Y93.653 E0.02589
G1 X107.271 Y93.653 E0.33944
G1 X107.271 Y103.593 E0.31166
G1 X107.648 Y103.276 F7200.000
G1 F1260
G1 X154.068 Y103.276 E1.45547
G1 X154.068 Y93.276 E0.31354
G1 X165.648 Y93.276 E0.36308
G1 X165.648 Y94.856 E0.04954
G1 X155.648 Y94.856 E0.31354
G1 X155.648 Y104.856 E0.31354
G1 X106.068 Y104.856 E1.55455
G1 X106.068 Y94.856 E0.31354
G1 X96.068 Y94.856 E0.31354
G1 X96.068 Y93.276 E0.04954
G1 X107.648 Y93.276 E0.36308
G1 X107.648 Y103.216 E0.31166
G1 X107.761 Y103.660 F7200.000
M106 S255
G1 F5760
G1 X109.842 Y103.219 E-0.76000
G1 E-0.04000 F2100.00000
G1 Z0.400 F7200.000
M104 S205 ; set temperature
G1 X107.226 Y103.698 F7200.000
G1 E0.80000 F2100.00000
M204 S800
G1 F1223.67
G1 X154.490 Y103.698 E1.59984
G1 X154.490 Y93.698 E0.33849
G1 X165.226 Y93.698 E0.36340
G1 X165.226 Y94.434 E0.02491
G1 X155.226 Y94.434 E0.33849
G1 X155.226 Y104.434 E0.33849
G1 X106.490 Y104.434 E1.64965
G1 X106.490 Y94.434 E0.33849
G1 X96.490 Y94.434 E0.33849
G1 X96.490 Y93.698 E0.02491
G1 X107.226 Y93.698 E0.36340
G1 X107.226 Y103.638 E0.33646
M204 S1000
G1 X107.633 Y103.291 F7200.000
M204 S800
G1 F917.753
G1 X154.083 Y103.291 E1.57228
G1 X154.083 Y93.291 E0.33849
G1 X165.633 Y93.291 E0.39095
G1 X165.633 Y94.841 E0.05247
G1 X155.633 Y94.841 E0.33849
G1 X155.633 Y104.841 E0.33849
G1 X106.083 Y104.841 E1.67721
G1 X106.083 Y94.841 E0.33849
G1 X96.083 Y94.841 E0.33849
G1 X96.083 Y93.291 E0.05247
G1 X107.633 Y93.291 E0.39095
G1 X107.633 Y103.231 E0.33646
M204 S1000
G1 X107.745 Y103.675 F7200.000
G1 F5760
G1 X109.827 Y103.234 E-0.76000
G1 E-0.04000 F2100.00000
G1 X106.858 Y103.902 F7200.000
G1 E0.80000 F2100.00000
G1 F1223.67
G1 X106.858 Y94.231 E0.22987
G1 X106.843 Y94.163 E0.00165
G1 F1223.67
G1 X106.829 Y94.095 E0.00198
G1 X106.693 Y94.066 E0.00396
G1 F1223.67
G1 X96.693 Y94.066 E0.23768
G1 F5760
G1 X98.887 Y94.066 E-0.76000
G1 E-0.04000 F2100.00000
G1 X106.858 Y103.902 F7200.000
G1 E0.80000 F2100.00000
G1 F1223.67
G1 X106.886 Y104.038 E0.00396
G1 X106.954 Y104.052 E0.00198
G1 F1223.67
G1 X107.022 Y104.066 E0.00165
G1 X154.693 Y104.066 E1.13306
G1 F1223.67
G1 X154.829 Y104.038 E0.00396
G1 X154.843 Y103.970 E0.00198
G1 F1223.67
G1 X154.858 Y103.902 E0.00165
G1 X154.858 Y94.231 E0.22987
G1 F1223.67
G1 X154.886 Y94.095 E0.00396
G1 X154.954 Y94.081 E0.00198
G1 F1223.67
G1 X155.022 Y94.066 E0.00165
G1 X165.022 Y94.066 E0.23768
G1 F5760
G1 X162.828 Y94.066 E-0.76000
G1 E-0.04000 F2100.00000
G1 Z0.600 F7200.000
G1 X107.226 Y103.698 F7200.000
G1 E0.80000 F2100.00000
M204 S800
G1 F1223.67
G1 X154.490 Y103.698 E1.59984
G1 X154.490 Y93.698 E0.33849
G1 X165.226 Y93.698 E0.36340
G1 X165.226 Y94.434 E0.02491
G1 X155.226 Y94.434 E0.33849
G1 X155.226 Y104.434 E0.33849
G1 X106.490 Y104.434 E1.64965
G1 X106.490 Y94.434 E0.33849
G1 X96.490 Y94.434 E0.33849
G1 X96.490 Y93.698 E0.02491
G1 X107.226 Y93.698 E0.36340
G1 X107.226 Y103.638 E0.33646
M204 S1000
G1 X107.633 Y103.291 F7200.000
M204 S800
G1 F917.753
G1 X154.083 Y103.291 E1.57228
G1 X154.083 Y93.291 E0.33849
G1 X165.633 Y93.291 E0.39095
G1 X165.633 Y94.841 E0.05247
G1 X155.633 Y94.841 E0.33849
G1 X155.633 Y104.841 E0.33849
G1 X106.083 Y104.841 E1.67721
G1 X106.083 Y94.841 E0.33849
G1 X96.083 Y94.841 E0.33849
G1 X96.083 Y93.291 E0.05247
G1 X107.633 Y93.291 E0.39095
G1 X107.633 Y103.231 E0.33646
M204 S1000
G1 X107.745 Y103.675 F7200.000
G1 F5760
G1 X109.827 Y103.234 E-0.76000
G1 E-0.04000 F2100.00000
G1 X106.858 Y103.902 F7200.000
G1 E0.80000 F2100.00000
G1 F1223.67
G1 X106.858 Y94.231 E0.22987
G1 X106.843 Y94.163 E0.00165
G1 F1223.67
G1 X106.829 Y94.095 E0.00198
G1 X106.693 Y94.066 E0.00396
G1 F1223.67
G1 X96.693 Y94.066 E0.23768
G1 F5760
G1 X98.887 Y94.066 E-0.76000
G1 E-0.04000 F2100.00000
G1 X106.858 Y103.902 F7200.000
G1 E0.80000 F2100.00000
G1 F1223.67
G1 X106.886 Y104.038 E0.00396
G1 X106.954 Y104.052 E0.00198
G1 F1223.67
G1 X107.022 Y104.066 E0.00165
G1 X154.693 Y104.066 E1.13306
G1 F1223.67
G1 X154.829 Y104.038 E0.00396
G1 X154.843 Y103.970 E0.00198
G1 F1223.67
G1 X154.858 Y103.902 E0.00165
G1 X154.858 Y94.231 E0.22987
G1 F1223.67
G1 X154.886 Y94.095 E0.00396
G1 X154.954 Y94.081 E0.00198
G1 F1223.67
G1 X155.022 Y94.066 E0.00165
G1 X165.022 Y94.066 E0.23768
G1 F5760
G1 X162.828 Y94.066 E-0.76000
G1 E-0.04000 F2100.00000
G1 Z0.800 F7200.000
G1 X107.226 Y103.698 F7200.000
G1 E0.80000 F2100.00000
M204 S800
G1 F1223.67
G1 X154.490 Y103.698 E1.59984
G1 X154.490 Y93.698 E0.33849
G1 X165.226 Y93.698 E0.36340
G1 X165.226 Y94.434 E0.02491
G1 X155.226 Y94.434 E0.33849
G1 X155.226 Y104.434 E0.33849
G1 X106.490 Y104.434 E1.64965
G1 X106.490 Y94.434 E0.33849
G1 X96.490 Y94.434 E0.33849
G1 X96.490 Y93.698 E0.02491
G1 X107.226 Y93.698 E0.36340
G1 X107.226 Y103.638 E0.33646
M204 S1000
G1 X107.633 Y103.291 F7200.000
M204 S800
G1 F917.753
G1 X154.083 Y103.291 E1.57228
G1 X154.083 Y93.291 E0.33849
G1 X165.633 Y93.291 E0.39095
G1 X165.633 Y94.841 E0.05247
G1 X155.633 Y94.841 E0.33849
G1 X155.633 Y104.841 E0.33849
G1 X106.083 Y104.841 E1.67721
G1 X106.083 Y94.841 E0.33849
G1 X96.083 Y94.841 E0.33849
G1 X96.083 Y93.291 E0.05247
G1 X107.633 Y93.291 E0.39095
G1 X107.633 Y103.231 E0.33646
M204 S1000
G1 X107.745 Y103.675 F7200.000
G1 F5760
G1 X109.827 Y103.234 E-0.76000
G1 E-0.04000 F2100.00000
G1 X106.858 Y103.902 F7200.000
G1 E0.80000 F2100.00000
G1 F1223.67
G1 X106.858 Y94.231 E0.22987
G1 X106.843 Y94.163 E0.00165
G1 F1223.67
G1 X106.829 Y94.095 E0.00198
G1 X106.693 Y94.066 E0.00396
G1 F1223.67
G1 X96.693 Y94.066 E0.23768
G1 F5760
G1 X98.887 Y94.066 E-0.76000
G1 E-0.04000 F2100.00000
G1 X106.858 Y103.902 F7200.000
G1 E0.80000 F2100.00000
G1 F1223.67
G1 X106.886 Y104.038 E0.00396
G1 X106.954 Y104.052 E0.00198
G1 F1223.67
G1 X107.022 Y104.066 E0.00165
G1 X154.693 Y104.066 E1.13306
G1 F1223.67
G1 X154.829 Y104.038 E0.00396
G1 X154.843 Y103.970 E0.00198
G1 F1223.67
G1 X154.858 Y103.902 E0.00165
G1 X154.858 Y94.231 E0.22987
G1 F1223.67
G1 X154.886 Y94.095 E0.00396
G1 X154.954 Y94.081 E0.00198
G1 F1223.67
G1 X155.022 Y94.066 E0.00165
G1 X165.022 Y94.066 E0.23768
G1 F5760
G1 X162.828 Y94.066 E-0.76000
G1 E-0.04000 F2100.00000
G1 Z1.000 F7200.000
G1 Z1.500 F7200.000
G1 X107.226 Y103.698 F7200.000
G1 Z1.000 F7200.000
G1 E0.80000 F2100.00000
M204 S800
G1 F1223.67
G1 X154.490 Y103.698 E1.59984
G1 X154.490 Y93.698 E0.33849
G1 X165.226 Y93.698 E0.36340
G1 X165.226 Y94.434 E0.02491
G1 X155.226 Y94.434 E0.33849
G1 X155.226 Y104.434 E0.33849
G1 X106.490 Y104.434 E1.64965
G1 X106.490 Y94.434 E0.33849
G1 X96.490 Y94.434 E0.33849
G1 X96.490 Y93.698 E0.02491
G1 X107.226 Y93.698 E0.36340
G1 X107.226 Y103.638 E0.33646
M204 S1000
G1 X107.633 Y103.291 F7200.000
M204 S800
G1 F917.753
G1 X154.083 Y103.291 E1.57228
G1 X154.083 Y93.291 E0.33849
G1 X165.633 Y93.291 E0.39095
G1 X165.633 Y94.841 E0.05247
G1 X155.633 Y94.841 E0.33849
G1 X155.633 Y104.841 E0.33849
G1 X106.083 Y104.841 E1.67721
G1 X106.083 Y94.841 E0.33849
G1 X96.083 Y94.841 E0.33849
G1 X96.083 Y93.291 E0.05247
G1 X107.633 Y93.291 E0.39095
G1 X107.633 Y103.231 E0.33646
M204 S1000
G1 X107.745 Y103.675 F7200.000
G1 F5760
G1 X109.827 Y103.234 E-0.76000
G1 E-0.04000 F2100.00000
G1 Z1.500 F7200.000
G1 X106.858 Y103.902 F7200.000
G1 Z1.000 F7200.000
G1 E0.80000 F2100.00000
G1 F1223.67
G1 X106.858 Y94.231 E0.22987
G1 X106.843 Y94.163 E0.00165
G1 F1223.67
G1 X106.829 Y94.095 E0.00198
G1 X106.693 Y94.066 E0.00396
G1 F1223.67
G1 X96.693 Y94.066 E0.23768
G1 F5760
G1 X98.887 Y94.066 E-0.76000
G1 E-0.04000 F2100.00000
G1 Z1.500 F7200.000
G1 X106.858 Y103.902 F7200.000
G1 Z1.000 F7200.000
G1 E0.80000 F2100.00000
G1 F1223.67
G1 X106.886 Y104.038 E0.00396
G1 X106.954 Y104.052 E0.00198
G1 F1223.67
G1 X107.022 Y104.066 E0.00165
G1 X154.693 Y104.066 E1.13306
G1 F1223.67
G1 X154.829 Y104.038 E0.00396
G1 X154.843 Y103.970 E0.00198
G1 F1223.67
G1 X154.858 Y103.902 E0.00165
G1 X154.858 Y94.231 E0.22987
G1 F1223.67
G1 X154.886 Y94.095 E0.00396
G1 X154.954 Y94.081 E0.00198
G1 F1223.67
G1 X155.022 Y94.066 E0.00165
G1 X165.022 Y94.066 E0.23768
G1 F5760
G1 X162.828 Y94.066 E-0.76000
G1 E-0.04000 F2100.00000
G1 Z1.500 F7200.000
G1 X107.226 Y103.698 F7200.000
G1 Z1.200 F7200.000
G1 E0.80000 F2100.00000
M204 S800
G1 F1223.67
G1 X154.490 Y103.698 E1.59984
G1 X154.490 Y93.698 E0.33849
G1 X165.226 Y93.698 E0.36340
G1 X165.226 Y94.434 E0.02491
G1 X155.226 Y94.434 E0.33849
G1 X155.226 Y104.434 E0.33849
G1 X106.490 Y104.434 E1.64965
G1 X106.490 Y94.434 E0.33849
G1 X96.490 Y94.434 E0.33849
G1 X96.490 Y93.698 E0.02491
G1 X107.226 Y93.698 E0.36340
G1 X107.226 Y103.638 E0.33646
M204 S1000
G1 X107.633 Y103.291 F7200.000
M204 S800
G1 F917.753
G1 X154.083 Y103.291 E1.57228
G1 X154.083 Y93.291 E0.33849
G1 X165.633 Y93.291 E0.39095
G1 X165.633 Y94.841 E0.05247
G1 X155.633 Y94.841 E0.33849
G1 X155.633 Y104.841 E0.33849
G1 X106.083 Y104.841 E1.67721
G1 X106.083 Y94.841 E0.33849
G1 X96.083 Y94.841 E0.33849
G1 X96.083 Y93.291 E0.05247
G1 X107.633 Y93.291 E0.39095
G1 X107.633 Y103.231 E0.33646
M204 S1000
G1 X107.745 Y103.675 F7200.000
G1 F5760
G1 X109.827 Y103.234 E-0.76000
G1 E-0.04000 F2100.00000
G1 Z1.700 F7200.000
G1 X106.858 Y103.902 F7200.000
G1 Z1.200 F7200.000
G1 E0.80000 F2100.00000
G1 F1223.67
G1 X106.858 Y94.231 E0.22987
G1 X106.843 Y94.163 E0.00165
G1 F1223.67
G1 X106.829 Y94.095 E0.00198
G1 X106.693 Y94.066 E0.00396
G1 F1223.67
G1 X96.693 Y94.066 E0.23768
G1 F5760
G1 X98.887 Y94.066 E-0.76000
G1 E-0.04000 F2100.00000
G1 Z1.700 F7200.000
G1 X106.858 Y103.902 F7200.000
G1 Z1.200 F7200.000
G1 E0.80000 F2100.00000
G1 F1223.67
G1 X106.886 Y104.038 E0.00396
G1 X106.954 Y104.052 E0.00198
G1 F1223.67
G1 X107.022 Y104.066 E0.00165
G1 X154.693 Y104.066 E1.13306
G1 F1223.67
G1 X154.829 Y104.038 E0.00396
G1 X154.843 Y103.970 E0.00198
G1 F1223.67
G1 X154.858 Y103.902 E0.00165
G1 X154.858 Y94.231 E0.22987
G1 F1223.67
G1 X154.886 Y94.095 E0.00396
G1 X154.954 Y94.081 E0.00198
G1 F1223.67
G1 X155.022 Y94.066 E0.00165
G1 X165.022 Y94.066 E0.23768
G1 F5760
G1 X162.828 Y94.066 E-0.76000
G1 E-0.04000 F2100.00000
G1 Z1.700 F7200.000
G1 X107.226 Y103.698 F7200.000
G1 Z1.400 F7200.000
G1 E0.80000 F2100.00000
M204 S800
G1 F1223.67
G1 X154.490 Y103.698 E1.59984
G1 X154.490 Y93.698 E0.33849
G1 X165.226 Y93.698 E0.36340
G1 X165.226 Y94.434 E0.02491
G1 X155.226 Y94.434 E0.33849
G1 X155.226 Y104.434 E0.33849
G1 X106.490 Y104.434 E1.64965
G1 X106.490 Y94.434 E0.33849
G1 X96.490 Y94.434 E0.33849
G1 X96.490 Y93.698 E0.02491
G1 X107.226 Y93.698 E0.36340
G1 X107.226 Y103.638 E0.33646
M204 S1000
G1 X107.633 Y103.291 F7200.000
M204 S800
G1 F917.753
G1 X154.083 Y103.291 E1.57228
G1 X154.083 Y93.291 E0.33849
G1 X165.633 Y93.291 E0.39095
G1 X165.633 Y94.841 E0.05247
G1 X155.633 Y94.841 E0.33849
G1 X155.633 Y104.841 E0.33849
G1 X106.083 Y104.841 E1.67721
G1 X106.083 Y94.841 E0.33849
G1 X96.083 Y94.841 E0.33849
G1 X96.083 Y93.291 E0.05247
G1 X107.633 Y93.291 E0.39095
G1 X107.633 Y103.231 E0.33646
M204 S1000
G1 X107.745 Y103.675 F7200.000
G1 F5760
G1 X109.827 Y103.234 E-0.76000
G1 E-0.04000 F2100.00000
G1 Z1.900 F7200.000
G1 X106.858 Y103.902 F7200.000
G1 Z1.400 F7200.000
G1 E0.80000 F2100.00000
G1 F1223.67
G1 X106.858 Y94.231 E0.22987
G1 X106.843 Y94.163 E0.00165
G1 F1223.67
G1 X106.829 Y94.095 E0.00198
G1 X106.693 Y94.066 E0.00396
G1 F1223.67
G1 X96.693 Y94.066 E0.23768
G1 F5760
G1 X98.887 Y94.066 E-0.76000
G1 E-0.04000 F2100.00000
G1 Z1.900 F7200.000
G1 X106.858 Y103.902 F7200.000
G1 Z1.400 F7200.000
G1 E0.80000 F2100.00000
G1 F1223.67
G1 X106.886 Y104.038 E0.00396
G1 X106.954 Y104.052 E0.00198
G1 F1223.67
G1 X107.022 Y104.066 E0.00165
G1 X154.693 Y104.066 E1.13306
G1 F1223.67
G1 X154.829 Y104.038 E0.00396
G1 X154.843 Y103.970 E0.00198
G1 F1223.67
G1 X154.858 Y103.902 E0.00165
G1 X154.858 Y94.231 E0.22987
G1 F1223.67
G1 X154.886 Y94.095 E0.00396
G1 X154.954 Y94.081 E0.00198
G1 F1223.67
G1 X155.022 Y94.066 E0.00165
G1 X165.022 Y94.066 E0.23768
G1 F5760
G1 X162.828 Y94.066 E-0.76000
G1 E-0.04000 F2100.00000
G1 Z1.900 F7200.000
G1 X107.226 Y103.698 F7200.000
G1 Z1.600 F7200.000
G1 E0.80000 F2100.00000
M204 S800
G1 F1223.67
G1 X154.490 Y103.698 E1.59984
G1 X154.490 Y93.698 E0.33849
G1 X165.226 Y93.698 E0.36340
G1 X165.226 Y94.434 E0.02491
G1 X155.226 Y94.434 E0.33849
G1 X155.226 Y104.434 E0.33849
G1 X106.490 Y104.434 E1.64965
G1 X106.490 Y94.434 E0.33849
G1 X96.490 Y94.434 E0.33849
G1 X96.490 Y93.698 E0.02491
G1 X107.226 Y93.698 E0.36340
G1 X107.226 Y103.638 E0.33646
M204 S1000
G1 X107.633 Y103.291 F7200.000
M204 S800
G1 F917.753
G1 X154.083 Y103.291 E1.57228
G1 X154.083 Y93.291 E0.33849
G1 X165.633 Y93.291 E0.39095
G1 X165.633 Y94.841 E0.05247
G1 X155.633 Y94.841 E0.33849
G1 X155.633 Y104.841 E0.33849
G1 X106.083 Y104.841 E1.67721
G1 X106.083 Y94.841 E0.33849
G1 X96.083 Y94.841 E0.33849
G1 X96.083 Y93.291 E0.05247
G1 X107.633 Y93.291 E0.39095
G1 X107.633 Y103.231 E0.33646
M204 S1000
G1 X107.745 Y103.675 F7200.000
G1 F5760
G1 X109.827 Y103.234 E-0.76000
G1 E-0.04000 F2100.00000
G1 Z2.100 F7200.000
G1 X106.858 Y103.902 F7200.000
G1 Z1.600 F7200.000
G1 E0.80000 F2100.00000
G1 F1223.67
G1 X106.858 Y94.231 E0.22987
G1 X106.843 Y94.163 E0.00165
G1 F1223.67
G1 X106.829 Y94.095 E0.00198
G1 X106.693 Y94.066 E0.00396
G1 F1223.67
G1 X96.693 Y94.066 E0.23768
G1 F5760
G1 X98.887 Y94.066 E-0.76000
G1 E-0.04000 F2100.00000
G1 Z2.100 F7200.000
G1 X106.858 Y103.902 F7200.000
G1 Z1.600 F7200.000
G1 E0.80000 F2100.00000
G1 F1223.67
G1 X106.886 Y104.038 E0.00396
G1 X106.954 Y104.052 E0.00198
G1 F1223.67
G1 X107.022 Y104.066 E0.00165
G1 X154.693 Y104.066 E1.13306
G1 F1223.67
